( pcb2gcode 1.1.2 )

G94     ( Inches per minute feed rate. )
G20     ( Units == INCHES.             )
G90     ( Absolute coordinates.        )
S20000  ( RPM spindle speed.           )
M3      ( Spindle on clockwise.        )

G64 P0.00075 ( set maximum deviation from commanded toolpath )

G04 P0 ( dwell for no time -- G64 should not smooth over this point )
G00 Z0.19685 ( retract )

G00 X1.11840 Y2.21820 ( rapid move to begin. )
G01 Z-0.11417 F43.30709 ( plunge. )
G04 P0 ( dwell for no time -- G64 should not smooth over this point )
X1.11840 Y2.21820
X1.11840 Y2.21720
X1.11440 Y2.21720
X1.11440 Y2.21620
X1.11340 Y2.21620
X1.11340 Y2.21520
X1.11240 Y2.21520
X1.11240 Y2.21420
X1.11140 Y2.21420
X1.11140 Y2.21320
X1.11040 Y2.21320
X1.11040 Y2.21220
X1.10940 Y2.21220
X1.10940 Y2.21120
X1.10840 Y2.21120
X1.10840 Y2.21020
X1.10740 Y2.21020
X1.10740 Y2.20920
X1.10640 Y2.20920
X1.10640 Y2.20820
X1.10540 Y2.20820
X1.10540 Y2.20720
X1.10440 Y2.20720
X1.10440 Y2.20620
X1.07840 Y2.20620
X1.07840 Y2.20520
X1.07740 Y2.20520
X1.07740 Y2.20420
X1.07640 Y2.20420
X1.07640 Y2.20320
X1.07540 Y2.20320
X1.07540 Y2.20220
X1.07440 Y2.20220
X1.07440 Y2.20120
X1.07340 Y2.20120
X1.07340 Y2.20020
X1.07240 Y2.20020
X1.07240 Y2.19920
X1.07140 Y2.19920
X1.07140 Y2.19820
X1.07040 Y2.19820
X1.07040 Y2.19720
X1.06940 Y2.19720
X1.06940 Y2.19620
X1.06840 Y2.19620
X1.06840 Y2.19520
X1.06740 Y2.19520
X1.06740 Y2.19420
X1.06640 Y2.19420
X1.06640 Y2.19320
X1.06540 Y2.19320
X1.06540 Y2.19220
X1.06440 Y2.19220
X1.06440 Y2.19120
X1.06340 Y2.19120
X1.06340 Y2.13020
X1.06440 Y2.13020
X1.06440 Y2.12920
X1.06540 Y2.12920
X1.06540 Y2.12820
X1.06640 Y2.12820
X1.06640 Y2.12720
X1.06740 Y2.12720
X1.06740 Y2.12620
X1.06840 Y2.12620
X1.06840 Y2.12520
X1.06940 Y2.12520
X1.06940 Y2.12420
X1.07040 Y2.12420
X1.07040 Y2.12320
X1.07140 Y2.12320
X1.07140 Y2.12220
X1.07240 Y2.12220
X1.07240 Y2.12120
X1.07340 Y2.12120
X1.07340 Y2.12020
X1.07440 Y2.12020
X1.07440 Y2.11920
X1.07540 Y2.11920
X1.07540 Y2.11820
X1.07640 Y2.11820
X1.07640 Y2.11720
X1.07740 Y2.11720
X1.07740 Y2.11620
X1.07840 Y2.11620
X1.07840 Y2.11520
X1.13940 Y2.11520
X1.13940 Y2.11620
X1.14040 Y2.11620
X1.14040 Y2.11720
X1.14140 Y2.11720
X1.14140 Y2.11820
X1.14240 Y2.11820
X1.14240 Y2.11920
X1.14340 Y2.11920
X1.14340 Y2.12020
X1.14440 Y2.12020
X1.14440 Y2.12120
X1.14540 Y2.12120
X1.14540 Y2.12220
X1.14640 Y2.12220
X1.14640 Y2.12320
X1.14740 Y2.12320
X1.14740 Y2.12420
X1.14840 Y2.12420
X1.14840 Y2.12520
X1.14940 Y2.12520
X1.14940 Y2.12620
X1.15040 Y2.12620
X1.15040 Y2.12720
X1.15140 Y2.12720
X1.15140 Y2.12820
X1.15240 Y2.12820
X1.15240 Y2.12920
X1.15340 Y2.12920
X1.15340 Y2.13020
X1.15440 Y2.13020
X1.15440 Y2.15620
X1.15540 Y2.15620
X1.15540 Y2.15720
X1.15640 Y2.15720
X1.15640 Y2.15820
X1.15740 Y2.15820
X1.15740 Y2.15920
X1.15840 Y2.15920
X1.15840 Y2.16020
X1.15940 Y2.16020
X1.15940 Y2.16120
X1.16040 Y2.16120
X1.16040 Y2.16220
X1.16140 Y2.16220
X1.16140 Y2.16320
X1.16240 Y2.16320
X1.16240 Y2.16420
X1.16340 Y2.16420
X1.16340 Y2.16520
X1.16440 Y2.16520
X1.16440 Y2.16620
X1.16540 Y2.16620
X1.16540 Y2.16720
X1.16640 Y2.16720
X1.16640 Y2.16820
X1.16740 Y2.16820
X1.16740 Y2.16920
X1.16840 Y2.16920
X1.16840 Y2.17020
X1.16940 Y2.17020
X1.16940 Y2.17120
X1.17040 Y2.17120
X1.17040 Y2.17220
X1.17140 Y2.17220
X1.17140 Y2.17320
X1.17240 Y2.17320
X1.17240 Y2.17420
X1.17340 Y2.17420
X1.17340 Y2.17520
X1.17440 Y2.17520
X1.17440 Y2.17620
X1.17540 Y2.17620
X1.17540 Y2.17720
X1.17640 Y2.17720
X1.17640 Y2.17820
X1.17740 Y2.17820
X1.17740 Y2.17920
X1.17840 Y2.17920
X1.17840 Y2.18020
X1.17940 Y2.18020
X1.17940 Y2.18120
X1.18040 Y2.18120
X1.18040 Y2.18220
X1.18140 Y2.18220
X1.18140 Y2.18320
X1.82340 Y2.18320
X1.82340 Y2.18420
X1.82940 Y2.18420
X1.82940 Y2.18520
X1.83440 Y2.18520
X1.83440 Y2.18620
X1.88340 Y2.18620
X1.88340 Y2.18520
X1.88840 Y2.18520
X1.88840 Y2.18420
X1.89440 Y2.18420
X1.89440 Y2.18320
X1.92440 Y2.18320
X1.92440 Y2.18420
X1.93040 Y2.18420
X1.93040 Y2.18520
X1.93540 Y2.18520
X1.93540 Y2.18620
X1.98340 Y2.18620
X1.98340 Y2.18520
X1.98840 Y2.18520
X1.98840 Y2.18420
X1.99440 Y2.18420
X1.99440 Y2.18320
X2.02040 Y2.18320
X2.02040 Y2.18220
X2.01940 Y2.18220
X2.01940 Y2.18120
X2.01840 Y2.18120
X2.01840 Y2.18020
X2.01740 Y2.18020
X2.01740 Y2.17920
X2.01640 Y2.17920
X2.01640 Y2.17720
X2.01540 Y2.17720
X2.01540 Y2.17620
X2.01440 Y2.17620
X2.01440 Y2.17520
X2.01340 Y2.17520
X2.01340 Y2.17420
X2.01240 Y2.17420
X2.01240 Y2.17120
X2.01140 Y2.17120
X2.01140 Y2.16720
X2.01040 Y2.16720
X2.01040 Y2.16220
X2.00940 Y2.16220
X2.00940 Y2.05920
X2.01040 Y2.05920
X2.01040 Y2.05420
X2.01140 Y2.05420
X2.01140 Y2.05020
X2.01240 Y2.05020
X2.01240 Y2.04720
X2.01340 Y2.04720
X2.01340 Y2.04620
X2.01440 Y2.04620
X2.01440 Y2.04520
X2.01540 Y2.04520
X2.01540 Y2.04420
X2.01640 Y2.04420
X2.01640 Y2.04220
X2.01740 Y2.04220
X2.01740 Y2.04120
X2.01840 Y2.04120
X2.01840 Y2.04020
X2.01940 Y2.04020
X2.01940 Y2.03920
X2.02040 Y2.03920
X2.02040 Y2.03720
X2.02240 Y2.03720
X2.02240 Y2.03620
X2.02540 Y2.03620
X2.02540 Y2.03520
X2.02740 Y2.03520
X2.02740 Y2.03420
X2.02940 Y2.03420
X2.02940 Y2.03320
X2.03140 Y2.03320
X2.03140 Y2.03220
X2.08640 Y2.03220
X2.08640 Y2.03320
X2.08840 Y2.03320
X2.08840 Y2.03420
X2.09040 Y2.03420
X2.09040 Y2.03520
X2.09240 Y2.03520
X2.09240 Y2.03620
X2.09540 Y2.03620
X2.09540 Y2.03720
X2.09740 Y2.03720
X2.09740 Y2.03920
X2.09840 Y2.03920
X2.09840 Y2.04020
X2.09940 Y2.04020
X2.09940 Y2.04120
X2.10040 Y2.04120
X2.10040 Y2.04220
X2.10140 Y2.04220
X2.10140 Y2.04420
X2.10240 Y2.04420
X2.10240 Y2.04520
X2.10340 Y2.04520
X2.10340 Y2.04620
X2.10440 Y2.04620
X2.10440 Y2.04720
X2.10540 Y2.04720
X2.10540 Y2.05020
X2.10640 Y2.05020
X2.10640 Y2.05420
X2.10740 Y2.05420
X2.10740 Y2.05920
X2.10840 Y2.05920
X2.10840 Y2.16220
X2.10740 Y2.16220
X2.10740 Y2.16720
X2.10640 Y2.16720
X2.10640 Y2.17120
X2.10540 Y2.17120
X2.10540 Y2.17420
X2.10440 Y2.17420
X2.10440 Y2.17520
X2.10340 Y2.17520
X2.10340 Y2.17620
X2.10240 Y2.17620
X2.10240 Y2.17720
X2.10140 Y2.17720
X2.10140 Y2.17920
X2.10040 Y2.17920
X2.10040 Y2.18020
X2.09940 Y2.18020
X2.09940 Y2.18120
X2.09840 Y2.18120
X2.09840 Y2.18220
X2.09740 Y2.18220
X2.09740 Y2.18320
X2.12440 Y2.18320
X2.12440 Y2.18420
X2.13040 Y2.18420
X2.13040 Y2.18520
X2.13540 Y2.18520
X2.13540 Y2.18620
X2.18340 Y2.18620
X2.18340 Y2.18520
X2.18840 Y2.18520
X2.18840 Y2.18420
X2.19440 Y2.18420
X2.19440 Y2.18320
X2.22440 Y2.18320
X2.22440 Y2.18420
X2.23040 Y2.18420
X2.23040 Y2.18520
X2.23540 Y2.18520
X2.23540 Y2.18620
X2.28340 Y2.18620
X2.28340 Y2.18520
X2.28840 Y2.18520
X2.28840 Y2.18420
X2.29440 Y2.18420
X2.29440 Y2.18320
X2.32440 Y2.18320
X2.32440 Y2.18420
X2.33040 Y2.18420
X2.33040 Y2.18520
X2.33540 Y2.18520
X2.33540 Y2.18620
X2.33940 Y2.18620
X2.33940 Y2.18520
X2.34240 Y2.18520
X2.34240 Y2.18420
X2.34540 Y2.18420
X2.34540 Y2.18320
X2.34840 Y2.18320
X2.34840 Y2.18220
X2.35140 Y2.18220
X2.35140 Y2.18120
X2.35440 Y2.18120
X2.35440 Y2.18020
X2.35740 Y2.18020
X2.35740 Y2.17920
X2.36040 Y2.17920
X2.36040 Y2.17820
X2.36340 Y2.17820
X2.36340 Y2.17720
X2.36640 Y2.17720
X2.36640 Y2.17620
X2.36940 Y2.17620
X2.36940 Y2.17520
X2.37240 Y2.17520
X2.37240 Y2.17420
X2.37340 Y2.17420
X2.37340 Y2.17320
X2.37440 Y2.17320
X2.37440 Y2.17220
X2.37540 Y2.17220
X2.37540 Y2.17120
X2.37740 Y2.17120
X2.37740 Y2.17020
X2.37940 Y2.17020
X2.37940 Y2.16920
X2.38040 Y2.16920
X2.38040 Y2.16820
X2.38140 Y2.16820
X2.38140 Y2.16720
X2.38240 Y2.16720
X2.38240 Y2.16620
X2.38340 Y2.16620
X2.38340 Y2.16520
X2.38440 Y2.16520
X2.38440 Y2.16420
X2.38540 Y2.16420
X2.38540 Y2.16320
X2.38640 Y2.16320
X2.38640 Y2.16220
X2.38740 Y2.16220
X2.38740 Y2.16120
X2.38840 Y2.16120
X2.38840 Y2.16020
X2.38940 Y2.16020
X2.38940 Y2.15920
X2.39040 Y2.15920
X2.39040 Y2.15620
X2.39140 Y2.15620
X2.39140 Y2.15520
X2.39240 Y2.15520
X2.39240 Y2.15320
X2.39340 Y2.15320
X2.39340 Y2.15120
X2.39440 Y2.15120
X2.39440 Y2.14920
X2.39540 Y2.14920
X2.39540 Y2.14720
X2.39640 Y2.14720
X2.39640 Y2.14420
X2.39740 Y2.14420
X2.39740 Y2.14120
X2.39840 Y2.14120
X2.39840 Y2.13820
X2.39940 Y2.13820
X2.39940 Y2.13520
X2.40040 Y2.13520
X2.40040 Y2.13220
X2.40140 Y2.13220
X2.40140 Y2.12920
X2.40240 Y2.12920
X2.40240 Y2.12620
X2.40340 Y2.12620
X2.40340 Y2.12320
X2.40440 Y2.12320
X2.40440 Y2.12020
X2.40540 Y2.12020
X2.40540 Y2.11720
X2.40640 Y2.11720
X2.40640 Y2.11420
X2.40740 Y2.11420
X2.40740 Y2.11120
X2.40840 Y2.11120
X2.40840 Y2.11020
X2.40940 Y2.11020
X2.40940 Y2.10920
X2.41040 Y2.10920
X2.41040 Y2.10820
X2.41140 Y2.10820
X2.41140 Y2.10720
X2.41240 Y2.10720
X2.41240 Y2.10620
X2.41340 Y2.10620
X2.41340 Y2.10520
X2.41440 Y2.10520
X2.41440 Y2.10420
X2.41540 Y2.10420
X2.41540 Y2.10320
X2.41640 Y2.10320
X2.41640 Y2.10220
X2.41740 Y2.10220
X2.41740 Y2.10120
X2.41840 Y2.10120
X2.41840 Y2.10020
X2.41940 Y2.10020
X2.41940 Y2.09920
X2.42040 Y2.09920
X2.42040 Y2.09820
X2.42140 Y2.09820
X2.42140 Y2.09720
X2.42240 Y2.09720
X2.42240 Y2.09620
X2.42340 Y2.09620
X2.42340 Y2.09520
X2.42440 Y2.09520
X2.42440 Y2.09420
X2.42540 Y2.09420
X2.42540 Y2.09320
X2.42640 Y2.09320
X2.42640 Y2.09220
X2.42740 Y2.09220
X2.42740 Y2.09120
X2.42840 Y2.09120
X2.42840 Y2.09020
X2.42940 Y2.09020
X2.42940 Y2.08920
X2.43040 Y2.08920
X2.43040 Y2.08820
X2.43140 Y2.08820
X2.43140 Y1.68320
X2.43040 Y1.68320
X2.43040 Y1.68220
X2.42940 Y1.68220
X2.42940 Y1.68120
X2.42840 Y1.68120
X2.42840 Y1.68020
X2.42740 Y1.68020
X2.42740 Y1.67920
X2.42640 Y1.67920
X2.42640 Y1.67820
X2.42540 Y1.67820
X2.42540 Y1.67720
X2.42440 Y1.67720
X2.42440 Y1.67620
X2.42340 Y1.67620
X2.42340 Y1.67520
X2.42240 Y1.67520
X2.42240 Y1.67420
X2.42140 Y1.67420
X2.42140 Y1.67320
X2.42040 Y1.67320
X2.42040 Y1.67220
X2.41940 Y1.67220
X2.41940 Y1.67120
X2.41840 Y1.67120
X2.41840 Y1.67020
X2.41740 Y1.67020
X2.41740 Y1.66920
X2.41640 Y1.66920
X2.41640 Y1.66820
X2.41540 Y1.66820
X2.41540 Y1.66720
X2.41440 Y1.66720
X2.41440 Y1.66620
X2.41340 Y1.66620
X2.41340 Y1.66520
X2.41240 Y1.66520
X2.41240 Y1.66420
X2.41140 Y1.66420
X2.41140 Y1.66320
X2.41040 Y1.66320
X2.41040 Y1.66220
X2.40940 Y1.66220
X2.40940 Y1.66120
X2.40840 Y1.66120
X2.40840 Y1.66020
X2.40740 Y1.66020
X2.40740 Y1.65920
X2.40640 Y1.65920
X2.40640 Y1.65820
X2.40540 Y1.65820
X2.40540 Y1.65720
X2.40440 Y1.65720
X2.40440 Y1.65620
X2.40340 Y1.65620
X2.40340 Y1.65520
X2.40240 Y1.65520
X2.40240 Y1.65420
X2.40140 Y1.65420
X2.40140 Y1.65320
X2.40040 Y1.65320
X2.40040 Y1.65220
X2.39940 Y1.65220
X2.39940 Y1.65120
X2.39840 Y1.65120
X2.39840 Y1.65020
X2.39740 Y1.65020
X2.39740 Y1.64920
X2.39640 Y1.64920
X2.39640 Y1.64820
X2.39540 Y1.64820
X2.39540 Y1.64720
X2.39440 Y1.64720
X2.39440 Y1.64620
X2.39340 Y1.64620
X2.39340 Y1.64520
X2.39240 Y1.64520
X2.39240 Y1.64420
X2.39140 Y1.64420
X2.39140 Y1.64320
X2.39040 Y1.64320
X2.39040 Y1.64220
X2.38940 Y1.64220
X2.38940 Y1.64120
X2.38840 Y1.64120
X2.38840 Y1.64020
X2.38740 Y1.64020
X2.38740 Y1.63920
X2.38640 Y1.63920
X2.38640 Y1.63820
X2.38540 Y1.63820
X2.38540 Y1.63720
X2.38440 Y1.63720
X2.38440 Y1.63620
X2.38340 Y1.63620
X2.38340 Y1.63520
X2.38240 Y1.63520
X2.38240 Y1.63420
X2.38140 Y1.63420
X2.38140 Y1.63320
X2.38040 Y1.63320
X2.38040 Y1.63220
X2.37940 Y1.63220
X2.37940 Y1.63120
X2.37840 Y1.63120
X2.37840 Y1.63020
X2.37740 Y1.63020
X2.37740 Y1.62920
X2.37640 Y1.62920
X2.37640 Y1.62820
X2.37540 Y1.62820
X2.37540 Y1.62720
X2.37440 Y1.62720
X2.37440 Y1.62620
X2.37340 Y1.62620
X2.37340 Y1.62520
X2.37240 Y1.62520
X2.37240 Y1.62420
X2.37140 Y1.62420
X2.37140 Y1.62320
X2.37040 Y1.62320
X2.37040 Y1.62220
X2.36940 Y1.62220
X2.36940 Y1.62120
X2.36840 Y1.62120
X2.36840 Y1.62020
X2.36740 Y1.62020
X2.36740 Y1.61920
X2.36640 Y1.61920
X2.36640 Y1.61820
X2.36540 Y1.61820
X2.36540 Y1.61720
X2.36440 Y1.61720
X2.36440 Y1.61620
X2.36340 Y1.61620
X2.36340 Y1.61520
X2.36240 Y1.61520
X2.36240 Y1.61420
X2.36140 Y1.61420
X2.36140 Y1.61320
X2.36040 Y1.61320
X2.36040 Y1.61220
X2.35940 Y1.61220
X2.35940 Y1.61120
X2.35840 Y1.61120
X2.35840 Y1.61020
X2.35740 Y1.61020
X2.35740 Y1.60920
X2.35640 Y1.60920
X2.35640 Y1.60820
X2.35540 Y1.60820
X2.35540 Y1.60720
X2.35440 Y1.60720
X2.35440 Y1.60620
X2.35340 Y1.60620
X2.35340 Y1.60520
X2.35240 Y1.60520
X2.35240 Y1.60420
X2.35140 Y1.60420
X2.35140 Y1.60320
X2.35040 Y1.60320
X2.35040 Y1.60220
X2.34940 Y1.60220
X2.34940 Y1.60120
X2.34840 Y1.60120
X2.34840 Y1.60020
X2.34740 Y1.60020
X2.34740 Y1.59920
X2.34640 Y1.59920
X2.34640 Y1.59820
X2.34540 Y1.59820
X2.34540 Y1.59720
X2.34440 Y1.59720
X2.34440 Y1.59620
X2.34340 Y1.59620
X2.34340 Y1.59520
X2.34240 Y1.59520
X2.34240 Y1.59420
X2.34140 Y1.59420
X2.34140 Y1.59320
X2.34040 Y1.59320
X2.34040 Y1.59220
X2.33940 Y1.59220
X2.33940 Y1.59120
X2.33840 Y1.59120
X2.33840 Y1.59020
X2.33740 Y1.59020
X2.33740 Y1.58920
X2.33640 Y1.58920
X2.33640 Y1.58820
X2.33540 Y1.58820
X2.33540 Y1.58720
X2.33440 Y1.58720
X2.33440 Y1.58620
X2.33340 Y1.58620
X2.33340 Y1.58520
X2.33240 Y1.58520
X2.33240 Y1.58420
X2.33140 Y1.58420
X2.33140 Y1.58320
X2.33040 Y1.58320
X2.33040 Y1.58220
X2.32940 Y1.58220
X2.32940 Y1.58120
X2.32840 Y1.58120
X2.32840 Y1.58020
X2.32740 Y1.58020
X2.32740 Y1.57920
X2.32640 Y1.57920
X2.32640 Y1.57820
X2.32540 Y1.57820
X2.32540 Y1.57720
X2.32440 Y1.57720
X2.32440 Y1.57620
X2.32340 Y1.57620
X2.32340 Y1.57520
X2.32240 Y1.57520
X2.32240 Y1.57420
X2.32140 Y1.57420
X2.32140 Y1.57320
X2.32040 Y1.57320
X2.32040 Y1.57220
X2.31940 Y1.57220
X2.31940 Y1.57120
X2.31840 Y1.57120
X2.31840 Y1.57020
X2.31740 Y1.57020
X2.31740 Y1.56920
X2.31640 Y1.56920
X2.31640 Y1.56820
X2.31540 Y1.56820
X2.31540 Y1.56720
X2.31440 Y1.56720
X2.31440 Y1.56620
X2.31340 Y1.56620
X2.31340 Y1.56520
X2.31240 Y1.56520
X2.31240 Y1.56420
X2.31140 Y1.56420
X2.31140 Y1.56320
X2.31040 Y1.56320
X2.31040 Y1.56220
X2.30940 Y1.56220
X2.30940 Y1.56120
X2.30840 Y1.56120
X2.30840 Y1.56020
X2.30740 Y1.56020
X2.30740 Y1.55920
X2.30640 Y1.55920
X2.30640 Y1.55820
X2.30540 Y1.55820
X2.30540 Y1.55720
X2.30440 Y1.55720
X2.30440 Y1.55620
X2.30340 Y1.55620
X2.30340 Y1.55520
X2.30240 Y1.55520
X2.30240 Y1.55420
X2.30140 Y1.55420
X2.30140 Y1.55320
X2.30040 Y1.55320
X2.30040 Y1.55220
X2.29940 Y1.55220
X2.29940 Y1.55120
X2.29840 Y1.55120
X2.29840 Y1.55020
X2.29740 Y1.55020
X2.29740 Y1.54920
X2.29640 Y1.54920
X2.29640 Y1.54820
X2.29540 Y1.54820
X2.29540 Y1.54720
X2.29440 Y1.54720
X2.29440 Y1.54620
X2.29340 Y1.54620
X2.29340 Y1.54520
X2.29240 Y1.54520
X2.29240 Y1.54420
X2.29140 Y1.54420
X2.29140 Y1.54320
X2.29040 Y1.54320
X2.29040 Y1.54220
X2.28940 Y1.54220
X2.28940 Y1.54120
X2.28840 Y1.54120
X2.28840 Y1.54020
X2.28740 Y1.54020
X2.28740 Y1.53920
X2.28640 Y1.53920
X2.28640 Y1.53820
X2.28540 Y1.53820
X2.28540 Y1.53720
X2.28440 Y1.53720
X2.28440 Y1.53620
X2.28340 Y1.53620
X2.28340 Y1.53520
X2.28240 Y1.53520
X2.28240 Y1.53420
X2.28140 Y1.53420
X2.28140 Y1.53320
X2.28040 Y1.53320
X2.28040 Y1.53220
X2.27940 Y1.53220
X2.27940 Y1.53120
X2.27840 Y1.53120
X2.27840 Y1.53020
X2.27740 Y1.53020
X2.27740 Y1.52920
X2.27640 Y1.52920
X2.27640 Y1.52820
X2.27540 Y1.52820
X2.27540 Y1.52720
X2.27440 Y1.52720
X2.27440 Y1.52620
X2.27340 Y1.52620
X2.27340 Y1.52520
X2.27240 Y1.52520
X2.27240 Y1.52420
X2.27140 Y1.52420
X2.27140 Y1.52320
X2.27040 Y1.52320
X2.27040 Y1.52220
X2.26940 Y1.52220
X2.26940 Y1.52120
X2.26840 Y1.52120
X2.26840 Y1.52020
X2.26740 Y1.52020
X2.26740 Y1.51920
X2.26640 Y1.51920
X2.26640 Y1.51820
X2.26540 Y1.51820
X2.26540 Y1.51720
X2.26440 Y1.51720
X2.26440 Y1.51620
X2.26340 Y1.51620
X2.26340 Y1.51520
X2.26240 Y1.51520
X2.26240 Y1.51420
X2.26140 Y1.51420
X2.26140 Y1.51320
X2.26040 Y1.51320
X2.26040 Y1.51220
X2.25940 Y1.51220
X2.25940 Y1.51120
X2.25840 Y1.51120
X2.25840 Y1.51020
X2.25740 Y1.51020
X2.25740 Y1.50920
X2.25640 Y1.50920
X2.25640 Y1.50820
X2.25540 Y1.50820
X2.25540 Y1.50720
X2.25440 Y1.50720
X2.25440 Y1.50620
X2.25340 Y1.50620
X2.25340 Y1.50520
X2.25240 Y1.50520
X2.25240 Y1.50420
X2.25140 Y1.50420
X2.25140 Y1.50320
X2.25040 Y1.50320
X2.25040 Y1.50220
X2.24940 Y1.50220
X2.24940 Y1.50120
X2.24840 Y1.50120
X2.24840 Y1.50020
X2.24740 Y1.50020
X2.24740 Y1.49920
X2.24640 Y1.49920
X2.24640 Y1.49820
X2.24540 Y1.49820
X2.24540 Y1.49720
X2.24440 Y1.49720
X2.24440 Y1.49620
X2.24340 Y1.49620
X2.24340 Y1.49520
X2.24240 Y1.49520
X2.24240 Y1.49420
X2.24140 Y1.49420
X2.24140 Y1.49320
X2.24040 Y1.49320
X2.24040 Y1.49220
X2.23940 Y1.49220
X2.23940 Y1.49120
X2.23840 Y1.49120
X2.23840 Y1.49020
X2.23740 Y1.49020
X2.23740 Y1.48920
X2.23640 Y1.48920
X2.23640 Y1.48820
X2.23540 Y1.48820
X2.23540 Y1.48720
X2.23440 Y1.48720
X2.23440 Y1.48620
X2.23340 Y1.48620
X2.23340 Y1.48520
X2.23240 Y1.48520
X2.23240 Y1.48420
X2.23140 Y1.48420
X2.23140 Y1.48320
X2.23040 Y1.48320
X2.23040 Y1.48220
X2.22940 Y1.48220
X2.22940 Y1.48120
X2.22840 Y1.48120
X2.22840 Y1.48020
X2.22740 Y1.48020
X2.22740 Y1.47920
X2.22640 Y1.47920
X2.22640 Y1.47820
X2.22540 Y1.47820
X2.22540 Y1.47720
X2.22440 Y1.47720
X2.22440 Y1.47620
X2.22340 Y1.47620
X2.22340 Y1.47520
X2.22240 Y1.47520
X2.22240 Y1.47420
X2.22140 Y1.47420
X2.22140 Y1.47320
X2.22040 Y1.47320
X2.22040 Y1.47220
X2.21940 Y1.47220
X2.21940 Y1.47120
X2.21840 Y1.47120
X2.21840 Y1.47020
X2.21740 Y1.47020
X2.21740 Y1.46920
X2.21640 Y1.46920
X2.21640 Y1.46820
X2.21540 Y1.46820
X2.21540 Y1.46720
X2.21440 Y1.46720
X2.21440 Y1.46620
X2.21340 Y1.46620
X2.21340 Y1.46520
X2.21240 Y1.46520
X2.21240 Y1.46420
X2.21140 Y1.46420
X2.21140 Y1.46320
X2.21040 Y1.46320
X2.21040 Y1.46220
X2.20940 Y1.46220
X2.20940 Y1.45920
X2.20840 Y1.45920
X2.20840 Y1.45620
X2.20740 Y1.45620
X2.20740 Y1.45320
X2.20640 Y1.45320
X2.20640 Y1.45020
X2.20540 Y1.45020
X2.20540 Y1.44720
X2.20440 Y1.44720
X2.20440 Y1.44420
X2.20340 Y1.44420
X2.20340 Y1.44320
X2.20240 Y1.44320
X2.20240 Y1.44020
X2.20140 Y1.44020
X2.20140 Y1.43820
X2.20040 Y1.43820
X2.20040 Y1.43620
X2.19940 Y1.43620
X2.19940 Y1.43520
X2.19840 Y1.43520
X2.19840 Y1.43320
X2.19740 Y1.43320
X2.19740 Y1.43220
X2.19640 Y1.43220
X2.19640 Y1.43020
X2.19540 Y1.43020
X2.19540 Y1.42920
X2.19440 Y1.42920
X2.19440 Y1.42820
X2.19340 Y1.42820
X2.19340 Y1.42720
X2.19240 Y1.42720
X2.19240 Y1.42620
X2.19140 Y1.42620
X2.19140 Y1.42520
X2.19040 Y1.42520
X2.19040 Y1.42420
X2.18940 Y1.42420
X2.18940 Y1.42320
X2.18840 Y1.42320
X2.18840 Y1.42220
X2.18740 Y1.42220
X2.18740 Y1.42120
X2.18640 Y1.42120
X2.18640 Y1.42020
X2.18540 Y1.42020
X2.18540 Y1.41920
X2.18340 Y1.41920
X2.18340 Y1.41820
X2.18140 Y1.41820
X2.18140 Y1.41720
X2.18040 Y1.41720
X2.18040 Y1.41620
X2.17940 Y1.41620
X2.17940 Y1.41520
X2.17840 Y1.41520
X2.17840 Y1.41420
X2.17540 Y1.41420
X2.17540 Y1.41320
X2.17440 Y1.41320
X2.17440 Y1.41220
X2.17140 Y1.41220
X2.17140 Y1.41120
X2.14740 Y1.41120
X2.14740 Y1.41020
X2.13240 Y1.41020
X2.13240 Y1.40920
X2.12540 Y1.40920
X2.12540 Y1.40820
X2.11840 Y1.40820
X2.11840 Y1.40720
X2.11740 Y1.40720
X2.11740 Y1.40520
X2.11640 Y1.40520
X2.11640 Y1.40420
X2.11540 Y1.40420
X2.11540 Y1.40320
X2.11440 Y1.40320
X2.11440 Y1.40220
X2.11340 Y1.40220
X2.11340 Y1.40020
X2.11240 Y1.40020
X2.11240 Y1.39820
X2.11140 Y1.39820
X2.11140 Y1.39720
X2.11040 Y1.39720
X2.11040 Y1.39420
X2.10940 Y1.39420
X2.10940 Y1.39120
X2.10840 Y1.39120
X2.10840 Y1.38520
X2.10740 Y1.38520
X2.10740 Y1.33620
X2.10840 Y1.33620
X2.10840 Y1.33020
X2.10940 Y1.33020
X2.10940 Y1.32720
X2.11040 Y1.32720
X2.11040 Y1.32420
X2.11140 Y1.32420
X2.11140 Y1.32320
X2.11240 Y1.32320
X2.11240 Y1.32120
X2.11340 Y1.32120
X2.11340 Y1.31920
X2.11440 Y1.31920
X2.11440 Y1.31820
X2.11540 Y1.31820
X2.11540 Y1.31720
X2.11640 Y1.31720
X2.11640 Y1.31620
X2.11740 Y1.31620
X2.11740 Y1.31420
X2.11840 Y1.31420
X2.11840 Y1.31320
X2.12040 Y1.31320
X2.12040 Y1.31220
X2.12240 Y1.31220
X2.12240 Y1.31120
X2.12340 Y1.31120
X2.12340 Y1.31020
X2.12540 Y1.31020
X2.12540 Y1.30920
X2.12740 Y1.30920
X2.12740 Y1.30820
X2.12840 Y1.30820
X2.12840 Y1.30720
X2.13040 Y1.30720
X2.13040 Y1.30620
X2.13540 Y1.30620
X2.13540 Y1.30520
X2.13640 Y1.30520
X2.13640 Y1.28820
X1.99840 Y1.28820
X1.99840 Y1.28920
X1.99740 Y1.28920
X1.99740 Y1.29020
X1.99640 Y1.29020
X1.99640 Y1.29120
X1.99540 Y1.29120
X1.99540 Y1.29220
X1.99440 Y1.29220
X1.99440 Y1.29320
X1.99340 Y1.29320
X1.99340 Y1.29420
X1.99240 Y1.29420
X1.99240 Y1.29520
X1.99140 Y1.29520
X1.99140 Y1.29620
X1.99040 Y1.29620
X1.99040 Y1.29720
X1.98940 Y1.29720
X1.98940 Y1.29820
X1.98840 Y1.29820
X1.98840 Y1.29920
X1.98740 Y1.29920
X1.98740 Y1.30020
X1.94640 Y1.30020
X1.94640 Y1.29920
X1.94340 Y1.29920
X1.94340 Y1.29820
X1.94040 Y1.29820
X1.94040 Y1.29720
X1.93740 Y1.29720
X1.93740 Y1.29620
X1.93440 Y1.29620
X1.93440 Y1.29520
X1.93340 Y1.29520
X1.93340 Y1.29420
X1.93240 Y1.29420
X1.93240 Y1.29320
X1.93140 Y1.29320
X1.93140 Y1.29020
X1.93040 Y1.29020
X1.93040 Y1.28720
X1.92940 Y1.28720
X1.92940 Y1.28420
X1.92840 Y1.28420
X1.92840 Y1.28120
X1.92740 Y1.28120
X1.92740 Y1.24020
X1.92840 Y1.24020
X1.92840 Y1.23720
X1.92940 Y1.23720
X1.92940 Y1.23420
X1.93040 Y1.23420
X1.93040 Y1.23120
X1.93140 Y1.23120
X1.93140 Y1.22820
X1.93240 Y1.22820
X1.93240 Y1.22520
X1.93340 Y1.22520
X1.93340 Y1.22320
X1.93440 Y1.22320
X1.93440 Y1.22220
X1.93540 Y1.22220
X1.93540 Y1.22120
X1.98740 Y1.22120
X1.98740 Y1.22220
X1.98840 Y1.22220
X1.98840 Y1.22320
X1.98940 Y1.22320
X1.98940 Y1.22420
X1.99040 Y1.22420
X1.99040 Y1.22520
X1.99140 Y1.22520
X1.99140 Y1.22620
X1.99240 Y1.22620
X1.99240 Y1.22720
X1.99340 Y1.22720
X1.99340 Y1.22820
X1.99440 Y1.22820
X1.99440 Y1.22920
X1.99540 Y1.22920
X1.99540 Y1.23020
X1.99640 Y1.23020
X1.99640 Y1.23120
X1.99740 Y1.23120
X1.99740 Y1.23220
X1.99840 Y1.23220
X1.99840 Y1.23320
X2.13640 Y1.23320
X2.13640 Y0.51720
X2.13140 Y0.51720
X2.13140 Y0.51620
X2.12540 Y0.51620
X2.12540 Y0.51520
X2.12040 Y0.51520
X2.12040 Y0.51420
X2.11840 Y0.51420
X2.11840 Y0.51320
X2.11740 Y0.51320
X2.11740 Y0.51220
X2.11540 Y0.51220
X2.11540 Y0.51120
X2.11340 Y0.51120
X2.11340 Y0.51020
X2.11240 Y0.51020
X2.11240 Y0.50920
X2.11040 Y0.50920
X2.11040 Y0.50820
X2.10840 Y0.50820
X2.10840 Y0.50720
X2.10740 Y0.50720
X2.10740 Y0.50520
X2.10640 Y0.50520
X2.10640 Y0.50420
X2.10540 Y0.50420
X2.10540 Y0.50320
X2.10440 Y0.50320
X2.10440 Y0.50220
X2.10340 Y0.50220
X2.10340 Y0.50020
X2.10240 Y0.50020
X2.10240 Y0.49820
X2.10140 Y0.49820
X2.10140 Y0.49720
X2.10040 Y0.49720
X2.10040 Y0.49420
X2.09940 Y0.49420
X2.09940 Y0.49120
X2.09840 Y0.49120
X2.09840 Y0.48520
X2.09740 Y0.48520
X2.09740 Y0.43620
X2.09840 Y0.43620
X2.09840 Y0.43020
X2.09940 Y0.43020
X2.09940 Y0.42720
X2.10040 Y0.42720
X2.10040 Y0.42420
X2.10140 Y0.42420
X2.10140 Y0.42320
X2.10240 Y0.42320
X2.10240 Y0.42120
X2.10340 Y0.42120
X2.10340 Y0.41920
X2.10440 Y0.41920
X2.10440 Y0.41820
X2.10540 Y0.41820
X2.10540 Y0.41720
X2.10640 Y0.41720
X2.10640 Y0.41620
X2.10740 Y0.41620
X2.10740 Y0.41420
X2.10840 Y0.41420
X2.10840 Y0.41320
X2.11040 Y0.41320
X2.11040 Y0.41220
X2.11240 Y0.41220
X2.11240 Y0.41120
X2.11340 Y0.41120
X2.11340 Y0.41020
X2.11540 Y0.41020
X2.11540 Y0.40920
X2.11740 Y0.40920
X2.11740 Y0.40820
X2.11840 Y0.40820
X2.11840 Y0.40720
X2.12040 Y0.40720
X2.12040 Y0.40620
X2.12240 Y0.40620
X2.12240 Y0.40720
X2.12640 Y0.40720
X2.12640 Y0.40820
X2.13240 Y0.40820
X2.13240 Y0.40920
X2.14240 Y0.40920
X2.14240 Y0.41020
X2.17340 Y0.41020
X2.17340 Y0.40920
X2.17640 Y0.40920
X2.17640 Y0.40820
X2.17740 Y0.40820
X2.17740 Y0.40720
X2.18040 Y0.40720
X2.18040 Y0.40620
X2.18240 Y0.40620
X2.18240 Y0.40520
X2.18440 Y0.40520
X2.18440 Y0.40420
X2.18640 Y0.40420
X2.18640 Y0.40320
X2.18840 Y0.40320
X2.18840 Y0.40220
X2.18940 Y0.40220
X2.18940 Y0.40120
X2.19040 Y0.40120
X2.19040 Y0.40020
X2.19140 Y0.40020
X2.19140 Y0.39920
X2.19240 Y0.39920
X2.19240 Y0.39820
X2.19340 Y0.39820
X2.19340 Y0.39720
X2.19540 Y0.39720
X2.19540 Y0.39620
X2.19740 Y0.39620
X2.19740 Y0.39520
X2.19840 Y0.39520
X2.19840 Y0.39320
X2.19940 Y0.39320
X2.19940 Y0.39220
X2.20040 Y0.39220
X2.20040 Y0.39120
X2.20140 Y0.39120
X2.20140 Y0.39020
X2.20240 Y0.39020
X2.20240 Y0.38820
X2.20340 Y0.38820
X2.20340 Y0.38720
X2.20440 Y0.38720
X2.20440 Y0.38620
X2.20540 Y0.38620
X2.20540 Y0.38520
X2.20640 Y0.38520
X2.20640 Y0.38320
X2.20740 Y0.38320
X2.20740 Y0.38120
X2.20840 Y0.38120
X2.20840 Y0.38020
X2.20940 Y0.38020
X2.20940 Y0.37720
X2.21040 Y0.37720
X2.21040 Y0.37620
X2.21140 Y0.37620
X2.21140 Y0.37320
X2.21240 Y0.37320
X2.21240 Y0.37020
X2.21340 Y0.37020
X2.21340 Y0.36720
X2.21440 Y0.36720
X2.21440 Y0.36420
X2.21540 Y0.36420
X2.21540 Y0.36120
X2.21640 Y0.36120
X2.21640 Y0.35820
X2.21740 Y0.35820
X2.21740 Y0.35520
X2.21840 Y0.35520
X2.21840 Y0.35220
X2.21940 Y0.35220
X2.21940 Y0.34920
X2.22040 Y0.34920
X2.22040 Y0.34820
X2.22140 Y0.34820
X2.22140 Y0.34720
X2.22240 Y0.34720
X2.22240 Y0.34620
X2.22340 Y0.34620
X2.22340 Y0.34520
X2.22440 Y0.34520
X2.22440 Y0.34420
X2.22540 Y0.34420
X2.22540 Y0.34320
X2.22640 Y0.34320
X2.22640 Y0.34220
X2.22740 Y0.34220
X2.22740 Y0.34120
X2.22840 Y0.34120
X2.22840 Y0.34020
X2.22940 Y0.34020
X2.22940 Y0.33920
X2.23040 Y0.33920
X2.23040 Y0.33820
X2.23140 Y0.33820
X2.23140 Y0.13320
X2.23040 Y0.13320
X2.23040 Y0.13220
X2.22940 Y0.13220
X2.22940 Y0.13120
X2.22840 Y0.13120
X2.22840 Y0.13020
X2.22740 Y0.13020
X2.22740 Y0.12920
X2.22640 Y0.12920
X2.22640 Y0.12820
X2.22540 Y0.12820
X2.22540 Y0.12720
X2.22440 Y0.12720
X2.22440 Y0.12620
X2.22340 Y0.12620
X2.22340 Y0.12520
X2.22240 Y0.12520
X2.22240 Y0.12420
X2.22140 Y0.12420
X2.22140 Y0.12320
X2.22040 Y0.12320
X2.22040 Y0.12220
X2.21940 Y0.12220
X2.21940 Y0.11920
X2.21840 Y0.11920
X2.21840 Y0.11620
X2.21740 Y0.11620
X2.21740 Y0.11320
X2.21640 Y0.11320
X2.21640 Y0.11020
X2.21540 Y0.11020
X2.21540 Y0.10920
X2.21440 Y0.10920
X2.21440 Y0.10820
X2.21140 Y0.10820
X2.21140 Y0.10720
X2.20840 Y0.10720
X2.20840 Y0.10620
X2.20540 Y0.10620
X2.20540 Y0.10520
X2.20240 Y0.10520
X2.20240 Y0.10420
X2.20140 Y0.10420
X2.20140 Y0.10320
X2.20040 Y0.10320
X2.20040 Y0.10220
X2.19940 Y0.10220
X2.19940 Y0.10120
X2.19840 Y0.10120
X2.19840 Y0.10020
X2.19740 Y0.10020
X2.19740 Y0.09920
X2.19640 Y0.09920
X2.19640 Y0.09820
X2.19540 Y0.09820
X2.19540 Y0.09720
X2.19440 Y0.09720
X2.19440 Y0.09620
X2.19340 Y0.09620
X2.19340 Y0.09520
X2.19240 Y0.09520
X2.19240 Y0.09420
X2.19140 Y0.09420
X2.19140 Y0.09320
X2.19040 Y0.09320
X2.19040 Y0.09220
X2.18940 Y0.09220
X2.18940 Y0.09120
X2.18840 Y0.09120
X2.18840 Y0.09020
X2.18740 Y0.09020
X2.18740 Y0.08920
X2.18640 Y0.08920
X2.18640 Y0.08820
X1.43640 Y0.08820
X1.43640 Y0.10420
X1.46540 Y0.10420
X1.46540 Y0.11420
X1.46440 Y0.11420
X1.46440 Y0.11820
X1.46340 Y0.11820
X1.46340 Y0.12120
X1.46240 Y0.12120
X1.46240 Y0.12520
X1.46140 Y0.12520
X1.46140 Y0.12920
X1.46040 Y0.12920
X1.46040 Y0.13620
X1.45940 Y0.13620
X1.45940 Y0.18520
X1.46040 Y0.18520
X1.46040 Y0.19220
X1.46140 Y0.19220
X1.46140 Y0.19620
X1.46240 Y0.19620
X1.46240 Y0.20020
X1.46340 Y0.20020
X1.46340 Y0.20320
X1.46440 Y0.20320
X1.46440 Y0.20720
X1.46540 Y0.20720
X1.46540 Y0.21720
X1.35240 Y0.21720
X1.35240 Y0.10420
X1.38140 Y0.10420
X1.38140 Y0.08820
X0.18140 Y0.08820
X0.18140 Y0.08920
X0.18040 Y0.08920
X0.18040 Y0.09020
X0.17940 Y0.09020
X0.17940 Y0.09120
X0.17840 Y0.09120
X0.17840 Y0.09220
X0.17740 Y0.09220
X0.17740 Y0.09320
X0.17640 Y0.09320
X0.17640 Y0.09420
X0.17540 Y0.09420
X0.17540 Y0.09520
X0.17440 Y0.09520
X0.17440 Y0.09620
X0.17340 Y0.09620
X0.17340 Y0.09720
X0.17240 Y0.09720
X0.17240 Y0.09820
X0.17140 Y0.09820
X0.17140 Y0.09920
X0.17040 Y0.09920
X0.17040 Y0.10020
X0.16940 Y0.10020
X0.16940 Y0.10120
X0.16840 Y0.10120
X0.16840 Y0.10220
X0.16740 Y0.10220
X0.16740 Y0.10320
X0.16640 Y0.10320
X0.16640 Y0.10420
X0.16540 Y0.10420
X0.16540 Y0.10520
X0.16440 Y0.10520
X0.16440 Y0.10620
X0.16340 Y0.10620
X0.16340 Y0.10720
X0.16240 Y0.10720
X0.16240 Y0.10820
X0.16140 Y0.10820
X0.16140 Y0.10920
X0.16040 Y0.10920
X0.16040 Y0.11020
X0.15940 Y0.11020
X0.15940 Y0.11120
X0.15840 Y0.11120
X0.15840 Y0.11220
X0.15740 Y0.11220
X0.15740 Y0.11320
X0.15640 Y0.11320
X0.15640 Y0.11420
X0.15540 Y0.11420
X0.15540 Y0.11520
X0.15440 Y0.11520
X0.15440 Y0.11620
X0.15340 Y0.11620
X0.15340 Y0.11720
X0.15240 Y0.11720
X0.15240 Y0.11820
X0.15140 Y0.11820
X0.15140 Y0.11920
X0.15040 Y0.11920
X0.15040 Y0.12020
X0.14940 Y0.12020
X0.14940 Y0.12120
X0.14840 Y0.12120
X0.14840 Y0.12220
X0.14740 Y0.12220
X0.14740 Y0.12320
X0.14640 Y0.12320
X0.14640 Y0.12420
X0.14540 Y0.12420
X0.14540 Y0.12520
X0.14440 Y0.12520
X0.14440 Y0.12620
X0.14340 Y0.12620
X0.14340 Y0.12720
X0.14240 Y0.12720
X0.14240 Y0.12820
X0.14140 Y0.12820
X0.14140 Y0.12920
X0.14040 Y0.12920
X0.14040 Y0.13020
X0.13940 Y0.13020
X0.13940 Y0.13120
X0.13840 Y0.13120
X0.13840 Y0.13220
X0.13740 Y0.13220
X0.13740 Y0.13320
X0.13640 Y0.13320
X0.13640 Y0.13420
X0.13540 Y0.13420
X0.13540 Y0.13520
X0.13440 Y0.13520
X0.13440 Y0.13620
X0.13340 Y0.13620
X0.13340 Y0.13720
X0.13240 Y0.13720
X0.13240 Y0.13820
X0.13140 Y0.13820
X0.13140 Y0.13920
X0.13040 Y0.13920
X0.13040 Y0.14020
X0.12940 Y0.14020
X0.12940 Y0.14120
X0.12840 Y0.14120
X0.12840 Y0.14220
X0.12740 Y0.14220
X0.12740 Y0.14320
X0.12640 Y0.14320
X0.12640 Y0.14420
X0.12540 Y0.14420
X0.12540 Y0.14520
X0.12440 Y0.14520
X0.12440 Y0.14620
X0.12340 Y0.14620
X0.12340 Y0.14720
X0.12240 Y0.14720
X0.12240 Y0.14820
X0.12140 Y0.14820
X0.12140 Y0.14920
X0.12040 Y0.14920
X0.12040 Y0.15020
X0.11940 Y0.15020
X0.11940 Y0.15120
X0.11840 Y0.15120
X0.11840 Y0.15220
X0.11740 Y0.15220
X0.11740 Y0.15320
X0.11640 Y0.15320
X0.11640 Y0.15420
X0.11540 Y0.15420
X0.11540 Y0.15520
X0.11440 Y0.15520
X0.11440 Y0.15620
X0.11340 Y0.15620
X0.11340 Y0.15720
X0.11240 Y0.15720
X0.11240 Y0.15820
X0.11140 Y0.15820
X0.11140 Y0.15920
X0.11040 Y0.15920
X0.11040 Y0.16020
X0.10940 Y0.16020
X0.10940 Y0.16120
X0.10840 Y0.16120
X0.10840 Y0.16220
X0.10740 Y0.16220
X0.10740 Y0.16320
X0.10640 Y0.16320
X0.10640 Y0.16420
X0.10540 Y0.16420
X0.10540 Y0.16520
X0.10440 Y0.16520
X0.10440 Y0.16620
X0.10340 Y0.16620
X0.10340 Y0.16720
X0.10240 Y0.16720
X0.10240 Y0.16820
X0.10140 Y0.16820
X0.10140 Y0.16920
X0.10040 Y0.16920
X0.10040 Y0.17020
X0.09940 Y0.17020
X0.09940 Y0.17120
X0.09840 Y0.17120
X0.09840 Y0.17220
X0.09740 Y0.17220
X0.09740 Y0.17320
X0.09640 Y0.17320
X0.09640 Y0.17420
X0.09540 Y0.17420
X0.09540 Y0.17520
X0.09440 Y0.17520
X0.09440 Y0.17620
X0.09340 Y0.17620
X0.09340 Y0.17720
X0.09240 Y0.17720
X0.09240 Y0.17820
X0.09140 Y0.17820
X0.09140 Y0.17920
X0.09040 Y0.17920
X0.09040 Y0.18020
X0.08940 Y0.18020
X0.08940 Y0.18120
X0.08840 Y0.18120
X0.08840 Y0.18220
X0.08740 Y0.18220
X0.08740 Y0.18320
X0.08640 Y0.18320
X0.08640 Y0.58520
X0.08540 Y0.58520
X0.08540 Y0.58920
X0.08440 Y0.58920
X0.08440 Y0.82520
X0.08540 Y0.82520
X0.08540 Y0.82820
X0.08640 Y0.82820
X0.08640 Y0.83120
X0.08740 Y0.83120
X0.08740 Y0.83420
X0.08840 Y0.83420
X0.08840 Y0.83720
X0.08940 Y0.83720
X0.08940 Y0.84020
X0.09040 Y0.84020
X0.09040 Y0.88120
X0.08940 Y0.88120
X0.08940 Y0.88420
X0.08840 Y0.88420
X0.08840 Y0.88720
X0.08740 Y0.88720
X0.08740 Y0.89020
X0.08640 Y0.89020
X0.08640 Y0.89320
X0.08540 Y0.89320
X0.08540 Y0.89520
X0.08640 Y0.89520
X0.08640 Y0.89820
X0.08740 Y0.89820
X0.08740 Y0.90120
X0.08840 Y0.90120
X0.08840 Y0.90420
X0.08940 Y0.90420
X0.08940 Y0.90720
X0.09040 Y0.90720
X0.09040 Y0.91020
X0.09140 Y0.91020
X0.09140 Y0.91320
X0.09240 Y0.91320
X0.09240 Y0.91620
X0.09340 Y0.91620
X0.09340 Y0.91920
X0.09440 Y0.91920
X0.09440 Y0.92020
X0.09540 Y0.92020
X0.09540 Y0.92120
X0.09640 Y0.92120
X0.09640 Y0.92320
X0.09740 Y0.92320
X0.09740 Y0.92420
X0.09840 Y0.92420
X0.09840 Y0.92520
X0.09940 Y0.92520
X0.09940 Y0.92620
X0.10040 Y0.92620
X0.10040 Y0.92720
X0.10140 Y0.92720
X0.10140 Y0.92820
X0.10240 Y0.92820
X0.10240 Y0.92920
X0.10340 Y0.92920
X0.10340 Y0.93020
X0.10440 Y0.93020
X0.10440 Y0.93120
X0.10540 Y0.93120
X0.10540 Y0.93220
X0.10640 Y0.93220
X0.10640 Y0.93320
X0.10740 Y0.93320
X0.10740 Y0.93420
X0.10840 Y0.93420
X0.10840 Y0.93520
X0.10940 Y0.93520
X0.10940 Y0.93620
X0.11040 Y0.93620
X0.11040 Y0.93720
X0.11140 Y0.93720
X0.11140 Y0.93820
X0.11240 Y0.93820
X0.11240 Y0.93920
X0.11340 Y0.93920
X0.11340 Y0.94020
X0.11440 Y0.94020
X0.11440 Y0.94120
X0.11540 Y0.94120
X0.11540 Y0.94220
X0.11640 Y0.94220
X0.11640 Y0.94320
X0.11740 Y0.94320
X0.11740 Y0.94420
X0.11840 Y0.94420
X0.11840 Y0.94520
X0.11940 Y0.94520
X0.11940 Y0.94620
X0.12040 Y0.94620
X0.12040 Y0.94720
X0.12140 Y0.94720
X0.12140 Y0.94820
X0.12240 Y0.94820
X0.12240 Y0.94920
X0.12340 Y0.94920
X0.12340 Y0.95020
X0.12440 Y0.95020
X0.12440 Y0.95120
X0.12540 Y0.95120
X0.12540 Y0.95220
X0.12640 Y0.95220
X0.12640 Y0.95320
X0.12740 Y0.95320
X0.12740 Y0.95420
X0.12840 Y0.95420
X0.12840 Y0.95720
X0.12940 Y0.95720
X0.12940 Y0.95820
X0.13040 Y0.95820
X0.13040 Y0.96120
X0.13140 Y0.96120
X0.13140 Y0.96420
X0.13240 Y0.96420
X0.13240 Y0.96720
X0.13340 Y0.96720
X0.13340 Y0.97020
X0.13440 Y0.97020
X0.13440 Y0.97320
X0.13540 Y0.97320
X0.13540 Y0.97620
X0.13640 Y0.97620
X0.13640 Y0.97920
X0.13740 Y0.97920
X0.13740 Y0.98220
X0.13840 Y0.98220
X0.13840 Y0.98520
X0.13940 Y0.98520
X0.13940 Y0.98820
X0.14040 Y0.98820
X0.14040 Y0.99120
X0.14140 Y0.99120
X0.14140 Y1.30420
X0.17040 Y1.30420
X0.17040 Y1.41720
X0.14940 Y1.41720
X0.14940 Y1.41620
X0.14740 Y1.41620
X0.14740 Y1.41520
X0.14240 Y1.41520
X0.14240 Y1.41420
X0.13840 Y1.41420
X0.13840 Y1.41320
X0.13440 Y1.41320
X0.13440 Y1.41220
X0.12640 Y1.41220
X0.12640 Y1.41120
X0.08140 Y1.41120
X0.08140 Y1.41220
X0.07340 Y1.41220
X0.07340 Y1.41320
X0.06940 Y1.41320
X0.06940 Y1.41420
X0.06540 Y1.41420
X0.06540 Y1.41520
X0.06040 Y1.41520
X0.06040 Y1.41620
X0.05740 Y1.41620
X0.05740 Y1.30420
X0.08640 Y1.30420
X0.08640 Y0.98820
X0.08540 Y0.98820
X0.08540 Y0.98720
X0.08440 Y0.98720
X0.08440 Y0.98620
X0.08340 Y0.98620
X0.08340 Y0.98520
X0.08240 Y0.98520
X0.08240 Y0.98420
X0.08140 Y0.98420
X0.08140 Y0.98320
X0.08040 Y0.98320
X0.08040 Y0.98220
X0.07940 Y0.98220
X0.07940 Y0.98120
X0.07840 Y0.98120
X0.07840 Y0.98020
X0.07740 Y0.98020
X0.07740 Y0.97920
X0.07640 Y0.97920
X0.07640 Y0.97820
X0.07540 Y0.97820
X0.07540 Y0.97720
X0.07440 Y0.97720
X0.07440 Y0.97620
X0.07340 Y0.97620
X0.07340 Y0.97520
X0.07240 Y0.97520
X0.07240 Y0.97420
X0.07140 Y0.97420
X0.07140 Y0.97320
X0.07040 Y0.97320
X0.07040 Y0.97220
X0.06940 Y0.97220
X0.06940 Y0.97120
X0.06840 Y0.97120
X0.06840 Y0.97020
X0.06740 Y0.97020
X0.06740 Y0.96920
X0.06640 Y0.96920
X0.06640 Y0.96820
X0.06540 Y0.96820
X0.06540 Y0.96720
X0.06440 Y0.96720
X0.06440 Y0.96620
X0.06340 Y0.96620
X0.06340 Y0.96520
X0.06240 Y0.96520
X0.06240 Y0.96420
X0.06140 Y0.96420
X0.06140 Y0.96320
X0.06040 Y0.96320
X0.06040 Y0.96220
X0.05940 Y0.96220
X0.05940 Y0.96120
X0.05840 Y0.96120
X0.05840 Y0.96020
X0.05740 Y0.96020
X0.05740 Y0.95920
X0.05640 Y0.95920
X0.05640 Y0.95820
X0.05540 Y0.95820
X0.05540 Y0.95720
X0.05440 Y0.95720
X0.05440 Y0.95620
X0.05340 Y0.95620
X0.05340 Y0.95520
X0.05240 Y0.95520
X0.05240 Y0.95420
X0.05140 Y0.95420
X0.05140 Y0.95320
X0.05040 Y0.95320
X0.05040 Y0.95220
X0.04940 Y0.95220
X0.04940 Y0.95120
X0.04840 Y0.95120
X0.04840 Y0.95020
X0.04740 Y0.95020
X0.04740 Y0.94920
X0.04640 Y0.94920
X0.04640 Y0.94820
X0.04540 Y0.94820
X0.04540 Y0.94720
X0.04440 Y0.94720
X0.04440 Y0.94620
X0.04340 Y0.94620
X0.04340 Y0.94520
X0.04240 Y0.94520
X0.04240 Y0.94420
X0.04140 Y0.94420
X0.04140 Y0.94320
X0.04040 Y0.94320
X0.04040 Y0.94220
X0.03940 Y0.94220
X0.03940 Y0.94120
X0.03840 Y0.94120
X0.03840 Y0.94020
X0.03740 Y0.94020
X0.03740 Y0.93920
X0.03640 Y0.93920
X0.03640 Y0.93820
X0.03540 Y0.93820
X0.03540 Y0.93720
X0.03440 Y0.93720
X0.03440 Y0.93620
X0.03340 Y0.93620
X0.03340 Y0.93420
X0.03240 Y0.93420
X0.03240 Y0.93120
X0.03140 Y0.93120
X0.03140 Y0.90020
X0.03040 Y0.90020
X0.03040 Y0.89920
X0.02940 Y0.89920
X0.02940 Y0.89820
X0.02840 Y0.89820
X0.02840 Y0.89720
X0.02740 Y0.89720
X0.02740 Y0.89620
X0.02640 Y0.89620
X0.02640 Y0.89520
X0.02540 Y0.89520
X0.02540 Y0.89420
X0.02440 Y0.89420
X0.02440 Y0.89320
X0.02340 Y0.89320
X0.02340 Y0.89220
X0.02240 Y0.89220
X0.02240 Y0.89120
X0.02140 Y0.89120
X0.02140 Y0.89020
X0.02040 Y0.89020
X0.02040 Y0.88920
X0.01940 Y0.88920
X0.01940 Y0.83220
X0.02040 Y0.83220
X0.02040 Y0.83120
X0.02140 Y0.83120
X0.02140 Y0.83020
X0.02240 Y0.83020
X0.02240 Y0.82920
X0.02340 Y0.82920
X0.02340 Y0.82820
X0.02440 Y0.82820
X0.02440 Y0.82720
X0.02540 Y0.82720
X0.02540 Y0.82620
X0.02640 Y0.82620
X0.02640 Y0.82520
X0.02740 Y0.82520
X0.02740 Y0.82420
X0.02840 Y0.82420
X0.02840 Y0.82320
X0.02940 Y0.82320
X0.02940 Y0.82220
X0.03040 Y0.82220
X0.03040 Y0.82120
X0.03140 Y0.82120
X0.03140 Y0.14020
X0.03240 Y0.14020
X0.03240 Y0.13720
X0.03340 Y0.13720
X0.03340 Y0.13520
X0.03440 Y0.13520
X0.03440 Y0.13420
X0.03540 Y0.13420
X0.03540 Y0.13320
X0.03640 Y0.13320
X0.03640 Y0.13220
X0.03740 Y0.13220
X0.03740 Y0.13120
X0.03840 Y0.13120
X0.03840 Y0.13020
X0.03940 Y0.13020
X0.03940 Y0.12920
X0.04040 Y0.12920
X0.04040 Y0.12820
X0.04140 Y0.12820
X0.04140 Y0.12720
X0.04240 Y0.12720
X0.04240 Y0.12620
X0.04340 Y0.12620
X0.04340 Y0.12520
X0.04440 Y0.12520
X0.04440 Y0.12420
X0.04540 Y0.12420
X0.04540 Y0.12320
X0.04640 Y0.12320
X0.04640 Y0.12220
X0.04740 Y0.12220
X0.04740 Y0.12120
X0.04840 Y0.12120
X0.04840 Y0.12020
X0.04940 Y0.12020
X0.04940 Y0.11920
X0.05040 Y0.11920
X0.05040 Y0.11820
X0.05140 Y0.11820
X0.05140 Y0.11720
X0.05240 Y0.11720
X0.05240 Y0.11620
X0.05340 Y0.11620
X0.05340 Y0.11520
X0.05440 Y0.11520
X0.05440 Y0.11420
X0.05540 Y0.11420
X0.05540 Y0.11320
X0.05640 Y0.11320
X0.05640 Y0.11220
X0.05740 Y0.11220
X0.05740 Y0.11120
X0.05840 Y0.11120
X0.05840 Y0.11020
X0.05940 Y0.11020
X0.05940 Y0.10920
X0.06040 Y0.10920
X0.06040 Y0.10820
X0.06140 Y0.10820
X0.06140 Y0.10720
X0.06240 Y0.10720
X0.06240 Y0.10620
X0.06340 Y0.10620
X0.06340 Y0.10520
X0.06440 Y0.10520
X0.06440 Y0.10420
X0.06540 Y0.10420
X0.06540 Y0.10320
X0.06640 Y0.10320
X0.06640 Y0.10220
X0.06740 Y0.10220
X0.06740 Y0.10120
X0.06840 Y0.10120
X0.06840 Y0.10020
X0.06940 Y0.10020
X0.06940 Y0.09920
X0.07040 Y0.09920
X0.07040 Y0.09820
X0.07140 Y0.09820
X0.07140 Y0.09720
X0.07240 Y0.09720
X0.07240 Y0.09620
X0.07340 Y0.09620
X0.07340 Y0.09520
X0.07440 Y0.09520
X0.07440 Y0.09420
X0.07540 Y0.09420
X0.07540 Y0.09320
X0.07640 Y0.09320
X0.07640 Y0.09220
X0.07740 Y0.09220
X0.07740 Y0.09120
X0.07840 Y0.09120
X0.07840 Y0.09020
X0.07940 Y0.09020
X0.07940 Y0.08920
X0.08040 Y0.08920
X0.08040 Y0.08820
X0.08140 Y0.08820
X0.08140 Y0.08720
X0.08240 Y0.08720
X0.08240 Y0.08620
X0.08340 Y0.08620
X0.08340 Y0.08520
X0.08440 Y0.08520
X0.08440 Y0.08420
X0.08540 Y0.08420
X0.08540 Y0.08320
X0.08640 Y0.08320
X0.08640 Y0.08220
X0.08740 Y0.08220
X0.08740 Y0.08120
X0.08840 Y0.08120
X0.08840 Y0.08020
X0.08940 Y0.08020
X0.08940 Y0.07920
X0.09040 Y0.07920
X0.09040 Y0.07820
X0.09140 Y0.07820
X0.09140 Y0.07720
X0.09240 Y0.07720
X0.09240 Y0.07620
X0.09340 Y0.07620
X0.09340 Y0.07520
X0.09440 Y0.07520
X0.09440 Y0.07420
X0.09540 Y0.07420
X0.09540 Y0.07320
X0.09640 Y0.07320
X0.09640 Y0.07220
X0.09740 Y0.07220
X0.09740 Y0.07120
X0.09840 Y0.07120
X0.09840 Y0.07020
X0.09940 Y0.07020
X0.09940 Y0.06920
X0.10040 Y0.06920
X0.10040 Y0.06820
X0.10140 Y0.06820
X0.10140 Y0.06720
X0.10240 Y0.06720
X0.10240 Y0.06620
X0.10340 Y0.06620
X0.10340 Y0.06520
X0.10440 Y0.06520
X0.10440 Y0.06420
X0.10540 Y0.06420
X0.10540 Y0.06320
X0.10640 Y0.06320
X0.10640 Y0.06220
X0.10740 Y0.06220
X0.10740 Y0.06120
X0.10840 Y0.06120
X0.10840 Y0.06020
X0.10940 Y0.06020
X0.10940 Y0.05920
X0.11040 Y0.05920
X0.11040 Y0.05820
X0.11140 Y0.05820
X0.11140 Y0.05720
X0.11240 Y0.05720
X0.11240 Y0.05620
X0.11340 Y0.05620
X0.11340 Y0.05520
X0.11440 Y0.05520
X0.11440 Y0.05420
X0.11540 Y0.05420
X0.11540 Y0.05320
X0.11640 Y0.05320
X0.11640 Y0.05220
X0.11740 Y0.05220
X0.11740 Y0.05120
X0.11840 Y0.05120
X0.11840 Y0.05020
X0.11940 Y0.05020
X0.11940 Y0.04920
X0.12040 Y0.04920
X0.12040 Y0.04820
X0.12140 Y0.04820
X0.12140 Y0.04720
X0.12240 Y0.04720
X0.12240 Y0.04620
X0.12340 Y0.04620
X0.12340 Y0.04520
X0.12440 Y0.04520
X0.12440 Y0.04420
X0.12540 Y0.04420
X0.12540 Y0.04320
X0.12640 Y0.04320
X0.12640 Y0.04220
X0.12740 Y0.04220
X0.12740 Y0.04120
X0.12840 Y0.04120
X0.12840 Y0.04020
X0.12940 Y0.04020
X0.12940 Y0.03920
X0.13040 Y0.03920
X0.13040 Y0.03820
X0.13140 Y0.03820
X0.13140 Y0.03720
X0.13240 Y0.03720
X0.13240 Y0.03620
X0.13340 Y0.03620
X0.13340 Y0.03520
X0.13540 Y0.03520
X0.13540 Y0.03420
X0.13840 Y0.03420
X0.13840 Y0.03320
X2.22940 Y0.03320
X2.22940 Y0.03420
X2.23240 Y0.03420
X2.23240 Y0.03520
X2.23440 Y0.03520
X2.23440 Y0.03620
X2.23540 Y0.03620
X2.23540 Y0.03720
X2.23640 Y0.03720
X2.23640 Y0.03820
X2.23740 Y0.03820
X2.23740 Y0.03920
X2.23840 Y0.03920
X2.23840 Y0.04020
X2.23940 Y0.04020
X2.23940 Y0.04120
X2.24040 Y0.04120
X2.24040 Y0.04220
X2.24140 Y0.04220
X2.24140 Y0.04320
X2.24240 Y0.04320
X2.24240 Y0.04420
X2.24340 Y0.04420
X2.24340 Y0.04520
X2.24440 Y0.04520
X2.24440 Y0.04620
X2.24540 Y0.04620
X2.24540 Y0.04720
X2.24640 Y0.04720
X2.24640 Y0.04820
X2.24740 Y0.04820
X2.24740 Y0.04920
X2.24840 Y0.04920
X2.24840 Y0.05020
X2.24940 Y0.05020
X2.24940 Y0.05120
X2.25040 Y0.05120
X2.25040 Y0.05220
X2.25140 Y0.05220
X2.25140 Y0.05320
X2.25240 Y0.05320
X2.25240 Y0.05420
X2.25340 Y0.05420
X2.25340 Y0.05520
X2.25440 Y0.05520
X2.25440 Y0.05620
X2.25540 Y0.05620
X2.25540 Y0.05720
X2.25640 Y0.05720
X2.25640 Y0.05820
X2.25740 Y0.05820
X2.25740 Y0.05920
X2.25840 Y0.05920
X2.25840 Y0.06020
X2.25940 Y0.06020
X2.25940 Y0.06120
X2.26040 Y0.06120
X2.26040 Y0.06220
X2.26140 Y0.06220
X2.26140 Y0.06320
X2.26240 Y0.06320
X2.26240 Y0.06420
X2.26340 Y0.06420
X2.26340 Y0.06520
X2.26440 Y0.06520
X2.26440 Y0.06620
X2.26540 Y0.06620
X2.26540 Y0.06720
X2.26640 Y0.06720
X2.26640 Y0.06820
X2.26740 Y0.06820
X2.26740 Y0.06920
X2.26840 Y0.06920
X2.26840 Y0.07020
X2.26940 Y0.07020
X2.26940 Y0.07120
X2.27040 Y0.07120
X2.27040 Y0.07220
X2.27140 Y0.07220
X2.27140 Y0.07320
X2.27240 Y0.07320
X2.27240 Y0.07420
X2.27340 Y0.07420
X2.27340 Y0.07520
X2.27440 Y0.07520
X2.27440 Y0.07620
X2.27540 Y0.07620
X2.27540 Y0.07720
X2.27640 Y0.07720
X2.27640 Y0.07820
X2.27740 Y0.07820
X2.27740 Y0.07920
X2.27840 Y0.07920
X2.27840 Y0.08020
X2.27940 Y0.08020
X2.27940 Y0.08120
X2.28040 Y0.08120
X2.28040 Y0.08220
X2.28140 Y0.08220
X2.28140 Y0.08320
X2.28240 Y0.08320
X2.28240 Y0.08420
X2.28340 Y0.08420
X2.28340 Y0.08520
X2.28440 Y0.08520
X2.28440 Y0.08720
X2.28540 Y0.08720
X2.28540 Y0.09020
X2.28640 Y0.09020
X2.28640 Y0.38120
X2.28540 Y0.38120
X2.28540 Y0.38420
X2.28440 Y0.38420
X2.28440 Y0.38620
X2.28340 Y0.38620
X2.28340 Y0.38720
X2.28240 Y0.38720
X2.28240 Y0.38820
X2.28140 Y0.38820
X2.28140 Y0.38920
X2.28040 Y0.38920
X2.28040 Y0.39020
X2.27940 Y0.39020
X2.27940 Y0.39120
X2.27840 Y0.39120
X2.27840 Y0.39220
X2.27740 Y0.39220
X2.27740 Y0.39320
X2.27640 Y0.39320
X2.27640 Y0.39420
X2.27540 Y0.39420
X2.27540 Y0.39520
X2.27440 Y0.39520
X2.27440 Y0.39620
X2.27340 Y0.39620
X2.27340 Y0.39720
X2.27240 Y0.39720
X2.27240 Y0.39820
X2.27140 Y0.39820
X2.27140 Y0.39920
X2.27040 Y0.39920
X2.27040 Y0.40020
X2.26940 Y0.40020
X2.26940 Y0.40120
X2.26840 Y0.40120
X2.26840 Y0.40220
X2.26740 Y0.40220
X2.26740 Y0.40320
X2.26640 Y0.40320
X2.26640 Y0.40420
X2.26540 Y0.40420
X2.26540 Y0.40520
X2.26440 Y0.40520
X2.26440 Y0.40620
X2.26340 Y0.40620
X2.26340 Y0.40720
X2.26240 Y0.40720
X2.26240 Y0.40820
X2.26140 Y0.40820
X2.26140 Y0.40920
X2.26040 Y0.40920
X2.26040 Y0.41020
X2.25940 Y0.41020
X2.25940 Y0.41120
X2.25840 Y0.41120
X2.25840 Y0.41220
X2.25740 Y0.41220
X2.25740 Y0.41320
X2.25640 Y0.41320
X2.25640 Y0.41420
X2.25540 Y0.41420
X2.25540 Y0.41520
X2.25440 Y0.41520
X2.25440 Y0.41620
X2.25340 Y0.41620
X2.25340 Y0.41720
X2.25240 Y0.41720
X2.25240 Y0.41820
X2.25140 Y0.41820
X2.25140 Y0.41920
X2.25040 Y0.41920
X2.25040 Y0.42020
X2.24940 Y0.42020
X2.24940 Y0.42120
X2.24840 Y0.42120
X2.24840 Y0.42220
X2.24740 Y0.42220
X2.24740 Y0.42320
X2.24640 Y0.42320
X2.24640 Y0.42420
X2.24540 Y0.42420
X2.24540 Y0.42520
X2.24440 Y0.42520
X2.24440 Y0.42620
X2.24340 Y0.42620
X2.24340 Y0.42720
X2.24240 Y0.42720
X2.24240 Y0.42820
X2.24140 Y0.42820
X2.24140 Y0.42920
X2.24040 Y0.42920
X2.24040 Y0.43020
X2.23940 Y0.43020
X2.23940 Y0.43120
X2.23840 Y0.43120
X2.23840 Y0.43220
X2.23740 Y0.43220
X2.23740 Y0.43320
X2.23640 Y0.43320
X2.23640 Y0.43420
X2.23540 Y0.43420
X2.23540 Y0.43520
X2.23440 Y0.43520
X2.23440 Y0.43620
X2.23340 Y0.43620
X2.23340 Y0.43720
X2.23240 Y0.43720
X2.23240 Y0.43820
X2.23140 Y0.43820
X2.23140 Y0.43920
X2.23040 Y0.43920
X2.23040 Y0.44020
X2.22940 Y0.44020
X2.22940 Y0.44120
X2.22840 Y0.44120
X2.22840 Y0.44220
X2.22740 Y0.44220
X2.22740 Y0.44320
X2.22640 Y0.44320
X2.22640 Y0.44420
X2.22540 Y0.44420
X2.22540 Y0.44520
X2.22440 Y0.44520
X2.22440 Y0.44620
X2.22340 Y0.44620
X2.22340 Y0.44720
X2.22240 Y0.44720
X2.22240 Y0.44820
X2.22140 Y0.44820
X2.22140 Y0.44920
X2.22040 Y0.44920
X2.22040 Y0.45020
X2.21940 Y0.45020
X2.21940 Y0.45120
X2.21840 Y0.45120
X2.21840 Y0.45220
X2.21740 Y0.45220
X2.21740 Y0.45320
X2.21640 Y0.45320
X2.21640 Y0.45420
X2.21540 Y0.45420
X2.21540 Y0.45520
X2.21440 Y0.45520
X2.21440 Y0.45620
X2.21340 Y0.45620
X2.21340 Y0.45720
X2.21240 Y0.45720
X2.21240 Y0.45820
X2.21140 Y0.45820
X2.21140 Y0.45920
X2.21040 Y0.45920
X2.21040 Y0.48520
X2.20940 Y0.48520
X2.20940 Y0.49120
X2.20840 Y0.49120
X2.20840 Y0.49420
X2.20740 Y0.49420
X2.20740 Y0.49720
X2.20640 Y0.49720
X2.20640 Y0.49820
X2.20540 Y0.49820
X2.20540 Y0.50020
X2.20440 Y0.50020
X2.20440 Y0.50220
X2.20340 Y0.50220
X2.20340 Y0.50320
X2.20240 Y0.50320
X2.20240 Y0.50420
X2.20140 Y0.50420
X2.20140 Y0.50520
X2.20040 Y0.50520
X2.20040 Y0.50720
X2.19940 Y0.50720
X2.19940 Y0.50820
X2.19740 Y0.50820
X2.19740 Y0.50920
X2.19540 Y0.50920
X2.19540 Y0.51020
X2.19440 Y0.51020
X2.19440 Y0.51120
X2.19240 Y0.51120
X2.19240 Y0.51220
X2.19140 Y0.51220
X2.19140 Y1.30520
X2.19240 Y1.30520
X2.19240 Y1.30620
X2.19740 Y1.30620
X2.19740 Y1.30720
X2.19940 Y1.30720
X2.19940 Y1.30820
X2.20040 Y1.30820
X2.20040 Y1.30920
X2.20240 Y1.30920
X2.20240 Y1.31020
X2.20440 Y1.31020
X2.20440 Y1.31120
X2.20540 Y1.31120
X2.20540 Y1.31220
X2.20740 Y1.31220
X2.20740 Y1.31320
X2.20940 Y1.31320
X2.20940 Y1.31420
X2.21040 Y1.31420
X2.21040 Y1.31620
X2.21140 Y1.31620
X2.21140 Y1.31720
X2.21240 Y1.31720
X2.21240 Y1.31820
X2.21340 Y1.31820
X2.21340 Y1.31920
X2.21440 Y1.31920
X2.21440 Y1.32120
X2.21540 Y1.32120
X2.21540 Y1.32320
X2.21640 Y1.32320
X2.21640 Y1.32420
X2.21740 Y1.32420
X2.21740 Y1.32720
X2.21840 Y1.32720
X2.21840 Y1.33020
X2.21940 Y1.33020
X2.21940 Y1.33620
X2.22040 Y1.33620
X2.22040 Y1.37220
X2.22140 Y1.37220
X2.22140 Y1.37320
X2.22240 Y1.37320
X2.22240 Y1.37420
X2.22340 Y1.37420
X2.22340 Y1.37520
X2.22440 Y1.37520
X2.22440 Y1.37620
X2.22540 Y1.37620
X2.22540 Y1.37720
X2.22640 Y1.37720
X2.22640 Y1.37820
X2.22740 Y1.37820
X2.22740 Y1.37920
X2.22840 Y1.37920
X2.22840 Y1.38020
X2.22940 Y1.38020
X2.22940 Y1.38120
X2.23040 Y1.38120
X2.23040 Y1.38220
X2.23140 Y1.38220
X2.23140 Y1.38320
X2.23240 Y1.38320
X2.23240 Y1.38420
X2.23340 Y1.38420
X2.23340 Y1.38520
X2.23440 Y1.38520
X2.23440 Y1.38620
X2.23540 Y1.38620
X2.23540 Y1.38720
X2.23640 Y1.38720
X2.23640 Y1.38820
X2.23740 Y1.38820
X2.23740 Y1.38920
X2.23840 Y1.38920
X2.23840 Y1.39020
X2.23940 Y1.39020
X2.23940 Y1.39120
X2.24040 Y1.39120
X2.24040 Y1.39220
X2.24140 Y1.39220
X2.24140 Y1.39320
X2.24240 Y1.39320
X2.24240 Y1.39420
X2.24340 Y1.39420
X2.24340 Y1.39520
X2.24440 Y1.39520
X2.24440 Y1.39620
X2.24540 Y1.39620
X2.24540 Y1.39720
X2.24640 Y1.39720
X2.24640 Y1.39820
X2.24740 Y1.39820
X2.24740 Y1.39920
X2.24840 Y1.39920
X2.24840 Y1.40020
X2.24940 Y1.40020
X2.24940 Y1.40120
X2.25040 Y1.40120
X2.25040 Y1.40220
X2.25140 Y1.40220
X2.25140 Y1.40320
X2.25240 Y1.40320
X2.25240 Y1.40420
X2.25340 Y1.40420
X2.25340 Y1.40520
X2.25440 Y1.40520
X2.25440 Y1.40620
X2.25540 Y1.40620
X2.25540 Y1.40720
X2.25640 Y1.40720
X2.25640 Y1.40820
X2.25740 Y1.40820
X2.25740 Y1.40920
X2.25840 Y1.40920
X2.25840 Y1.41020
X2.25940 Y1.41020
X2.25940 Y1.41120
X2.26040 Y1.41120
X2.26040 Y1.41220
X2.26140 Y1.41220
X2.26140 Y1.41320
X2.26240 Y1.41320
X2.26240 Y1.41420
X2.26340 Y1.41420
X2.26340 Y1.41520
X2.26440 Y1.41520
X2.26440 Y1.41620
X2.26540 Y1.41620
X2.26540 Y1.41720
X2.26640 Y1.41720
X2.26640 Y1.41820
X2.26740 Y1.41820
X2.26740 Y1.41920
X2.26840 Y1.41920
X2.26840 Y1.42020
X2.26940 Y1.42020
X2.26940 Y1.42120
X2.27040 Y1.42120
X2.27040 Y1.42220
X2.27140 Y1.42220
X2.27140 Y1.42320
X2.27240 Y1.42320
X2.27240 Y1.42420
X2.27340 Y1.42420
X2.27340 Y1.42520
X2.27440 Y1.42520
X2.27440 Y1.42620
X2.27540 Y1.42620
X2.27540 Y1.42720
X2.27640 Y1.42720
X2.27640 Y1.42820
X2.27740 Y1.42820
X2.27740 Y1.42920
X2.27840 Y1.42920
X2.27840 Y1.43020
X2.27940 Y1.43020
X2.27940 Y1.43120
X2.28040 Y1.43120
X2.28040 Y1.43220
X2.28140 Y1.43220
X2.28140 Y1.43320
X2.28240 Y1.43320
X2.28240 Y1.43420
X2.28340 Y1.43420
X2.28340 Y1.43520
X2.28440 Y1.43520
X2.28440 Y1.43620
X2.28540 Y1.43620
X2.28540 Y1.43720
X2.28640 Y1.43720
X2.28640 Y1.43820
X2.28740 Y1.43820
X2.28740 Y1.43920
X2.28840 Y1.43920
X2.28840 Y1.44020
X2.28940 Y1.44020
X2.28940 Y1.44120
X2.29040 Y1.44120
X2.29040 Y1.44220
X2.29140 Y1.44220
X2.29140 Y1.44320
X2.29240 Y1.44320
X2.29240 Y1.44420
X2.29340 Y1.44420
X2.29340 Y1.44520
X2.29440 Y1.44520
X2.29440 Y1.44620
X2.29540 Y1.44620
X2.29540 Y1.44720
X2.29640 Y1.44720
X2.29640 Y1.44820
X2.29740 Y1.44820
X2.29740 Y1.44920
X2.29840 Y1.44920
X2.29840 Y1.45020
X2.29940 Y1.45020
X2.29940 Y1.45120
X2.30040 Y1.45120
X2.30040 Y1.45220
X2.30140 Y1.45220
X2.30140 Y1.45320
X2.30240 Y1.45320
X2.30240 Y1.45420
X2.30340 Y1.45420
X2.30340 Y1.45520
X2.30440 Y1.45520
X2.30440 Y1.45620
X2.30540 Y1.45620
X2.30540 Y1.45720
X2.30640 Y1.45720
X2.30640 Y1.45820
X2.30740 Y1.45820
X2.30740 Y1.45920
X2.30840 Y1.45920
X2.30840 Y1.46020
X2.30940 Y1.46020
X2.30940 Y1.46120
X2.31040 Y1.46120
X2.31040 Y1.46220
X2.31140 Y1.46220
X2.31140 Y1.46320
X2.31240 Y1.46320
X2.31240 Y1.46420
X2.31340 Y1.46420
X2.31340 Y1.46520
X2.31440 Y1.46520
X2.31440 Y1.46620
X2.31540 Y1.46620
X2.31540 Y1.46720
X2.31640 Y1.46720
X2.31640 Y1.46820
X2.31740 Y1.46820
X2.31740 Y1.46920
X2.31840 Y1.46920
X2.31840 Y1.47020
X2.31940 Y1.47020
X2.31940 Y1.47120
X2.32040 Y1.47120
X2.32040 Y1.47220
X2.32140 Y1.47220
X2.32140 Y1.47320
X2.32240 Y1.47320
X2.32240 Y1.47420
X2.32340 Y1.47420
X2.32340 Y1.47520
X2.32440 Y1.47520
X2.32440 Y1.47620
X2.32540 Y1.47620
X2.32540 Y1.47720
X2.32640 Y1.47720
X2.32640 Y1.47820
X2.32740 Y1.47820
X2.32740 Y1.47920
X2.32840 Y1.47920
X2.32840 Y1.48020
X2.32940 Y1.48020
X2.32940 Y1.48120
X2.33040 Y1.48120
X2.33040 Y1.48220
X2.33140 Y1.48220
X2.33140 Y1.48320
X2.33240 Y1.48320
X2.33240 Y1.48420
X2.33340 Y1.48420
X2.33340 Y1.48520
X2.33440 Y1.48520
X2.33440 Y1.48620
X2.33540 Y1.48620
X2.33540 Y1.48720
X2.33640 Y1.48720
X2.33640 Y1.48820
X2.33740 Y1.48820
X2.33740 Y1.48920
X2.33840 Y1.48920
X2.33840 Y1.49020
X2.33940 Y1.49020
X2.33940 Y1.49120
X2.34040 Y1.49120
X2.34040 Y1.49220
X2.34140 Y1.49220
X2.34140 Y1.49320
X2.34240 Y1.49320
X2.34240 Y1.49420
X2.34340 Y1.49420
X2.34340 Y1.49520
X2.34440 Y1.49520
X2.34440 Y1.49620
X2.34540 Y1.49620
X2.34540 Y1.49720
X2.34640 Y1.49720
X2.34640 Y1.49820
X2.34740 Y1.49820
X2.34740 Y1.49920
X2.34840 Y1.49920
X2.34840 Y1.50020
X2.34940 Y1.50020
X2.34940 Y1.50120
X2.35040 Y1.50120
X2.35040 Y1.50220
X2.35140 Y1.50220
X2.35140 Y1.50320
X2.35240 Y1.50320
X2.35240 Y1.50420
X2.35340 Y1.50420
X2.35340 Y1.50520
X2.35440 Y1.50520
X2.35440 Y1.50620
X2.35540 Y1.50620
X2.35540 Y1.50720
X2.35640 Y1.50720
X2.35640 Y1.50820
X2.35740 Y1.50820
X2.35740 Y1.50920
X2.35840 Y1.50920
X2.35840 Y1.51020
X2.35940 Y1.51020
X2.35940 Y1.51120
X2.36040 Y1.51120
X2.36040 Y1.51220
X2.36140 Y1.51220
X2.36140 Y1.51320
X2.36240 Y1.51320
X2.36240 Y1.51420
X2.36340 Y1.51420
X2.36340 Y1.51520
X2.36440 Y1.51520
X2.36440 Y1.51620
X2.36540 Y1.51620
X2.36540 Y1.51720
X2.36640 Y1.51720
X2.36640 Y1.51820
X2.36740 Y1.51820
X2.36740 Y1.51920
X2.36840 Y1.51920
X2.36840 Y1.52020
X2.36940 Y1.52020
X2.36940 Y1.52120
X2.37040 Y1.52120
X2.37040 Y1.52220
X2.37140 Y1.52220
X2.37140 Y1.52320
X2.37240 Y1.52320
X2.37240 Y1.52420
X2.37340 Y1.52420
X2.37340 Y1.52520
X2.37440 Y1.52520
X2.37440 Y1.52620
X2.37540 Y1.52620
X2.37540 Y1.52720
X2.37640 Y1.52720
X2.37640 Y1.52820
X2.37740 Y1.52820
X2.37740 Y1.52920
X2.37840 Y1.52920
X2.37840 Y1.53020
X2.37940 Y1.53020
X2.37940 Y1.53120
X2.38040 Y1.53120
X2.38040 Y1.53220
X2.38140 Y1.53220
X2.38140 Y1.53320
X2.38240 Y1.53320
X2.38240 Y1.53420
X2.38340 Y1.53420
X2.38340 Y1.53520
X2.38440 Y1.53520
X2.38440 Y1.53620
X2.38540 Y1.53620
X2.38540 Y1.53720
X2.38640 Y1.53720
X2.38640 Y1.53820
X2.38740 Y1.53820
X2.38740 Y1.53920
X2.38840 Y1.53920
X2.38840 Y1.54020
X2.38940 Y1.54020
X2.38940 Y1.54120
X2.39040 Y1.54120
X2.39040 Y1.54220
X2.39140 Y1.54220
X2.39140 Y1.54320
X2.39240 Y1.54320
X2.39240 Y1.54420
X2.39340 Y1.54420
X2.39340 Y1.54520
X2.39440 Y1.54520
X2.39440 Y1.54620
X2.39540 Y1.54620
X2.39540 Y1.54720
X2.39640 Y1.54720
X2.39640 Y1.54820
X2.39740 Y1.54820
X2.39740 Y1.54920
X2.39840 Y1.54920
X2.39840 Y1.55020
X2.39940 Y1.55020
X2.39940 Y1.55120
X2.40040 Y1.55120
X2.40040 Y1.55220
X2.40140 Y1.55220
X2.40140 Y1.55320
X2.40240 Y1.55320
X2.40240 Y1.55420
X2.40340 Y1.55420
X2.40340 Y1.55520
X2.40440 Y1.55520
X2.40440 Y1.55620
X2.40540 Y1.55620
X2.40540 Y1.55720
X2.40640 Y1.55720
X2.40640 Y1.55820
X2.40740 Y1.55820
X2.40740 Y1.55920
X2.40840 Y1.55920
X2.40840 Y1.56020
X2.40940 Y1.56020
X2.40940 Y1.56120
X2.41040 Y1.56120
X2.41040 Y1.56220
X2.41140 Y1.56220
X2.41140 Y1.56320
X2.41240 Y1.56320
X2.41240 Y1.56420
X2.41340 Y1.56420
X2.41340 Y1.56520
X2.41440 Y1.56520
X2.41440 Y1.56620
X2.41540 Y1.56620
X2.41540 Y1.56720
X2.41640 Y1.56720
X2.41640 Y1.56820
X2.41740 Y1.56820
X2.41740 Y1.56920
X2.41840 Y1.56920
X2.41840 Y1.57020
X2.41940 Y1.57020
X2.41940 Y1.57120
X2.42040 Y1.57120
X2.42040 Y1.57220
X2.42140 Y1.57220
X2.42140 Y1.57320
X2.42240 Y1.57320
X2.42240 Y1.57420
X2.42340 Y1.57420
X2.42340 Y1.57520
X2.42440 Y1.57520
X2.42440 Y1.57620
X2.42540 Y1.57620
X2.42540 Y1.57720
X2.42640 Y1.57720
X2.42640 Y1.57820
X2.42740 Y1.57820
X2.42740 Y1.57920
X2.42840 Y1.57920
X2.42840 Y1.58020
X2.42940 Y1.58020
X2.42940 Y1.58120
X2.43040 Y1.58120
X2.43040 Y1.58220
X2.43140 Y1.58220
X2.43140 Y1.58320
X2.43240 Y1.58320
X2.43240 Y1.58420
X2.43340 Y1.58420
X2.43340 Y1.58520
X2.43440 Y1.58520
X2.43440 Y1.58620
X2.43540 Y1.58620
X2.43540 Y1.58720
X2.43640 Y1.58720
X2.43640 Y1.58820
X2.43740 Y1.58820
X2.43740 Y1.58920
X2.43840 Y1.58920
X2.43840 Y1.59020
X2.43940 Y1.59020
X2.43940 Y1.59120
X2.44040 Y1.59120
X2.44040 Y1.59220
X2.44140 Y1.59220
X2.44140 Y1.59320
X2.44240 Y1.59320
X2.44240 Y1.59420
X2.44340 Y1.59420
X2.44340 Y1.59520
X2.44440 Y1.59520
X2.44440 Y1.59620
X2.44540 Y1.59620
X2.44540 Y1.59720
X2.44640 Y1.59720
X2.44640 Y1.59820
X2.44740 Y1.59820
X2.44740 Y1.59920
X2.44840 Y1.59920
X2.44840 Y1.60020
X2.44940 Y1.60020
X2.44940 Y1.60120
X2.45040 Y1.60120
X2.45040 Y1.60220
X2.45140 Y1.60220
X2.45140 Y1.60320
X2.45240 Y1.60320
X2.45240 Y1.60420
X2.45340 Y1.60420
X2.45340 Y1.60520
X2.45440 Y1.60520
X2.45440 Y1.60620
X2.45540 Y1.60620
X2.45540 Y1.60720
X2.45640 Y1.60720
X2.45640 Y1.60820
X2.45740 Y1.60820
X2.45740 Y1.60920
X2.45840 Y1.60920
X2.45840 Y1.61020
X2.45940 Y1.61020
X2.45940 Y1.61120
X2.46040 Y1.61120
X2.46040 Y1.61220
X2.46140 Y1.61220
X2.46140 Y1.61320
X2.46240 Y1.61320
X2.46240 Y1.61420
X2.46340 Y1.61420
X2.46340 Y1.61520
X2.46440 Y1.61520
X2.46440 Y1.61620
X2.46540 Y1.61620
X2.46540 Y1.61720
X2.46640 Y1.61720
X2.46640 Y1.61820
X2.46740 Y1.61820
X2.46740 Y1.61920
X2.46840 Y1.61920
X2.46840 Y1.62020
X2.46940 Y1.62020
X2.46940 Y1.62120
X2.47040 Y1.62120
X2.47040 Y1.62220
X2.47140 Y1.62220
X2.47140 Y1.62320
X2.47240 Y1.62320
X2.47240 Y1.62420
X2.47340 Y1.62420
X2.47340 Y1.62520
X2.47440 Y1.62520
X2.47440 Y1.62620
X2.47540 Y1.62620
X2.47540 Y1.62720
X2.47640 Y1.62720
X2.47640 Y1.62820
X2.47740 Y1.62820
X2.47740 Y1.62920
X2.47840 Y1.62920
X2.47840 Y1.63020
X2.47940 Y1.63020
X2.47940 Y1.63120
X2.48040 Y1.63120
X2.48040 Y1.63220
X2.48140 Y1.63220
X2.48140 Y1.63320
X2.48240 Y1.63320
X2.48240 Y1.63420
X2.48340 Y1.63420
X2.48340 Y1.63520
X2.48440 Y1.63520
X2.48440 Y1.63720
X2.48540 Y1.63720
X2.48540 Y1.64020
X2.48640 Y1.64020
X2.48640 Y2.13120
X2.48540 Y2.13120
X2.48540 Y2.13420
X2.48440 Y2.13420
X2.48440 Y2.13620
X2.48340 Y2.13620
X2.48340 Y2.13720
X2.48240 Y2.13720
X2.48240 Y2.13820
X2.48140 Y2.13820
X2.48140 Y2.13920
X2.48040 Y2.13920
X2.48040 Y2.14020
X2.47940 Y2.14020
X2.47940 Y2.14120
X2.47840 Y2.14120
X2.47840 Y2.14220
X2.47740 Y2.14220
X2.47740 Y2.14320
X2.47640 Y2.14320
X2.47640 Y2.14420
X2.47540 Y2.14420
X2.47540 Y2.14520
X2.47440 Y2.14520
X2.47440 Y2.14620
X2.47340 Y2.14620
X2.47340 Y2.14720
X2.47240 Y2.14720
X2.47240 Y2.14820
X2.47140 Y2.14820
X2.47140 Y2.14920
X2.47040 Y2.14920
X2.47040 Y2.15020
X2.46940 Y2.15020
X2.46940 Y2.15120
X2.46840 Y2.15120
X2.46840 Y2.15220
X2.46740 Y2.15220
X2.46740 Y2.15320
X2.46640 Y2.15320
X2.46640 Y2.15420
X2.46540 Y2.15420
X2.46540 Y2.15520
X2.46440 Y2.15520
X2.46440 Y2.15620
X2.46340 Y2.15620
X2.46340 Y2.15720
X2.46240 Y2.15720
X2.46240 Y2.15820
X2.46140 Y2.15820
X2.46140 Y2.15920
X2.46040 Y2.15920
X2.46040 Y2.16020
X2.45940 Y2.16020
X2.45940 Y2.16120
X2.45840 Y2.16120
X2.45840 Y2.16220
X2.45740 Y2.16220
X2.45740 Y2.16320
X2.45640 Y2.16320
X2.45640 Y2.16420
X2.45540 Y2.16420
X2.45540 Y2.16520
X2.45440 Y2.16520
X2.45440 Y2.16620
X2.45340 Y2.16620
X2.45340 Y2.16720
X2.45240 Y2.16720
X2.45240 Y2.16820
X2.45140 Y2.16820
X2.45140 Y2.16920
X2.45040 Y2.16920
X2.45040 Y2.17020
X2.44940 Y2.17020
X2.44940 Y2.17120
X2.44840 Y2.17120
X2.44840 Y2.17220
X2.44740 Y2.17220
X2.44740 Y2.17320
X2.44640 Y2.17320
X2.44640 Y2.17420
X2.44540 Y2.17420
X2.44540 Y2.17520
X2.44440 Y2.17520
X2.44440 Y2.17620
X2.44340 Y2.17620
X2.44340 Y2.17720
X2.44240 Y2.17720
X2.44240 Y2.17820
X2.44140 Y2.17820
X2.44140 Y2.17920
X2.44040 Y2.17920
X2.44040 Y2.18020
X2.43940 Y2.18020
X2.43940 Y2.18120
X2.43840 Y2.18120
X2.43840 Y2.18220
X2.43740 Y2.18220
X2.43740 Y2.18320
X2.43640 Y2.18320
X2.43640 Y2.18420
X2.43540 Y2.18420
X2.43540 Y2.18520
X2.43440 Y2.18520
X2.43440 Y2.18620
X2.43340 Y2.18620
X2.43340 Y2.18720
X2.43240 Y2.18720
X2.43240 Y2.18820
X2.43140 Y2.18820
X2.43140 Y2.18920
X2.43040 Y2.18920
X2.43040 Y2.19020
X2.42940 Y2.19020
X2.42940 Y2.19120
X2.42840 Y2.19120
X2.42840 Y2.19220
X2.42740 Y2.19220
X2.42740 Y2.19320
X2.42640 Y2.19320
X2.42640 Y2.19420
X2.42540 Y2.19420
X2.42540 Y2.19520
X2.42440 Y2.19520
X2.42440 Y2.19620
X2.42340 Y2.19620
X2.42340 Y2.19720
X2.42240 Y2.19720
X2.42240 Y2.19820
X2.42140 Y2.19820
X2.42140 Y2.19920
X2.42040 Y2.19920
X2.42040 Y2.20020
X2.41940 Y2.20020
X2.41940 Y2.20120
X2.41840 Y2.20120
X2.41840 Y2.20220
X2.41740 Y2.20220
X2.41740 Y2.20320
X2.41640 Y2.20320
X2.41640 Y2.20420
X2.41540 Y2.20420
X2.41540 Y2.20520
X2.41440 Y2.20520
X2.41440 Y2.20620
X2.41340 Y2.20620
X2.41340 Y2.20720
X2.41240 Y2.20720
X2.41240 Y2.20820
X2.41140 Y2.20820
X2.41140 Y2.20920
X2.41040 Y2.20920
X2.41040 Y2.21020
X2.40940 Y2.21020
X2.40940 Y2.21120
X2.40840 Y2.21120
X2.40840 Y2.21220
X2.40740 Y2.21220
X2.40740 Y2.21320
X2.40640 Y2.21320
X2.40640 Y2.21420
X2.40540 Y2.21420
X2.40540 Y2.21520
X2.40440 Y2.21520
X2.40440 Y2.21620
X2.40340 Y2.21620
X2.40340 Y2.21720
X2.40240 Y2.21720
X2.40240 Y2.21820
X2.40140 Y2.21820
X2.40140 Y2.21920
X2.40040 Y2.21920
X2.40040 Y2.22020
X2.39940 Y2.22020
X2.39940 Y2.22120
X2.39840 Y2.22120
X2.39840 Y2.22220
X2.39740 Y2.22220
X2.39740 Y2.22320
X2.39640 Y2.22320
X2.39640 Y2.22420
X2.39540 Y2.22420
X2.39540 Y2.22520
X2.39440 Y2.22520
X2.39440 Y2.22620
X2.39340 Y2.22620
X2.39340 Y2.22720
X2.39240 Y2.22720
X2.39240 Y2.22820
X2.39140 Y2.22820
X2.39140 Y2.22920
X2.39040 Y2.22920
X2.39040 Y2.23020
X2.38940 Y2.23020
X2.38940 Y2.23120
X2.38840 Y2.23120
X2.38840 Y2.23220
X2.38740 Y2.23220
X2.38740 Y2.23320
X2.38640 Y2.23320
X2.38640 Y2.23420
X2.38540 Y2.23420
X2.38540 Y2.23520
X2.38440 Y2.23520
X2.38440 Y2.23620
X2.38240 Y2.23620
X2.38240 Y2.23720
X2.37940 Y2.23720
X2.37940 Y2.23820
X1.13940 Y2.23820
X1.13940 Y2.23720
X1.13640 Y2.23720
X1.13640 Y2.23520
X1.13340 Y2.23520
X1.13340 Y2.23220
X1.13040 Y2.23220
X1.13040 Y2.22920
X1.12740 Y2.22920
X1.12740 Y2.22620
X1.12440 Y2.22620
X1.12440 Y2.22320
X1.12140 Y2.22320
X1.12140 Y2.22020
X1.11840 Y2.22020
X1.11840 Y2.21820
G04 P0 ( dwell for no time -- G64 should not smooth over this point )
G00 Z0.19685 ( retract )

G00 X0.46840 Y2.21820 ( rapid move to begin. )
G01 Z-0.11417 F43.30709 ( plunge. )
G04 P0 ( dwell for no time -- G64 should not smooth over this point )
X0.46840 Y2.21820
X0.46840 Y2.21720
X0.46440 Y2.21720
X0.46440 Y2.21620
X0.46340 Y2.21620
X0.46340 Y2.21520
X0.46240 Y2.21520
X0.46240 Y2.21420
X0.46140 Y2.21420
X0.46140 Y2.21320
X0.46040 Y2.21320
X0.46040 Y2.21220
X0.45940 Y2.21220
X0.45940 Y2.21120
X0.45840 Y2.21120
X0.45840 Y2.21020
X0.45740 Y2.21020
X0.45740 Y2.20920
X0.45640 Y2.20920
X0.45640 Y2.20820
X0.45540 Y2.20820
X0.45540 Y2.20720
X0.45440 Y2.20720
X0.45440 Y2.20620
X0.45340 Y2.20620
X0.45340 Y2.20520
X0.45240 Y2.20520
X0.45240 Y2.20420
X0.45140 Y2.20420
X0.45140 Y2.20320
X0.45040 Y2.20320
X0.45040 Y2.20220
X0.44940 Y2.20220
X0.44940 Y2.20120
X0.44840 Y2.20120
X0.44840 Y2.20020
X0.44740 Y2.20020
X0.44740 Y2.19920
X0.44640 Y2.19920
X0.44640 Y2.19820
X0.44540 Y2.19820
X0.44540 Y2.19720
X0.44440 Y2.19720
X0.44440 Y2.19620
X0.44340 Y2.19620
X0.44340 Y2.19520
X0.44240 Y2.19520
X0.44240 Y2.19420
X0.44140 Y2.19420
X0.44140 Y2.19320
X0.44040 Y2.19320
X0.44040 Y2.19220
X0.43940 Y2.19220
X0.43940 Y2.19120
X0.43840 Y2.19120
X0.43840 Y2.19020
X0.43740 Y2.19020
X0.43740 Y2.18920
X0.43640 Y2.18920
X0.43640 Y2.18820
X0.43540 Y2.18820
X0.43540 Y2.18720
X0.43440 Y2.18720
X0.43440 Y2.18620
X0.43340 Y2.18620
X0.43340 Y2.18520
X0.43240 Y2.18520
X0.43240 Y2.18420
X0.43140 Y2.18420
X0.43140 Y2.18320
X0.43040 Y2.18320
X0.43040 Y2.18220
X0.42940 Y2.18220
X0.42940 Y2.18120
X0.42840 Y2.18120
X0.42840 Y2.18020
X0.42740 Y2.18020
X0.42740 Y2.17920
X0.42640 Y2.17920
X0.42640 Y2.17820
X0.42540 Y2.17820
X0.42540 Y2.17720
X0.42440 Y2.17720
X0.42440 Y2.17620
X0.42340 Y2.17620
X0.42340 Y2.17520
X0.42240 Y2.17520
X0.42240 Y2.17420
X0.42140 Y2.17420
X0.42140 Y2.17320
X0.42040 Y2.17320
X0.42040 Y2.17220
X0.41940 Y2.17220
X0.41940 Y2.17120
X0.41840 Y2.17120
X0.41840 Y2.17020
X0.41740 Y2.17020
X0.41740 Y2.16920
X0.41640 Y2.16920
X0.41640 Y2.16820
X0.41540 Y2.16820
X0.41540 Y2.16720
X0.41440 Y2.16720
X0.41440 Y2.16620
X0.41340 Y2.16620
X0.41340 Y2.16520
X0.41240 Y2.16520
X0.41240 Y2.16420
X0.41140 Y2.16420
X0.41140 Y2.16320
X0.41040 Y2.16320
X0.41040 Y2.16220
X0.40940 Y2.16220
X0.40940 Y2.16120
X0.40840 Y2.16120
X0.40840 Y2.16020
X0.40740 Y2.16020
X0.40740 Y2.15920
X0.40640 Y2.15920
X0.40640 Y2.15820
X0.40540 Y2.15820
X0.40540 Y2.15720
X0.40440 Y2.15720
X0.40440 Y2.15620
X0.40340 Y2.15620
X0.40340 Y2.15520
X0.40240 Y2.15520
X0.40240 Y2.15420
X0.40140 Y2.15420
X0.40140 Y2.15320
X0.40040 Y2.15320
X0.40040 Y2.15220
X0.39940 Y2.15220
X0.39940 Y2.15120
X0.39840 Y2.15120
X0.39840 Y2.15020
X0.39740 Y2.15020
X0.39740 Y2.14920
X0.39640 Y2.14920
X0.39640 Y2.14820
X0.39540 Y2.14820
X0.39540 Y2.14720
X0.39440 Y2.14720
X0.39440 Y2.14620
X0.39340 Y2.14620
X0.39340 Y2.14520
X0.39240 Y2.14520
X0.39240 Y2.14420
X0.39140 Y2.14420
X0.39140 Y2.14320
X0.39040 Y2.14320
X0.39040 Y2.14220
X0.38940 Y2.14220
X0.38940 Y2.14120
X0.38840 Y2.14120
X0.38840 Y2.14020
X0.38740 Y2.14020
X0.38740 Y2.13920
X0.38640 Y2.13920
X0.38640 Y2.13820
X0.38540 Y2.13820
X0.38540 Y2.13720
X0.38440 Y2.13720
X0.38440 Y2.13620
X0.38340 Y2.13620
X0.38340 Y2.13420
X0.38240 Y2.13420
X0.38240 Y2.13120
X0.38140 Y2.13120
X0.38140 Y2.08820
X0.24840 Y2.08820
X0.24840 Y2.08920
X0.24740 Y2.08920
X0.24740 Y2.09020
X0.24640 Y2.09020
X0.24640 Y2.09120
X0.24540 Y2.09120
X0.24540 Y2.09220
X0.24440 Y2.09220
X0.24440 Y2.09320
X0.24340 Y2.09320
X0.24340 Y2.09420
X0.24240 Y2.09420
X0.24240 Y2.09520
X0.24140 Y2.09520
X0.24140 Y2.09620
X0.24040 Y2.09620
X0.24040 Y2.09720
X0.23940 Y2.09720
X0.23940 Y2.09820
X0.23840 Y2.09820
X0.23840 Y2.09920
X0.23740 Y2.09920
X0.23740 Y2.10020
X0.18040 Y2.10020
X0.18040 Y2.09920
X0.17940 Y2.09920
X0.17940 Y2.09820
X0.17840 Y2.09820
X0.17840 Y2.09720
X0.17740 Y2.09720
X0.17740 Y2.09620
X0.17640 Y2.09620
X0.17640 Y2.09520
X0.17540 Y2.09520
X0.17540 Y2.09420
X0.17440 Y2.09420
X0.17440 Y2.09320
X0.17340 Y2.09320
X0.17340 Y2.09220
X0.17240 Y2.09220
X0.17240 Y2.09120
X0.17140 Y2.09120
X0.17140 Y2.09020
X0.17040 Y2.09020
X0.17040 Y2.08920
X0.16940 Y2.08920
X0.16940 Y2.08820
X0.15940 Y2.08820
X0.15940 Y2.09120
X0.15840 Y2.09120
X0.15840 Y2.09420
X0.15740 Y2.09420
X0.15740 Y2.09720
X0.15640 Y2.09720
X0.15640 Y2.09820
X0.15540 Y2.09820
X0.15540 Y2.10020
X0.15440 Y2.10020
X0.15440 Y2.10220
X0.15340 Y2.10220
X0.15340 Y2.10320
X0.15240 Y2.10320
X0.15240 Y2.10420
X0.15140 Y2.10420
X0.15140 Y2.10520
X0.15040 Y2.10520
X0.15040 Y2.10720
X0.14940 Y2.10720
X0.14940 Y2.10820
X0.14740 Y2.10820
X0.14740 Y2.10920
X0.14540 Y2.10920
X0.14540 Y2.11020
X0.14440 Y2.11020
X0.14440 Y2.11120
X0.14240 Y2.11120
X0.14240 Y2.11220
X0.14040 Y2.11220
X0.14040 Y2.11320
X0.13940 Y2.11320
X0.13940 Y2.11420
X0.13740 Y2.11420
X0.13740 Y2.11520
X0.13240 Y2.11520
X0.13240 Y2.11620
X0.12640 Y2.11620
X0.12640 Y2.11720
X0.08140 Y2.11720
X0.08140 Y2.11620
X0.07540 Y2.11620
X0.07540 Y2.11520
X0.07040 Y2.11520
X0.07040 Y2.11420
X0.06840 Y2.11420
X0.06840 Y2.11320
X0.06740 Y2.11320
X0.06740 Y2.11220
X0.06540 Y2.11220
X0.06540 Y2.11120
X0.06340 Y2.11120
X0.06340 Y2.11020
X0.06240 Y2.11020
X0.06240 Y2.10920
X0.06040 Y2.10920
X0.06040 Y2.10820
X0.05840 Y2.10820
X0.05840 Y2.10720
X0.05740 Y2.10720
X0.05740 Y2.10520
X0.05640 Y2.10520
X0.05640 Y2.10420
X0.05540 Y2.10420
X0.05540 Y2.10320
X0.05440 Y2.10320
X0.05440 Y2.10220
X0.05340 Y2.10220
X0.05340 Y2.10020
X0.05240 Y2.10020
X0.05240 Y2.09820
X0.05140 Y2.09820
X0.05140 Y2.09720
X0.05040 Y2.09720
X0.05040 Y2.09420
X0.04940 Y2.09420
X0.04940 Y2.09120
X0.04840 Y2.09120
X0.04840 Y2.08520
X0.04740 Y2.08520
X0.04740 Y2.03620
X0.04840 Y2.03620
X0.04840 Y2.03020
X0.04940 Y2.03020
X0.04940 Y2.02720
X0.05040 Y2.02720
X0.05040 Y2.02420
X0.05140 Y2.02420
X0.05140 Y2.02320
X0.05240 Y2.02320
X0.05240 Y2.02120
X0.05340 Y2.02120
X0.05340 Y2.01920
X0.05440 Y2.01920
X0.05440 Y2.01820
X0.05540 Y2.01820
X0.05540 Y2.01720
X0.05640 Y2.01720
X0.05640 Y2.01620
X0.05740 Y2.01620
X0.05740 Y2.01420
X0.05840 Y2.01420
X0.05840 Y2.01320
X0.06040 Y2.01320
X0.06040 Y2.01220
X0.06240 Y2.01220
X0.06240 Y2.01120
X0.06340 Y2.01120
X0.06340 Y2.01020
X0.06540 Y2.01020
X0.06540 Y2.00920
X0.06740 Y2.00920
X0.06740 Y2.00820
X0.06840 Y2.00820
X0.06840 Y2.00720
X0.07040 Y2.00720
X0.07040 Y2.00620
X0.07240 Y2.00620
X0.07240 Y2.00720
X0.07640 Y2.00720
X0.07640 Y2.00820
X0.08240 Y2.00820
X0.08240 Y2.00920
X0.09240 Y2.00920
X0.09240 Y2.01020
X0.12040 Y2.01020
X0.12040 Y2.01120
X0.13540 Y2.01120
X0.13540 Y2.01220
X0.14240 Y2.01220
X0.14240 Y2.01320
X0.14940 Y2.01320
X0.14940 Y2.01420
X0.15040 Y2.01420
X0.15040 Y2.01620
X0.15140 Y2.01620
X0.15140 Y2.01720
X0.15240 Y2.01720
X0.15240 Y2.01820
X0.15340 Y2.01820
X0.15340 Y2.01920
X0.15440 Y2.01920
X0.15440 Y2.02120
X0.15540 Y2.02120
X0.15540 Y2.02320
X0.15640 Y2.02320
X0.15640 Y2.02420
X0.15740 Y2.02420
X0.15740 Y2.02720
X0.15840 Y2.02720
X0.15840 Y2.03020
X0.15940 Y2.03020
X0.15940 Y2.03320
X0.16940 Y2.03320
X0.16940 Y2.03220
X0.17040 Y2.03220
X0.17040 Y2.03120
X0.17140 Y2.03120
X0.17140 Y2.03020
X0.17240 Y2.03020
X0.17240 Y2.02920
X0.17340 Y2.02920
X0.17340 Y2.02820
X0.17440 Y2.02820
X0.17440 Y2.02720
X0.17540 Y2.02720
X0.17540 Y2.02620
X0.17640 Y2.02620
X0.17640 Y2.02520
X0.17740 Y2.02520
X0.17740 Y2.02420
X0.17840 Y2.02420
X0.17840 Y2.02320
X0.17940 Y2.02320
X0.17940 Y2.02220
X0.18040 Y2.02220
X0.18040 Y2.02120
X0.23740 Y2.02120
X0.23740 Y2.02220
X0.23840 Y2.02220
X0.23840 Y2.02320
X0.23940 Y2.02320
X0.23940 Y2.02420
X0.24040 Y2.02420
X0.24040 Y2.02520
X0.24140 Y2.02520
X0.24140 Y2.02620
X0.24240 Y2.02620
X0.24240 Y2.02720
X0.24340 Y2.02720
X0.24340 Y2.02820
X0.24440 Y2.02820
X0.24440 Y2.02920
X0.24540 Y2.02920
X0.24540 Y2.03020
X0.24640 Y2.03020
X0.24640 Y2.03120
X0.24740 Y2.03120
X0.24740 Y2.03220
X0.24840 Y2.03220
X0.24840 Y2.03320
X0.38440 Y2.03320
X0.38440 Y1.99020
X0.38540 Y1.99020
X0.38540 Y1.98220
X0.38440 Y1.98220
X0.38440 Y1.94020
X0.38540 Y1.94020
X0.38540 Y1.93720
X0.38640 Y1.93720
X0.38640 Y1.93620
X0.38740 Y1.93620
X0.38740 Y1.93520
X0.38840 Y1.93520
X0.38840 Y1.93420
X0.38940 Y1.93420
X0.38940 Y1.93320
X0.39040 Y1.93320
X0.39040 Y1.93220
X0.39140 Y1.93220
X0.39140 Y1.93120
X0.47340 Y1.93120
X0.47340 Y2.08220
X0.43640 Y2.08220
X0.43640 Y2.08820
X0.43740 Y2.08820
X0.43740 Y2.08920
X0.43840 Y2.08920
X0.43840 Y2.09020
X0.43940 Y2.09020
X0.43940 Y2.09120
X0.44040 Y2.09120
X0.44040 Y2.09220
X0.44140 Y2.09220
X0.44140 Y2.09320
X0.44240 Y2.09320
X0.44240 Y2.09420
X0.44340 Y2.09420
X0.44340 Y2.09520
X0.44440 Y2.09520
X0.44440 Y2.09620
X0.44540 Y2.09620
X0.44540 Y2.09720
X0.44640 Y2.09720
X0.44640 Y2.09820
X0.44740 Y2.09820
X0.44740 Y2.09920
X0.44840 Y2.09920
X0.44840 Y2.10020
X0.44940 Y2.10020
X0.44940 Y2.10120
X0.45040 Y2.10120
X0.45040 Y2.10220
X0.45140 Y2.10220
X0.45140 Y2.10320
X0.45240 Y2.10320
X0.45240 Y2.10420
X0.45340 Y2.10420
X0.45340 Y2.10520
X0.45440 Y2.10520
X0.45440 Y2.10620
X0.45540 Y2.10620
X0.45540 Y2.10720
X0.45640 Y2.10720
X0.45640 Y2.10820
X0.45740 Y2.10820
X0.45740 Y2.10920
X0.45840 Y2.10920
X0.45840 Y2.11020
X0.45940 Y2.11020
X0.45940 Y2.11120
X0.46040 Y2.11120
X0.46040 Y2.11220
X0.46140 Y2.11220
X0.46140 Y2.11320
X0.46240 Y2.11320
X0.46240 Y2.11420
X0.46340 Y2.11420
X0.46340 Y2.11520
X0.46440 Y2.11520
X0.46440 Y2.11620
X0.46540 Y2.11620
X0.46540 Y2.11720
X0.46640 Y2.11720
X0.46640 Y2.11820
X0.46740 Y2.11820
X0.46740 Y2.11920
X0.46840 Y2.11920
X0.46840 Y2.12020
X0.46940 Y2.12020
X0.46940 Y2.12120
X0.47040 Y2.12120
X0.47040 Y2.12220
X0.47140 Y2.12220
X0.47140 Y2.12320
X0.47240 Y2.12320
X0.47240 Y2.12420
X0.47340 Y2.12420
X0.47340 Y2.12520
X0.47440 Y2.12520
X0.47440 Y2.12620
X0.47540 Y2.12620
X0.47540 Y2.12720
X0.47640 Y2.12720
X0.47640 Y2.12820
X0.47740 Y2.12820
X0.47740 Y2.12920
X0.47840 Y2.12920
X0.47840 Y2.13020
X0.47940 Y2.13020
X0.47940 Y2.13120
X0.48040 Y2.13120
X0.48040 Y2.13220
X0.48140 Y2.13220
X0.48140 Y2.13320
X0.48240 Y2.13320
X0.48240 Y2.13420
X0.48340 Y2.13420
X0.48340 Y2.13520
X0.48440 Y2.13520
X0.48440 Y2.13620
X0.48540 Y2.13620
X0.48540 Y2.13720
X0.48640 Y2.13720
X0.48640 Y2.13820
X0.48740 Y2.13820
X0.48740 Y2.13920
X0.48840 Y2.13920
X0.48840 Y2.14020
X0.48940 Y2.14020
X0.48940 Y2.14120
X0.49040 Y2.14120
X0.49040 Y2.14220
X0.49140 Y2.14220
X0.49140 Y2.14320
X0.49240 Y2.14320
X0.49240 Y2.14420
X0.49340 Y2.14420
X0.49340 Y2.14520
X0.49440 Y2.14520
X0.49440 Y2.14620
X0.49540 Y2.14620
X0.49540 Y2.14720
X0.49640 Y2.14720
X0.49640 Y2.14820
X0.49740 Y2.14820
X0.49740 Y2.14920
X0.49840 Y2.14920
X0.49840 Y2.15020
X0.49940 Y2.15020
X0.49940 Y2.15120
X0.50040 Y2.15120
X0.50040 Y2.15220
X0.50140 Y2.15220
X0.50140 Y2.15320
X0.50240 Y2.15320
X0.50240 Y2.15420
X0.50340 Y2.15420
X0.50340 Y2.15520
X0.50440 Y2.15520
X0.50440 Y2.15620
X0.50540 Y2.15620
X0.50540 Y2.15720
X0.50640 Y2.15720
X0.50640 Y2.15820
X0.50740 Y2.15820
X0.50740 Y2.15920
X0.50840 Y2.15920
X0.50840 Y2.16020
X0.50940 Y2.16020
X0.50940 Y2.16120
X0.51040 Y2.16120
X0.51040 Y2.16220
X0.51140 Y2.16220
X0.51140 Y2.16320
X0.51240 Y2.16320
X0.51240 Y2.16420
X0.51340 Y2.16420
X0.51340 Y2.16520
X0.51440 Y2.16520
X0.51440 Y2.16620
X0.51540 Y2.16620
X0.51540 Y2.16720
X0.51640 Y2.16720
X0.51640 Y2.16820
X0.51740 Y2.16820
X0.51740 Y2.16920
X0.51840 Y2.16920
X0.51840 Y2.17020
X0.51940 Y2.17020
X0.51940 Y2.17120
X0.52040 Y2.17120
X0.52040 Y2.17220
X0.52140 Y2.17220
X0.52140 Y2.17320
X0.52240 Y2.17320
X0.52240 Y2.17420
X0.52340 Y2.17420
X0.52340 Y2.17520
X0.52440 Y2.17520
X0.52440 Y2.17620
X0.52540 Y2.17620
X0.52540 Y2.17720
X0.52640 Y2.17720
X0.52640 Y2.17820
X0.52740 Y2.17820
X0.52740 Y2.17920
X0.52840 Y2.17920
X0.52840 Y2.18020
X0.52940 Y2.18020
X0.52940 Y2.18120
X0.53040 Y2.18120
X0.53040 Y2.18220
X0.53140 Y2.18220
X0.53140 Y2.18320
X0.76440 Y2.18320
X0.76440 Y2.18420
X0.76540 Y2.18420
X0.76540 Y2.18520
X0.76640 Y2.18520
X0.76640 Y2.18720
X0.77240 Y2.18720
X0.77240 Y2.18820
X0.77640 Y2.18820
X0.77640 Y2.18920
X0.77740 Y2.18920
X0.77740 Y2.19020
X0.78140 Y2.19020
X0.78140 Y2.19120
X0.78540 Y2.19120
X0.78540 Y2.19220
X0.78640 Y2.19220
X0.78640 Y2.19320
X0.79040 Y2.19320
X0.79040 Y2.19420
X0.82940 Y2.19420
X0.82940 Y2.19320
X0.83240 Y2.19320
X0.83240 Y2.19220
X0.83540 Y2.19220
X0.83540 Y2.19120
X0.83840 Y2.19120
X0.83840 Y2.19020
X0.84140 Y2.19020
X0.84140 Y2.18920
X0.84440 Y2.18920
X0.84440 Y2.18820
X0.84740 Y2.18820
X0.84740 Y2.18720
X0.85040 Y2.18720
X0.85040 Y2.18620
X0.85140 Y2.18620
X0.85140 Y2.18520
X0.85240 Y2.18520
X0.85240 Y2.18420
X0.85340 Y2.18420
X0.85340 Y2.18320
X0.88640 Y2.18320
X0.88640 Y2.18220
X0.88740 Y2.18220
X0.88740 Y2.18120
X0.88840 Y2.18120
X0.88840 Y2.18020
X0.88940 Y2.18020
X0.88940 Y2.17920
X0.89040 Y2.17920
X0.89040 Y2.17820
X0.89140 Y2.17820
X0.89140 Y2.17720
X0.89240 Y2.17720
X0.89240 Y2.17620
X0.89340 Y2.17620
X0.89340 Y2.17520
X0.89440 Y2.17520
X0.89440 Y2.17420
X0.89540 Y2.17420
X0.89540 Y2.17320
X0.89640 Y2.17320
X0.89640 Y2.17220
X0.89740 Y2.17220
X0.89740 Y2.17120
X0.89840 Y2.17120
X0.89840 Y2.17020
X0.89940 Y2.17020
X0.89940 Y2.16920
X0.90040 Y2.16920
X0.90040 Y2.16820
X0.90140 Y2.16820
X0.90140 Y2.16720
X0.90240 Y2.16720
X0.90240 Y2.16620
X0.90340 Y2.16620
X0.90340 Y2.16520
X0.90440 Y2.16520
X0.90440 Y2.16420
X0.90540 Y2.16420
X0.90540 Y2.16320
X0.90640 Y2.16320
X0.90640 Y2.16220
X0.90740 Y2.16220
X0.90740 Y2.16120
X0.90840 Y2.16120
X0.90840 Y2.16020
X0.90940 Y2.16020
X0.90940 Y2.15920
X0.91040 Y2.15920
X0.91040 Y2.15820
X0.91140 Y2.15820
X0.91140 Y2.15720
X0.91240 Y2.15720
X0.91240 Y2.15620
X0.91340 Y2.15620
X0.91340 Y2.15520
X0.91440 Y2.15520
X0.91440 Y2.15420
X0.91540 Y2.15420
X0.91540 Y2.15320
X0.91640 Y2.15320
X0.91640 Y2.15220
X0.91740 Y2.15220
X0.91740 Y2.15120
X0.91840 Y2.15120
X0.91840 Y2.15020
X0.91940 Y2.15020
X0.91940 Y2.14920
X0.92040 Y2.14920
X0.92040 Y2.14820
X0.92140 Y2.14820
X0.92140 Y2.14720
X0.92240 Y2.14720
X0.92240 Y2.14620
X0.92340 Y2.14620
X0.92340 Y2.14520
X0.92440 Y2.14520
X0.92440 Y2.14420
X0.92540 Y2.14420
X0.92540 Y2.14320
X0.92640 Y2.14320
X0.92640 Y2.14220
X0.92740 Y2.14220
X0.92740 Y2.14120
X0.92840 Y2.14120
X0.92840 Y2.14020
X0.92940 Y2.14020
X0.92940 Y2.13920
X0.93040 Y2.13920
X0.93040 Y2.13820
X0.93140 Y2.13820
X0.93140 Y2.13720
X0.93440 Y2.13720
X0.93440 Y2.13620
X0.93740 Y2.13620
X0.93740 Y2.13520
X0.94040 Y2.13520
X0.94040 Y2.13420
X0.94340 Y2.13420
X0.94340 Y2.13320
X0.94640 Y2.13320
X0.94640 Y2.13220
X0.94940 Y2.13220
X0.94940 Y2.13120
X0.95240 Y2.13120
X0.95240 Y2.13020
X0.95540 Y2.13020
X0.95540 Y2.12920
X0.95840 Y2.12920
X0.95840 Y2.12820
X0.96140 Y2.12820
X0.96140 Y2.12720
X0.96440 Y2.12720
X0.96440 Y2.12620
X0.96740 Y2.12620
X0.96740 Y2.12520
X0.96840 Y2.12520
X0.96840 Y2.12420
X0.96940 Y2.12420
X0.96940 Y2.12320
X0.97140 Y2.12320
X0.97140 Y2.12220
X0.97240 Y2.12220
X0.97240 Y2.12120
X0.97340 Y2.12120
X0.97340 Y2.12020
X0.97440 Y2.12020
X0.97440 Y2.11920
X0.97540 Y2.11920
X0.97540 Y2.11820
X0.97640 Y2.11820
X0.97640 Y2.11720
X0.97740 Y2.11720
X0.97740 Y2.11620
X0.97840 Y2.11620
X0.97840 Y2.11520
X0.97940 Y2.11520
X0.97940 Y2.11420
X0.98040 Y2.11420
X0.98040 Y2.11320
X0.98140 Y2.11320
X0.98140 Y2.11220
X0.98240 Y2.11220
X0.98240 Y2.11120
X0.98340 Y2.11120
X0.98340 Y2.11020
X0.98440 Y2.11020
X0.98440 Y2.10920
X0.98540 Y2.10920
X0.98540 Y2.10820
X0.98640 Y2.10820
X0.98640 Y2.10720
X0.98740 Y2.10720
X0.98740 Y2.10620
X0.98840 Y2.10620
X0.98840 Y2.10520
X0.98940 Y2.10520
X0.98940 Y2.10420
X0.99040 Y2.10420
X0.99040 Y2.10320
X0.99140 Y2.10320
X0.99140 Y2.10220
X0.99240 Y2.10220
X0.99240 Y2.10120
X0.99340 Y2.10120
X0.99340 Y2.10020
X0.99440 Y2.10020
X0.99440 Y2.09920
X0.99540 Y2.09920
X0.99540 Y2.09820
X0.99640 Y2.09820
X0.99640 Y2.09720
X0.99740 Y2.09720
X0.99740 Y2.09620
X0.99840 Y2.09620
X0.99840 Y2.09520
X0.99940 Y2.09520
X0.99940 Y2.09420
X1.00040 Y2.09420
X1.00040 Y2.09320
X1.00140 Y2.09320
X1.00140 Y2.09220
X1.00240 Y2.09220
X1.00240 Y2.09120
X1.00340 Y2.09120
X1.00340 Y2.09020
X1.00440 Y2.09020
X1.00440 Y2.08920
X1.00540 Y2.08920
X1.00540 Y2.08820
X1.00640 Y2.08820
X1.00640 Y2.08720
X1.00740 Y2.08720
X1.00740 Y2.08620
X1.00840 Y2.08620
X1.00840 Y2.08520
X1.00940 Y2.08520
X1.00940 Y2.08420
X1.01040 Y2.08420
X1.01040 Y2.08320
X1.01140 Y2.08320
X1.01140 Y2.08220
X1.01240 Y2.08220
X1.01240 Y2.08120
X1.01340 Y2.08120
X1.01340 Y2.08020
X1.01440 Y2.08020
X1.01440 Y2.07920
X1.01540 Y2.07920
X1.01540 Y2.07820
X1.01640 Y2.07820
X1.01640 Y2.07720
X1.01740 Y2.07720
X1.01740 Y2.07620
X1.01840 Y2.07620
X1.01840 Y2.07520
X1.01940 Y2.07520
X1.01940 Y2.07420
X1.02040 Y2.07420
X1.02040 Y2.07320
X1.02140 Y2.07320
X1.02140 Y2.07220
X1.02240 Y2.07220
X1.02240 Y2.07120
X1.02340 Y2.07120
X1.02340 Y2.07020
X1.02440 Y2.07020
X1.02440 Y2.06920
X1.02540 Y2.06920
X1.02540 Y2.06820
X1.02640 Y2.06820
X1.02640 Y2.06720
X1.02740 Y2.06720
X1.02740 Y2.06620
X1.02840 Y2.06620
X1.02840 Y2.06520
X1.02940 Y2.06520
X1.02940 Y2.06420
X1.03040 Y2.06420
X1.03040 Y2.06320
X1.03140 Y2.06320
X1.03140 Y2.06220
X1.03240 Y2.06220
X1.03240 Y2.06120
X1.03340 Y2.06120
X1.03340 Y2.06020
X1.03440 Y2.06020
X1.03440 Y2.05920
X1.03540 Y2.05920
X1.03540 Y2.05820
X1.03640 Y2.05820
X1.03640 Y2.05720
X1.03740 Y2.05720
X1.03740 Y2.05620
X1.03840 Y2.05620
X1.03840 Y2.05520
X1.03940 Y2.05520
X1.03940 Y2.05420
X1.04040 Y2.05420
X1.04040 Y2.05320
X1.04140 Y2.05320
X1.04140 Y2.05220
X1.04240 Y2.05220
X1.04240 Y2.05120
X1.04340 Y2.05120
X1.04340 Y2.05020
X1.04440 Y2.05020
X1.04440 Y2.04920
X1.04540 Y2.04920
X1.04540 Y2.04820
X1.04640 Y2.04820
X1.04640 Y2.04720
X1.04740 Y2.04720
X1.04740 Y2.04620
X1.04840 Y2.04620
X1.04840 Y2.04520
X1.04940 Y2.04520
X1.04940 Y2.04420
X1.05040 Y2.04420
X1.05040 Y2.04320
X1.05140 Y2.04320
X1.05140 Y2.04220
X1.05240 Y2.04220
X1.05240 Y2.04120
X1.05340 Y2.04120
X1.05340 Y2.04020
X1.05440 Y2.04020
X1.05440 Y2.03920
X1.05540 Y2.03920
X1.05540 Y2.03820
X1.05640 Y2.03820
X1.05640 Y2.03720
X1.05740 Y2.03720
X1.05740 Y2.03620
X1.05840 Y2.03620
X1.05840 Y2.03520
X1.05940 Y2.03520
X1.05940 Y2.03420
X1.06040 Y2.03420
X1.06040 Y2.03320
X1.06140 Y2.03320
X1.06140 Y2.03220
X1.06240 Y2.03220
X1.06240 Y2.03120
X1.06340 Y2.03120
X1.06340 Y2.03020
X1.06440 Y2.03020
X1.06440 Y2.02920
X1.06540 Y2.02920
X1.06540 Y2.02820
X1.06640 Y2.02820
X1.06640 Y2.02720
X1.06740 Y2.02720
X1.06740 Y2.02620
X1.06840 Y2.02620
X1.06840 Y2.02520
X1.06940 Y2.02520
X1.06940 Y2.02420
X1.07040 Y2.02420
X1.07040 Y2.02320
X1.07140 Y2.02320
X1.07140 Y2.02220
X1.07240 Y2.02220
X1.07240 Y2.02120
X1.07340 Y2.02120
X1.07340 Y2.02020
X1.07440 Y2.02020
X1.07440 Y2.01920
X1.07540 Y2.01920
X1.07540 Y2.01820
X1.07640 Y2.01820
X1.07640 Y2.01720
X1.07740 Y2.01720
X1.07740 Y2.01620
X1.07840 Y2.01620
X1.07840 Y2.01520
X1.07940 Y2.01520
X1.07940 Y2.01420
X1.08040 Y2.01420
X1.08040 Y2.01320
X1.08140 Y2.01320
X1.08140 Y2.01220
X1.08240 Y2.01220
X1.08240 Y2.01120
X1.08340 Y2.01120
X1.08340 Y2.01020
X1.08440 Y2.01020
X1.08440 Y2.00920
X1.08540 Y2.00920
X1.08540 Y2.00820
X1.08640 Y2.00820
X1.08640 Y2.00720
X1.08740 Y2.00720
X1.08740 Y2.00620
X1.08840 Y2.00620
X1.08840 Y2.00520
X1.08940 Y2.00520
X1.08940 Y2.00420
X1.09040 Y2.00420
X1.09040 Y2.00320
X1.09140 Y2.00320
X1.09140 Y2.00220
X1.09240 Y2.00220
X1.09240 Y2.00120
X1.09340 Y2.00120
X1.09340 Y2.00020
X1.09440 Y2.00020
X1.09440 Y1.99920
X1.09540 Y1.99920
X1.09540 Y1.99820
X1.09640 Y1.99820
X1.09640 Y1.99720
X1.09740 Y1.99720
X1.09740 Y1.99620
X1.09840 Y1.99620
X1.09840 Y1.99520
X1.09940 Y1.99520
X1.09940 Y1.99420
X1.10040 Y1.99420
X1.10040 Y1.99320
X1.10140 Y1.99320
X1.10140 Y1.99220
X1.10240 Y1.99220
X1.10240 Y1.99120
X1.10340 Y1.99120
X1.10340 Y1.99020
X1.10440 Y1.99020
X1.10440 Y1.98920
X1.10540 Y1.98920
X1.10540 Y1.98820
X1.10640 Y1.98820
X1.10640 Y1.98720
X1.10740 Y1.98720
X1.10740 Y1.98620
X1.10840 Y1.98620
X1.10840 Y1.98520
X1.10940 Y1.98520
X1.10940 Y1.98420
X1.11040 Y1.98420
X1.11040 Y1.98320
X1.11140 Y1.98320
X1.11140 Y1.98220
X1.11240 Y1.98220
X1.11240 Y1.98120
X1.11340 Y1.98120
X1.11340 Y1.98020
X1.11440 Y1.98020
X1.11440 Y1.97920
X1.11540 Y1.97920
X1.11540 Y1.97820
X1.11640 Y1.97820
X1.11640 Y1.97720
X1.11740 Y1.97720
X1.11740 Y1.97620
X1.11840 Y1.97620
X1.11840 Y1.97520
X1.11940 Y1.97520
X1.11940 Y1.97420
X1.12040 Y1.97420
X1.12040 Y1.97320
X1.12140 Y1.97320
X1.12140 Y1.97220
X1.12240 Y1.97220
X1.12240 Y1.97120
X1.12340 Y1.97120
X1.12340 Y1.97020
X1.12440 Y1.97020
X1.12440 Y1.96920
X1.12540 Y1.96920
X1.12540 Y1.96820
X1.12640 Y1.96820
X1.12640 Y1.96720
X1.12740 Y1.96720
X1.12740 Y1.96620
X1.12840 Y1.96620
X1.12840 Y1.96520
X1.12940 Y1.96520
X1.12940 Y1.96420
X1.13040 Y1.96420
X1.13040 Y1.96320
X1.13140 Y1.96320
X1.13140 Y1.96220
X1.13240 Y1.96220
X1.13240 Y1.96120
X1.13340 Y1.96120
X1.13340 Y1.96020
X1.13440 Y1.96020
X1.13440 Y1.95920
X1.13540 Y1.95920
X1.13540 Y1.95820
X1.13640 Y1.95820
X1.13640 Y1.95720
X1.13740 Y1.95720
X1.13740 Y1.95620
X1.13840 Y1.95620
X1.13840 Y1.95520
X1.13940 Y1.95520
X1.13940 Y1.95420
X1.14040 Y1.95420
X1.14040 Y1.95320
X1.14140 Y1.95320
X1.14140 Y1.95220
X1.14240 Y1.95220
X1.14240 Y1.95120
X1.14340 Y1.95120
X1.14340 Y1.95020
X1.14440 Y1.95020
X1.14440 Y1.94920
X1.14540 Y1.94920
X1.14540 Y1.94820
X1.14640 Y1.94820
X1.14640 Y1.94720
X1.14740 Y1.94720
X1.14740 Y1.94620
X1.14840 Y1.94620
X1.14840 Y1.94520
X1.14940 Y1.94520
X1.14940 Y1.94420
X1.15040 Y1.94420
X1.15040 Y1.94320
X1.15140 Y1.94320
X1.15140 Y1.94220
X1.15240 Y1.94220
X1.15240 Y1.94120
X1.15340 Y1.94120
X1.15340 Y1.94020
X1.15440 Y1.94020
X1.15440 Y1.93920
X1.15540 Y1.93920
X1.15540 Y1.93820
X1.15640 Y1.93820
X1.15640 Y1.93720
X1.15740 Y1.93720
X1.15740 Y1.93620
X1.15840 Y1.93620
X1.15840 Y1.93520
X1.15940 Y1.93520
X1.15940 Y1.93420
X1.16040 Y1.93420
X1.16040 Y1.93320
X1.16140 Y1.93320
X1.16140 Y1.93220
X1.16240 Y1.93220
X1.16240 Y1.93120
X1.16340 Y1.93120
X1.16340 Y1.93020
X1.16440 Y1.93020
X1.16440 Y1.92920
X1.16540 Y1.92920
X1.16540 Y1.92820
X1.16640 Y1.92820
X1.16640 Y1.92720
X1.16740 Y1.92720
X1.16740 Y1.92620
X1.16840 Y1.92620
X1.16840 Y1.92520
X1.16940 Y1.92520
X1.16940 Y1.92420
X1.17040 Y1.92420
X1.17040 Y1.92320
X1.17140 Y1.92320
X1.17140 Y1.92220
X1.17240 Y1.92220
X1.17240 Y1.92120
X1.17340 Y1.92120
X1.17340 Y1.92020
X1.17440 Y1.92020
X1.17440 Y1.91920
X1.17540 Y1.91920
X1.17540 Y1.91820
X1.17640 Y1.91820
X1.17640 Y1.91720
X1.17740 Y1.91720
X1.17740 Y1.91620
X1.17840 Y1.91620
X1.17840 Y1.91520
X1.17940 Y1.91520
X1.17940 Y1.91420
X1.18040 Y1.91420
X1.18040 Y1.91320
X1.18140 Y1.91320
X1.18140 Y1.91220
X1.18240 Y1.91220
X1.18240 Y1.91120
X1.18340 Y1.91120
X1.18340 Y1.91020
X1.18440 Y1.91020
X1.18440 Y1.90920
X1.18540 Y1.90920
X1.18540 Y1.90820
X1.18640 Y1.90820
X1.18640 Y1.90720
X1.18740 Y1.90720
X1.18740 Y1.90620
X1.18840 Y1.90620
X1.18840 Y1.90520
X1.18940 Y1.90520
X1.18940 Y1.90420
X1.19040 Y1.90420
X1.19040 Y1.90320
X1.19140 Y1.90320
X1.19140 Y1.90220
X1.19240 Y1.90220
X1.19240 Y1.90120
X1.19340 Y1.90120
X1.19340 Y1.90020
X1.19440 Y1.90020
X1.19440 Y1.89920
X1.19540 Y1.89920
X1.19540 Y1.89820
X1.19640 Y1.89820
X1.19640 Y1.89720
X1.19740 Y1.89720
X1.19740 Y1.89620
X1.19840 Y1.89620
X1.19840 Y1.89520
X1.19940 Y1.89520
X1.19940 Y1.89420
X1.20040 Y1.89420
X1.20040 Y1.89320
X1.20140 Y1.89320
X1.20140 Y1.89220
X1.20240 Y1.89220
X1.20240 Y1.89120
X1.20340 Y1.89120
X1.20340 Y1.89020
X1.20440 Y1.89020
X1.20440 Y1.88920
X1.20540 Y1.88920
X1.20540 Y1.88820
X1.20640 Y1.88820
X1.20640 Y1.88720
X1.20740 Y1.88720
X1.20740 Y1.88620
X1.20840 Y1.88620
X1.20840 Y1.88520
X1.20940 Y1.88520
X1.20940 Y1.88420
X1.21040 Y1.88420
X1.21040 Y1.88320
X1.21140 Y1.88320
X1.21140 Y1.88220
X1.21240 Y1.88220
X1.21240 Y1.88120
X1.21340 Y1.88120
X1.21340 Y1.88020
X1.21440 Y1.88020
X1.21440 Y1.87920
X1.21540 Y1.87920
X1.21540 Y1.87820
X1.21640 Y1.87820
X1.21640 Y1.87720
X1.21740 Y1.87720
X1.21740 Y1.87620
X1.21840 Y1.87620
X1.21840 Y1.87520
X1.21940 Y1.87520
X1.21940 Y1.87420
X1.22040 Y1.87420
X1.22040 Y1.87320
X1.22140 Y1.87320
X1.22140 Y1.87220
X1.22240 Y1.87220
X1.22240 Y1.87120
X1.22340 Y1.87120
X1.22340 Y1.87020
X1.22440 Y1.87020
X1.22440 Y1.86920
X1.22540 Y1.86920
X1.22540 Y1.86820
X1.22640 Y1.86820
X1.22640 Y1.86720
X1.22740 Y1.86720
X1.22740 Y1.86620
X1.22840 Y1.86620
X1.22840 Y1.86520
X1.22940 Y1.86520
X1.22940 Y1.86420
X1.23040 Y1.86420
X1.23040 Y1.86320
X1.23140 Y1.86320
X1.23140 Y1.86220
X1.23240 Y1.86220
X1.23240 Y1.86120
X1.23340 Y1.86120
X1.23340 Y1.86020
X1.23440 Y1.86020
X1.23440 Y1.85920
X1.23540 Y1.85920
X1.23540 Y1.85820
X1.23640 Y1.85820
X1.23640 Y1.85720
X1.23740 Y1.85720
X1.23740 Y1.85620
X1.23840 Y1.85620
X1.23840 Y1.85520
X1.23940 Y1.85520
X1.23940 Y1.85420
X1.24040 Y1.85420
X1.24040 Y1.85320
X1.24140 Y1.85320
X1.24140 Y1.85220
X1.24240 Y1.85220
X1.24240 Y1.85120
X1.24340 Y1.85120
X1.24340 Y1.85020
X1.24440 Y1.85020
X1.24440 Y1.84920
X1.24540 Y1.84920
X1.24540 Y1.84820
X1.24640 Y1.84820
X1.24640 Y1.84720
X1.24740 Y1.84720
X1.24740 Y1.84620
X1.25040 Y1.84620
X1.25040 Y1.84520
X1.25140 Y1.84520
X1.25140 Y1.84420
X1.25440 Y1.84420
X1.25440 Y1.84320
X1.25740 Y1.84320
X1.25740 Y1.84220
X1.26040 Y1.84220
X1.26040 Y1.84120
X1.26340 Y1.84120
X1.26340 Y1.84020
X1.26640 Y1.84020
X1.26640 Y1.83920
X1.26940 Y1.83920
X1.26940 Y1.83820
X1.27240 Y1.83820
X1.27240 Y1.83720
X1.27540 Y1.83720
X1.27540 Y1.83620
X1.27840 Y1.83620
X1.27840 Y1.83520
X1.28140 Y1.83520
X1.28140 Y1.83420
X1.28440 Y1.83420
X1.28440 Y1.83320
X1.83140 Y1.83320
X1.83140 Y1.70520
X1.82940 Y1.70520
X1.82940 Y1.70620
X1.78840 Y1.70620
X1.78840 Y1.70520
X1.78240 Y1.70520
X1.78240 Y1.70420
X1.77840 Y1.70420
X1.77840 Y1.70320
X1.77740 Y1.70320
X1.77740 Y1.70220
X1.77540 Y1.70220
X1.77540 Y1.70120
X1.77340 Y1.70120
X1.77340 Y1.70020
X1.77240 Y1.70020
X1.77240 Y1.69920
X1.77140 Y1.69920
X1.77140 Y1.69820
X1.77040 Y1.69820
X1.77040 Y1.69720
X1.76940 Y1.69720
X1.76940 Y1.69520
X1.76840 Y1.69520
X1.76840 Y1.69420
X1.76740 Y1.69420
X1.76740 Y1.69320
X1.76640 Y1.69320
X1.76640 Y1.69120
X1.76540 Y1.69120
X1.76540 Y1.68620
X1.76440 Y1.68620
X1.76440 Y1.68120
X1.76340 Y1.68120
X1.76340 Y1.64020
X1.76440 Y1.64020
X1.76440 Y1.63720
X1.76540 Y1.63720
X1.76540 Y1.63620
X1.76740 Y1.63620
X1.76740 Y1.63520
X1.76840 Y1.63520
X1.76840 Y1.63420
X1.77040 Y1.63420
X1.77040 Y1.63320
X1.77240 Y1.63320
X1.77240 Y1.63220
X1.77540 Y1.63220
X1.77540 Y1.63120
X1.77740 Y1.63120
X1.77740 Y1.63020
X1.78040 Y1.63020
X1.78040 Y1.62920
X1.78440 Y1.62920
X1.78440 Y1.62820
X1.78840 Y1.62820
X1.78840 Y1.62720
X1.79940 Y1.62720
X1.79940 Y1.62620
X1.81840 Y1.62620
X1.81840 Y1.62720
X1.82940 Y1.62720
X1.82940 Y1.62820
X1.83340 Y1.62820
X1.83340 Y1.62920
X1.83740 Y1.62920
X1.83740 Y1.63020
X1.84040 Y1.63020
X1.84040 Y1.63120
X1.84240 Y1.63120
X1.84240 Y1.63220
X1.84340 Y1.63220
X1.84340 Y1.63320
X1.84440 Y1.63320
X1.84440 Y1.63420
X1.84540 Y1.63420
X1.84540 Y1.63620
X1.84640 Y1.63620
X1.84640 Y1.63720
X1.84740 Y1.63720
X1.84740 Y1.63820
X1.84840 Y1.63820
X1.84840 Y1.63920
X1.85140 Y1.63920
X1.85140 Y1.64020
X1.85440 Y1.64020
X1.85440 Y1.64120
X1.85740 Y1.64120
X1.85740 Y1.64220
X1.86040 Y1.64220
X1.86040 Y1.64320
X1.86340 Y1.64320
X1.86340 Y1.64420
X1.86640 Y1.64420
X1.86640 Y1.64520
X1.86740 Y1.64520
X1.86740 Y1.64620
X1.87040 Y1.64620
X1.87040 Y1.64720
X1.87140 Y1.64720
X1.87140 Y1.64820
X1.87240 Y1.64820
X1.87240 Y1.64920
X1.87340 Y1.64920
X1.87340 Y1.65220
X1.87440 Y1.65220
X1.87440 Y1.65320
X1.87540 Y1.65320
X1.87540 Y1.65620
X1.87640 Y1.65620
X1.87640 Y1.65920
X1.87740 Y1.65920
X1.87740 Y1.66220
X1.87840 Y1.66220
X1.87840 Y1.66520
X1.87940 Y1.66520
X1.87940 Y1.66820
X1.88040 Y1.66820
X1.88040 Y1.67120
X1.88140 Y1.67120
X1.88140 Y1.67420
X1.88240 Y1.67420
X1.88240 Y1.67720
X1.88340 Y1.67720
X1.88340 Y1.68020
X1.88440 Y1.68020
X1.88440 Y1.68320
X1.88540 Y1.68320
X1.88540 Y1.68620
X1.88640 Y1.68620
X1.88640 Y2.03320
X1.88840 Y2.03320
X1.88840 Y2.03420
X1.89040 Y2.03420
X1.89040 Y2.03520
X1.89240 Y2.03520
X1.89240 Y2.03620
X1.89540 Y2.03620
X1.89540 Y2.03720
X1.89740 Y2.03720
X1.89740 Y2.03920
X1.89840 Y2.03920
X1.89840 Y2.04020
X1.89940 Y2.04020
X1.89940 Y2.04120
X1.90040 Y2.04120
X1.90040 Y2.04220
X1.90140 Y2.04220
X1.90140 Y2.04420
X1.90240 Y2.04420
X1.90240 Y2.04520
X1.90340 Y2.04520
X1.90340 Y2.04620
X1.90440 Y2.04620
X1.90440 Y2.04720
X1.90540 Y2.04720
X1.90540 Y2.05020
X1.90640 Y2.05020
X1.90640 Y2.05420
X1.90740 Y2.05420
X1.90740 Y2.05920
X1.90840 Y2.05920
X1.90840 Y2.16220
X1.90740 Y2.16220
X1.90740 Y2.16720
X1.90640 Y2.16720
X1.90640 Y2.17120
X1.90540 Y2.17120
X1.90540 Y2.17420
X1.90440 Y2.17420
X1.90440 Y2.17520
X1.90340 Y2.17520
X1.90340 Y2.17620
X1.90240 Y2.17620
X1.90240 Y2.17720
X1.90140 Y2.17720
X1.90140 Y2.17920
X1.90040 Y2.17920
X1.90040 Y2.18020
X1.89940 Y2.18020
X1.89940 Y2.18120
X1.89840 Y2.18120
X1.89840 Y2.18220
X1.89740 Y2.18220
X1.89740 Y2.18320
X1.89440 Y2.18320
X1.89440 Y2.18420
X1.88840 Y2.18420
X1.88840 Y2.18520
X1.88340 Y2.18520
X1.88340 Y2.18620
X1.83440 Y2.18620
X1.83440 Y2.18520
X1.82940 Y2.18520
X1.82940 Y2.18420
X1.82340 Y2.18420
X1.82340 Y2.18320
X1.82040 Y2.18320
X1.82040 Y2.18220
X1.81940 Y2.18220
X1.81940 Y2.18120
X1.81840 Y2.18120
X1.81840 Y2.18020
X1.81740 Y2.18020
X1.81740 Y2.17920
X1.81640 Y2.17920
X1.81640 Y2.17720
X1.81540 Y2.17720
X1.81540 Y2.17620
X1.81440 Y2.17620
X1.81440 Y2.17520
X1.81340 Y2.17520
X1.81340 Y2.17420
X1.81240 Y2.17420
X1.81240 Y2.17120
X1.81140 Y2.17120
X1.81140 Y2.16720
X1.81040 Y2.16720
X1.81040 Y2.16220
X1.80940 Y2.16220
X1.80940 Y2.05920
X1.81040 Y2.05920
X1.81040 Y2.05720
X1.81140 Y2.05720
X1.81140 Y2.05520
X1.81240 Y2.05520
X1.81240 Y2.05320
X1.81340 Y2.05320
X1.81340 Y2.05220
X1.81440 Y2.05220
X1.81440 Y2.04920
X1.81540 Y2.04920
X1.81540 Y2.04820
X1.81640 Y2.04820
X1.81640 Y2.04720
X1.81740 Y2.04720
X1.81740 Y2.04620
X1.81840 Y2.04620
X1.81840 Y2.04520
X1.81940 Y2.04520
X1.81940 Y2.04420
X1.82040 Y2.04420
X1.82040 Y2.04320
X1.82140 Y2.04320
X1.82140 Y2.04220
X1.82240 Y2.04220
X1.82240 Y2.04120
X1.82340 Y2.04120
X1.82340 Y2.04020
X1.82440 Y2.04020
X1.82440 Y2.03920
X1.82540 Y2.03920
X1.82540 Y2.03820
X1.82740 Y2.03820
X1.82740 Y2.03720
X1.82940 Y2.03720
X1.82940 Y2.03620
X1.83040 Y2.03620
X1.83040 Y2.03520
X1.83140 Y2.03520
X1.83140 Y2.03420
X1.83240 Y2.03420
X1.83240 Y2.03220
X1.83340 Y2.03220
X1.83340 Y2.00120
X1.83440 Y2.00120
X1.83440 Y2.00020
X1.83540 Y2.00020
X1.83540 Y1.99720
X1.83640 Y1.99720
X1.83640 Y1.99520
X1.83740 Y1.99520
X1.83740 Y1.99320
X1.83840 Y1.99320
X1.83840 Y1.99020
X1.83940 Y1.99020
X1.83940 Y1.98620
X1.84040 Y1.98620
X1.84040 Y1.98320
X1.84140 Y1.98320
X1.84140 Y1.97520
X1.84240 Y1.97520
X1.84240 Y1.94620
X1.84140 Y1.94620
X1.84140 Y1.93820
X1.84040 Y1.93820
X1.84040 Y1.93520
X1.83940 Y1.93520
X1.83940 Y1.93120
X1.83840 Y1.93120
X1.83840 Y1.92820
X1.83740 Y1.92820
X1.83740 Y1.92620
X1.83640 Y1.92620
X1.83640 Y1.92420
X1.83540 Y1.92420
X1.83540 Y1.92120
X1.83440 Y1.92120
X1.83440 Y1.92020
X1.83340 Y1.92020
X1.83340 Y1.91820
X1.83240 Y1.91820
X1.83240 Y1.91720
X1.83140 Y1.91720
X1.83140 Y1.88820
X1.28140 Y1.88820
X1.28140 Y1.88920
X1.28040 Y1.88920
X1.28040 Y1.89020
X1.27940 Y1.89020
X1.27940 Y1.89120
X1.27840 Y1.89120
X1.27840 Y1.89220
X1.27740 Y1.89220
X1.27740 Y1.89320
X1.27640 Y1.89320
X1.27640 Y1.89420
X1.27540 Y1.89420
X1.27540 Y1.89520
X1.27440 Y1.89520
X1.27440 Y1.89620
X1.27340 Y1.89620
X1.27340 Y1.89720
X1.27240 Y1.89720
X1.27240 Y1.89820
X1.27140 Y1.89820
X1.27140 Y1.89920
X1.27040 Y1.89920
X1.27040 Y1.90020
X1.26940 Y1.90020
X1.26940 Y1.90120
X1.26840 Y1.90120
X1.26840 Y1.90220
X1.26740 Y1.90220
X1.26740 Y1.90320
X1.26640 Y1.90320
X1.26640 Y1.90420
X1.26540 Y1.90420
X1.26540 Y1.90520
X1.26440 Y1.90520
X1.26440 Y1.90620
X1.26340 Y1.90620
X1.26340 Y1.90720
X1.26240 Y1.90720
X1.26240 Y1.90820
X1.26140 Y1.90820
X1.26140 Y1.90920
X1.26040 Y1.90920
X1.26040 Y1.91020
X1.25940 Y1.91020
X1.25940 Y1.91120
X1.25840 Y1.91120
X1.25840 Y1.91220
X1.25740 Y1.91220
X1.25740 Y1.91320
X1.25640 Y1.91320
X1.25640 Y1.91420
X1.25540 Y1.91420
X1.25540 Y1.91520
X1.25440 Y1.91520
X1.25440 Y1.91620
X1.25340 Y1.91620
X1.25340 Y1.91720
X1.25240 Y1.91720
X1.25240 Y1.91820
X1.25140 Y1.91820
X1.25140 Y1.91920
X1.25040 Y1.91920
X1.25040 Y1.92020
X1.24940 Y1.92020
X1.24940 Y1.92120
X1.24840 Y1.92120
X1.24840 Y1.92220
X1.24740 Y1.92220
X1.24740 Y1.92320
X1.24640 Y1.92320
X1.24640 Y1.92420
X1.24540 Y1.92420
X1.24540 Y1.92520
X1.24440 Y1.92520
X1.24440 Y1.92620
X1.24340 Y1.92620
X1.24340 Y1.92720
X1.24240 Y1.92720
X1.24240 Y1.92820
X1.24140 Y1.92820
X1.24140 Y1.92920
X1.24040 Y1.92920
X1.24040 Y1.93020
X1.23940 Y1.93020
X1.23940 Y1.93120
X1.23840 Y1.93120
X1.23840 Y1.93220
X1.23740 Y1.93220
X1.23740 Y1.93320
X1.23640 Y1.93320
X1.23640 Y1.93420
X1.23540 Y1.93420
X1.23540 Y1.93520
X1.23440 Y1.93520
X1.23440 Y1.93620
X1.23340 Y1.93620
X1.23340 Y1.93720
X1.23240 Y1.93720
X1.23240 Y1.93820
X1.23140 Y1.93820
X1.23140 Y1.93920
X1.23040 Y1.93920
X1.23040 Y1.94020
X1.22940 Y1.94020
X1.22940 Y1.94120
X1.22840 Y1.94120
X1.22840 Y1.94220
X1.22740 Y1.94220
X1.22740 Y1.94320
X1.22640 Y1.94320
X1.22640 Y1.94420
X1.22540 Y1.94420
X1.22540 Y1.94520
X1.22440 Y1.94520
X1.22440 Y1.94620
X1.22340 Y1.94620
X1.22340 Y1.94720
X1.22240 Y1.94720
X1.22240 Y1.94820
X1.22140 Y1.94820
X1.22140 Y1.94920
X1.22040 Y1.94920
X1.22040 Y1.95020
X1.21940 Y1.95020
X1.21940 Y1.95120
X1.21840 Y1.95120
X1.21840 Y1.95220
X1.21740 Y1.95220
X1.21740 Y1.95320
X1.21640 Y1.95320
X1.21640 Y1.95420
X1.21540 Y1.95420
X1.21540 Y1.95520
X1.21440 Y1.95520
X1.21440 Y1.95620
X1.21340 Y1.95620
X1.21340 Y1.95720
X1.21240 Y1.95720
X1.21240 Y1.95820
X1.21140 Y1.95820
X1.21140 Y1.95920
X1.21040 Y1.95920
X1.21040 Y1.96020
X1.20940 Y1.96020
X1.20940 Y1.96120
X1.20840 Y1.96120
X1.20840 Y1.96220
X1.20740 Y1.96220
X1.20740 Y1.96320
X1.20640 Y1.96320
X1.20640 Y1.96420
X1.20540 Y1.96420
X1.20540 Y1.96520
X1.20440 Y1.96520
X1.20440 Y1.96620
X1.20340 Y1.96620
X1.20340 Y1.96720
X1.20240 Y1.96720
X1.20240 Y1.96820
X1.20140 Y1.96820
X1.20140 Y1.96920
X1.20040 Y1.96920
X1.20040 Y1.97020
X1.19940 Y1.97020
X1.19940 Y1.97120
X1.19840 Y1.97120
X1.19840 Y1.97220
X1.19740 Y1.97220
X1.19740 Y1.97320
X1.19640 Y1.97320
X1.19640 Y1.97420
X1.19540 Y1.97420
X1.19540 Y1.97520
X1.19440 Y1.97520
X1.19440 Y1.97620
X1.19340 Y1.97620
X1.19340 Y1.97720
X1.19240 Y1.97720
X1.19240 Y1.97820
X1.19140 Y1.97820
X1.19140 Y1.97920
X1.19040 Y1.97920
X1.19040 Y1.98020
X1.18940 Y1.98020
X1.18940 Y1.98120
X1.18840 Y1.98120
X1.18840 Y1.98220
X1.18740 Y1.98220
X1.18740 Y1.98320
X1.18640 Y1.98320
X1.18640 Y1.98420
X1.18540 Y1.98420
X1.18540 Y1.98520
X1.18440 Y1.98520
X1.18440 Y1.98620
X1.18340 Y1.98620
X1.18340 Y1.98720
X1.18240 Y1.98720
X1.18240 Y1.98820
X1.18140 Y1.98820
X1.18140 Y1.98920
X1.18040 Y1.98920
X1.18040 Y1.99020
X1.17940 Y1.99020
X1.17940 Y1.99120
X1.17840 Y1.99120
X1.17840 Y1.99220
X1.17740 Y1.99220
X1.17740 Y1.99320
X1.17640 Y1.99320
X1.17640 Y1.99420
X1.17540 Y1.99420
X1.17540 Y1.99520
X1.17440 Y1.99520
X1.17440 Y1.99620
X1.17340 Y1.99620
X1.17340 Y1.99720
X1.17240 Y1.99720
X1.17240 Y1.99820
X1.17140 Y1.99820
X1.17140 Y1.99920
X1.17040 Y1.99920
X1.17040 Y2.00020
X1.16940 Y2.00020
X1.16940 Y2.00120
X1.16840 Y2.00120
X1.16840 Y2.00220
X1.16740 Y2.00220
X1.16740 Y2.00320
X1.16640 Y2.00320
X1.16640 Y2.00420
X1.16540 Y2.00420
X1.16540 Y2.00520
X1.16440 Y2.00520
X1.16440 Y2.00620
X1.16340 Y2.00620
X1.16340 Y2.00720
X1.16240 Y2.00720
X1.16240 Y2.00820
X1.16140 Y2.00820
X1.16140 Y2.00920
X1.16040 Y2.00920
X1.16040 Y2.01020
X1.15940 Y2.01020
X1.15940 Y2.01120
X1.15840 Y2.01120
X1.15840 Y2.01220
X1.15740 Y2.01220
X1.15740 Y2.01320
X1.15640 Y2.01320
X1.15640 Y2.01420
X1.15540 Y2.01420
X1.15540 Y2.01520
X1.15440 Y2.01520
X1.15440 Y2.01620
X1.15340 Y2.01620
X1.15340 Y2.01720
X1.15240 Y2.01720
X1.15240 Y2.01820
X1.15140 Y2.01820
X1.15140 Y2.01920
X1.15040 Y2.01920
X1.15040 Y2.02020
X1.14940 Y2.02020
X1.14940 Y2.02120
X1.14840 Y2.02120
X1.14840 Y2.02220
X1.14740 Y2.02220
X1.14740 Y2.02320
X1.14640 Y2.02320
X1.14640 Y2.02420
X1.14540 Y2.02420
X1.14540 Y2.02520
X1.14440 Y2.02520
X1.14440 Y2.02620
X1.14340 Y2.02620
X1.14340 Y2.02720
X1.14240 Y2.02720
X1.14240 Y2.02820
X1.14140 Y2.02820
X1.14140 Y2.02920
X1.14040 Y2.02920
X1.14040 Y2.03020
X1.13940 Y2.03020
X1.13940 Y2.03120
X1.13840 Y2.03120
X1.13840 Y2.03220
X1.13740 Y2.03220
X1.13740 Y2.03320
X1.13640 Y2.03320
X1.13640 Y2.03420
X1.13540 Y2.03420
X1.13540 Y2.03520
X1.13440 Y2.03520
X1.13440 Y2.03620
X1.13340 Y2.03620
X1.13340 Y2.03720
X1.13240 Y2.03720
X1.13240 Y2.03820
X1.13140 Y2.03820
X1.13140 Y2.03920
X1.13040 Y2.03920
X1.13040 Y2.04020
X1.12940 Y2.04020
X1.12940 Y2.04120
X1.12840 Y2.04120
X1.12840 Y2.04220
X1.12740 Y2.04220
X1.12740 Y2.04320
X1.12640 Y2.04320
X1.12640 Y2.04420
X1.12540 Y2.04420
X1.12540 Y2.04520
X1.12440 Y2.04520
X1.12440 Y2.04620
X1.12340 Y2.04620
X1.12340 Y2.04720
X1.12240 Y2.04720
X1.12240 Y2.04820
X1.12140 Y2.04820
X1.12140 Y2.04920
X1.12040 Y2.04920
X1.12040 Y2.05020
X1.11940 Y2.05020
X1.11940 Y2.05120
X1.11840 Y2.05120
X1.11840 Y2.05220
X1.11740 Y2.05220
X1.11740 Y2.05320
X1.11640 Y2.05320
X1.11640 Y2.05420
X1.11540 Y2.05420
X1.11540 Y2.05520
X1.11440 Y2.05520
X1.11440 Y2.05620
X1.11340 Y2.05620
X1.11340 Y2.05720
X1.11240 Y2.05720
X1.11240 Y2.05820
X1.11140 Y2.05820
X1.11140 Y2.05920
X1.11040 Y2.05920
X1.11040 Y2.06020
X1.10940 Y2.06020
X1.10940 Y2.06120
X1.10840 Y2.06120
X1.10840 Y2.06220
X1.10740 Y2.06220
X1.10740 Y2.06320
X1.10640 Y2.06320
X1.10640 Y2.06420
X1.10540 Y2.06420
X1.10540 Y2.06520
X1.10440 Y2.06520
X1.10440 Y2.06620
X1.10340 Y2.06620
X1.10340 Y2.06720
X1.10240 Y2.06720
X1.10240 Y2.06820
X1.10140 Y2.06820
X1.10140 Y2.06920
X1.10040 Y2.06920
X1.10040 Y2.07020
X1.09940 Y2.07020
X1.09940 Y2.07120
X1.09840 Y2.07120
X1.09840 Y2.07220
X1.09740 Y2.07220
X1.09740 Y2.07320
X1.09640 Y2.07320
X1.09640 Y2.07420
X1.09540 Y2.07420
X1.09540 Y2.07520
X1.09440 Y2.07520
X1.09440 Y2.07620
X1.09340 Y2.07620
X1.09340 Y2.07720
X1.09240 Y2.07720
X1.09240 Y2.07820
X1.09140 Y2.07820
X1.09140 Y2.07920
X1.09040 Y2.07920
X1.09040 Y2.08020
X1.08940 Y2.08020
X1.08940 Y2.08120
X1.08840 Y2.08120
X1.08840 Y2.08220
X1.08740 Y2.08220
X1.08740 Y2.08320
X1.08640 Y2.08320
X1.08640 Y2.08420
X1.08540 Y2.08420
X1.08540 Y2.08520
X1.08440 Y2.08520
X1.08440 Y2.08620
X1.08340 Y2.08620
X1.08340 Y2.08720
X1.08240 Y2.08720
X1.08240 Y2.08820
X1.08140 Y2.08820
X1.08140 Y2.08920
X1.08040 Y2.08920
X1.08040 Y2.09020
X1.07940 Y2.09020
X1.07940 Y2.09120
X1.07840 Y2.09120
X1.07840 Y2.09220
X1.07740 Y2.09220
X1.07740 Y2.09320
X1.07640 Y2.09320
X1.07640 Y2.09420
X1.07540 Y2.09420
X1.07540 Y2.09520
X1.07440 Y2.09520
X1.07440 Y2.09620
X1.07340 Y2.09620
X1.07340 Y2.09720
X1.07240 Y2.09720
X1.07240 Y2.09820
X1.07140 Y2.09820
X1.07140 Y2.09920
X1.07040 Y2.09920
X1.07040 Y2.10020
X1.06940 Y2.10020
X1.06940 Y2.10120
X1.06840 Y2.10120
X1.06840 Y2.10220
X1.06740 Y2.10220
X1.06740 Y2.10320
X1.06640 Y2.10320
X1.06640 Y2.10420
X1.06540 Y2.10420
X1.06540 Y2.10520
X1.06440 Y2.10520
X1.06440 Y2.10620
X1.06340 Y2.10620
X1.06340 Y2.10720
X1.06240 Y2.10720
X1.06240 Y2.10820
X1.06140 Y2.10820
X1.06140 Y2.10920
X1.06040 Y2.10920
X1.06040 Y2.11020
X1.05940 Y2.11020
X1.05940 Y2.11120
X1.05840 Y2.11120
X1.05840 Y2.11220
X1.05740 Y2.11220
X1.05740 Y2.11320
X1.05640 Y2.11320
X1.05640 Y2.11420
X1.05540 Y2.11420
X1.05540 Y2.11520
X1.05440 Y2.11520
X1.05440 Y2.11620
X1.05340 Y2.11620
X1.05340 Y2.11720
X1.05240 Y2.11720
X1.05240 Y2.11820
X1.05140 Y2.11820
X1.05140 Y2.11920
X1.05040 Y2.11920
X1.05040 Y2.12020
X1.04940 Y2.12020
X1.04940 Y2.12120
X1.04840 Y2.12120
X1.04840 Y2.12220
X1.04740 Y2.12220
X1.04740 Y2.12320
X1.04640 Y2.12320
X1.04640 Y2.12420
X1.04540 Y2.12420
X1.04540 Y2.12520
X1.04440 Y2.12520
X1.04440 Y2.12620
X1.04340 Y2.12620
X1.04340 Y2.12720
X1.04240 Y2.12720
X1.04240 Y2.12820
X1.04140 Y2.12820
X1.04140 Y2.12920
X1.04040 Y2.12920
X1.04040 Y2.13020
X1.03940 Y2.13020
X1.03940 Y2.13120
X1.03840 Y2.13120
X1.03840 Y2.13220
X1.03740 Y2.13220
X1.03740 Y2.13320
X1.03640 Y2.13320
X1.03640 Y2.13420
X1.03540 Y2.13420
X1.03540 Y2.13520
X1.03440 Y2.13520
X1.03440 Y2.13620
X1.03340 Y2.13620
X1.03340 Y2.13720
X1.03240 Y2.13720
X1.03240 Y2.13820
X1.03140 Y2.13820
X1.03140 Y2.13920
X1.03040 Y2.13920
X1.03040 Y2.14020
X1.02940 Y2.14020
X1.02940 Y2.14120
X1.02840 Y2.14120
X1.02840 Y2.14220
X1.02740 Y2.14220
X1.02740 Y2.14320
X1.02640 Y2.14320
X1.02640 Y2.14420
X1.02540 Y2.14420
X1.02540 Y2.14520
X1.02440 Y2.14520
X1.02440 Y2.14620
X1.02340 Y2.14620
X1.02340 Y2.14720
X1.02240 Y2.14720
X1.02240 Y2.14820
X1.02140 Y2.14820
X1.02140 Y2.14920
X1.02040 Y2.14920
X1.02040 Y2.15020
X1.01940 Y2.15020
X1.01940 Y2.15120
X1.01840 Y2.15120
X1.01840 Y2.15220
X1.01740 Y2.15220
X1.01740 Y2.15320
X1.01640 Y2.15320
X1.01640 Y2.15420
X1.01540 Y2.15420
X1.01540 Y2.15520
X1.01440 Y2.15520
X1.01440 Y2.15620
X1.01340 Y2.15620
X1.01340 Y2.15720
X1.01240 Y2.15720
X1.01240 Y2.15820
X1.01140 Y2.15820
X1.01140 Y2.15920
X1.01040 Y2.15920
X1.01040 Y2.16020
X1.00940 Y2.16020
X1.00940 Y2.16120
X1.00840 Y2.16120
X1.00840 Y2.16220
X1.00740 Y2.16220
X1.00740 Y2.16320
X1.00640 Y2.16320
X1.00640 Y2.16420
X1.00540 Y2.16420
X1.00540 Y2.16520
X1.00440 Y2.16520
X1.00440 Y2.16620
X1.00340 Y2.16620
X1.00340 Y2.16720
X1.00240 Y2.16720
X1.00240 Y2.16820
X1.00140 Y2.16820
X1.00140 Y2.16920
X1.00040 Y2.16920
X1.00040 Y2.17020
X0.99940 Y2.17020
X0.99940 Y2.17120
X0.99840 Y2.17120
X0.99840 Y2.17220
X0.99740 Y2.17220
X0.99740 Y2.17320
X0.99640 Y2.17320
X0.99640 Y2.17420
X0.99540 Y2.17420
X0.99540 Y2.17520
X0.99440 Y2.17520
X0.99440 Y2.17620
X0.99340 Y2.17620
X0.99340 Y2.17720
X0.99240 Y2.17720
X0.99240 Y2.17820
X0.99140 Y2.17820
