( pcb2gcode 1.1.2 )

( This file uses a mill head of 0.0314961 to drill the 7bit sizes. )

G94     ( Inches per minute feed rate. )
G20     ( Units == INCHES.             )
G90     ( Absolute coordinates.        )
S20000  ( RPM spindle speed.           )

F7.87402
#50=-0.11811 ; zwork
#51=0.19685 ; zsafe
#52=0.00394 ; stepsize
G0 X1.80930 Y1.16010
G1 Z#50
G0 Z#51

G0 X0.20930 Y1.36010
G1 Z#50
G0 Z#51

G0 X0.20930 Y2.06010
G1 Z#50
G0 Z#51

G0 X0.20930 Y0.86010
G1 Z#50
G0 Z#51

G0 X0.05930 Y0.86010
G1 Z#50
G0 Z#51

G0 X1.80930 Y1.26010
G1 Z#50
G0 Z#51

G0 X1.90930 Y1.16010
G1 Z#50
G0 Z#51

G0 X1.95930 Y1.26010
G1 Z#50
G0 Z#51

G0 X1.95930 Y1.01010
G1 Z#50
G0 Z#51

G0 X1.85930 Y1.01010
G1 Z#50
G0 Z#51

G0 X1.70930 Y1.01010
G1 Z#50
G0 Z#51

G0 X1.55930 Y1.06010
G1 Z#50
G0 Z#51

G0 X1.55930 Y1.16010
G1 Z#50
G0 Z#51

G0 X1.70930 Y0.81010
G1 Z#50
G0 Z#51

G0 X1.85930 Y0.81010
G1 Z#50
G0 Z#51

G0 X1.95930 Y0.81010
G1 Z#50
G0 Z#51

G0 X1.05930 Y1.06010
G1 Z#50
G0 Z#51

G0 X1.05930 Y1.16010
G1 Z#50
G0 Z#51

G0 X0.85930 Y0.86010
G1 Z#50
G0 Z#51

G0 X0.85930 Y0.76010
G1 Z#50
G0 Z#51

G0 X0.20930 Y0.76010
G1 Z#50
G0 Z#51

G0 X0.20930 Y0.66010
G1 Z#50
G0 Z#51

G0 X1.70930 Y1.66010
G1 Z#50
G0 Z#51

G0 X1.80930 Y1.66010
G1 Z#50
G0 Z#51

G0 X1.80930 Y1.96010
G1 Z#50
G0 Z#51

G0 X1.70930 Y1.96010
G1 Z#50
G0 Z#51

G0 X1.45955 Y1.76010
G1 Z[#50+30*#52]
G2 I-0.00025 J0
G1 Z[#50+29*#52]
G2 I-0.00025 J0
G1 Z[#50+28*#52]
G2 I-0.00025 J0
G1 Z[#50+27*#52]
G2 I-0.00025 J0
G1 Z[#50+26*#52]
G2 I-0.00025 J0
G1 Z[#50+25*#52]
G2 I-0.00025 J0
G1 Z[#50+24*#52]
G2 I-0.00025 J0
G1 Z[#50+23*#52]
G2 I-0.00025 J0
G1 Z[#50+22*#52]
G2 I-0.00025 J0
G1 Z[#50+21*#52]
G2 I-0.00025 J0
G1 Z[#50+20*#52]
G2 I-0.00025 J0
G1 Z[#50+19*#52]
G2 I-0.00025 J0
G1 Z[#50+18*#52]
G2 I-0.00025 J0
G1 Z[#50+17*#52]
G2 I-0.00025 J0
G1 Z[#50+16*#52]
G2 I-0.00025 J0
G1 Z[#50+15*#52]
G2 I-0.00025 J0
G1 Z[#50+14*#52]
G2 I-0.00025 J0
G1 Z[#50+13*#52]
G2 I-0.00025 J0
G1 Z[#50+12*#52]
G2 I-0.00025 J0
G1 Z[#50+11*#52]
G2 I-0.00025 J0
G1 Z[#50+10*#52]
G2 I-0.00025 J0
G1 Z[#50+9*#52]
G2 I-0.00025 J0
G1 Z[#50+8*#52]
G2 I-0.00025 J0
G1 Z[#50+7*#52]
G2 I-0.00025 J0
G1 Z[#50+6*#52]
G2 I-0.00025 J0
G1 Z[#50+5*#52]
G2 I-0.00025 J0
G1 Z[#50+4*#52]
G2 I-0.00025 J0
G1 Z[#50+3*#52]
G2 I-0.00025 J0
G1 Z[#50+2*#52]
G2 I-0.00025 J0
G1 Z[#50+1*#52]
G2 I-0.00025 J0
G1 Z[#50+0*#52]
G2 I-0.00025 J0
G0 Z0.19685

G0 X1.45955 Y1.66010
G1 Z[#50+30*#52]
G2 I-0.00025 J0
G1 Z[#50+29*#52]
G2 I-0.00025 J0
G1 Z[#50+28*#52]
G2 I-0.00025 J0
G1 Z[#50+27*#52]
G2 I-0.00025 J0
G1 Z[#50+26*#52]
G2 I-0.00025 J0
G1 Z[#50+25*#52]
G2 I-0.00025 J0
G1 Z[#50+24*#52]
G2 I-0.00025 J0
G1 Z[#50+23*#52]
G2 I-0.00025 J0
G1 Z[#50+22*#52]
G2 I-0.00025 J0
G1 Z[#50+21*#52]
G2 I-0.00025 J0
G1 Z[#50+20*#52]
G2 I-0.00025 J0
G1 Z[#50+19*#52]
G2 I-0.00025 J0
G1 Z[#50+18*#52]
G2 I-0.00025 J0
G1 Z[#50+17*#52]
G2 I-0.00025 J0
G1 Z[#50+16*#52]
G2 I-0.00025 J0
G1 Z[#50+15*#52]
G2 I-0.00025 J0
G1 Z[#50+14*#52]
G2 I-0.00025 J0
G1 Z[#50+13*#52]
G2 I-0.00025 J0
G1 Z[#50+12*#52]
G2 I-0.00025 J0
G1 Z[#50+11*#52]
G2 I-0.00025 J0
G1 Z[#50+10*#52]
G2 I-0.00025 J0
G1 Z[#50+9*#52]
G2 I-0.00025 J0
G1 Z[#50+8*#52]
G2 I-0.00025 J0
G1 Z[#50+7*#52]
G2 I-0.00025 J0
G1 Z[#50+6*#52]
G2 I-0.00025 J0
G1 Z[#50+5*#52]
G2 I-0.00025 J0
G1 Z[#50+4*#52]
G2 I-0.00025 J0
G1 Z[#50+3*#52]
G2 I-0.00025 J0
G1 Z[#50+2*#52]
G2 I-0.00025 J0
G1 Z[#50+1*#52]
G2 I-0.00025 J0
G1 Z[#50+0*#52]
G2 I-0.00025 J0
G0 Z0.19685

G0 X1.45955 Y1.56010
G1 Z[#50+30*#52]
G2 I-0.00025 J0
G1 Z[#50+29*#52]
G2 I-0.00025 J0
G1 Z[#50+28*#52]
G2 I-0.00025 J0
G1 Z[#50+27*#52]
G2 I-0.00025 J0
G1 Z[#50+26*#52]
G2 I-0.00025 J0
G1 Z[#50+25*#52]
G2 I-0.00025 J0
G1 Z[#50+24*#52]
G2 I-0.00025 J0
G1 Z[#50+23*#52]
G2 I-0.00025 J0
G1 Z[#50+22*#52]
G2 I-0.00025 J0
G1 Z[#50+21*#52]
G2 I-0.00025 J0
G1 Z[#50+20*#52]
G2 I-0.00025 J0
G1 Z[#50+19*#52]
G2 I-0.00025 J0
G1 Z[#50+18*#52]
G2 I-0.00025 J0
G1 Z[#50+17*#52]
G2 I-0.00025 J0
G1 Z[#50+16*#52]
G2 I-0.00025 J0
G1 Z[#50+15*#52]
G2 I-0.00025 J0
G1 Z[#50+14*#52]
G2 I-0.00025 J0
G1 Z[#50+13*#52]
G2 I-0.00025 J0
G1 Z[#50+12*#52]
G2 I-0.00025 J0
G1 Z[#50+11*#52]
G2 I-0.00025 J0
G1 Z[#50+10*#52]
G2 I-0.00025 J0
G1 Z[#50+9*#52]
G2 I-0.00025 J0
G1 Z[#50+8*#52]
G2 I-0.00025 J0
G1 Z[#50+7*#52]
G2 I-0.00025 J0
G1 Z[#50+6*#52]
G2 I-0.00025 J0
G1 Z[#50+5*#52]
G2 I-0.00025 J0
G1 Z[#50+4*#52]
G2 I-0.00025 J0
G1 Z[#50+3*#52]
G2 I-0.00025 J0
G1 Z[#50+2*#52]
G2 I-0.00025 J0
G1 Z[#50+1*#52]
G2 I-0.00025 J0
G1 Z[#50+0*#52]
G2 I-0.00025 J0
G0 Z0.19685

G0 X1.45955 Y1.46010
G1 Z[#50+30*#52]
G2 I-0.00025 J0
G1 Z[#50+29*#52]
G2 I-0.00025 J0
G1 Z[#50+28*#52]
G2 I-0.00025 J0
G1 Z[#50+27*#52]
G2 I-0.00025 J0
G1 Z[#50+26*#52]
G2 I-0.00025 J0
G1 Z[#50+25*#52]
G2 I-0.00025 J0
G1 Z[#50+24*#52]
G2 I-0.00025 J0
G1 Z[#50+23*#52]
G2 I-0.00025 J0
G1 Z[#50+22*#52]
G2 I-0.00025 J0
G1 Z[#50+21*#52]
G2 I-0.00025 J0
G1 Z[#50+20*#52]
G2 I-0.00025 J0
G1 Z[#50+19*#52]
G2 I-0.00025 J0
G1 Z[#50+18*#52]
G2 I-0.00025 J0
G1 Z[#50+17*#52]
G2 I-0.00025 J0
G1 Z[#50+16*#52]
G2 I-0.00025 J0
G1 Z[#50+15*#52]
G2 I-0.00025 J0
G1 Z[#50+14*#52]
G2 I-0.00025 J0
G1 Z[#50+13*#52]
G2 I-0.00025 J0
G1 Z[#50+12*#52]
G2 I-0.00025 J0
G1 Z[#50+11*#52]
G2 I-0.00025 J0
G1 Z[#50+10*#52]
G2 I-0.00025 J0
G1 Z[#50+9*#52]
G2 I-0.00025 J0
G1 Z[#50+8*#52]
G2 I-0.00025 J0
G1 Z[#50+7*#52]
G2 I-0.00025 J0
G1 Z[#50+6*#52]
G2 I-0.00025 J0
G1 Z[#50+5*#52]
G2 I-0.00025 J0
G1 Z[#50+4*#52]
G2 I-0.00025 J0
G1 Z[#50+3*#52]
G2 I-0.00025 J0
G1 Z[#50+2*#52]
G2 I-0.00025 J0
G1 Z[#50+1*#52]
G2 I-0.00025 J0
G1 Z[#50+0*#52]
G2 I-0.00025 J0
G0 Z0.19685

G0 X1.45955 Y1.36010
G1 Z[#50+30*#52]
G2 I-0.00025 J0
G1 Z[#50+29*#52]
G2 I-0.00025 J0
G1 Z[#50+28*#52]
G2 I-0.00025 J0
G1 Z[#50+27*#52]
G2 I-0.00025 J0
G1 Z[#50+26*#52]
G2 I-0.00025 J0
G1 Z[#50+25*#52]
G2 I-0.00025 J0
G1 Z[#50+24*#52]
G2 I-0.00025 J0
G1 Z[#50+23*#52]
G2 I-0.00025 J0
G1 Z[#50+22*#52]
G2 I-0.00025 J0
G1 Z[#50+21*#52]
G2 I-0.00025 J0
G1 Z[#50+20*#52]
G2 I-0.00025 J0
G1 Z[#50+19*#52]
G2 I-0.00025 J0
G1 Z[#50+18*#52]
G2 I-0.00025 J0
G1 Z[#50+17*#52]
G2 I-0.00025 J0
G1 Z[#50+16*#52]
G2 I-0.00025 J0
G1 Z[#50+15*#52]
G2 I-0.00025 J0
G1 Z[#50+14*#52]
G2 I-0.00025 J0
G1 Z[#50+13*#52]
G2 I-0.00025 J0
G1 Z[#50+12*#52]
G2 I-0.00025 J0
G1 Z[#50+11*#52]
G2 I-0.00025 J0
G1 Z[#50+10*#52]
G2 I-0.00025 J0
G1 Z[#50+9*#52]
G2 I-0.00025 J0
G1 Z[#50+8*#52]
G2 I-0.00025 J0
G1 Z[#50+7*#52]
G2 I-0.00025 J0
G1 Z[#50+6*#52]
G2 I-0.00025 J0
G1 Z[#50+5*#52]
G2 I-0.00025 J0
G1 Z[#50+4*#52]
G2 I-0.00025 J0
G1 Z[#50+3*#52]
G2 I-0.00025 J0
G1 Z[#50+2*#52]
G2 I-0.00025 J0
G1 Z[#50+1*#52]
G2 I-0.00025 J0
G1 Z[#50+0*#52]
G2 I-0.00025 J0
G0 Z0.19685

G0 X1.45955 Y1.26010
G1 Z[#50+30*#52]
G2 I-0.00025 J0
G1 Z[#50+29*#52]
G2 I-0.00025 J0
G1 Z[#50+28*#52]
G2 I-0.00025 J0
G1 Z[#50+27*#52]
G2 I-0.00025 J0
G1 Z[#50+26*#52]
G2 I-0.00025 J0
G1 Z[#50+25*#52]
G2 I-0.00025 J0
G1 Z[#50+24*#52]
G2 I-0.00025 J0
G1 Z[#50+23*#52]
G2 I-0.00025 J0
G1 Z[#50+22*#52]
G2 I-0.00025 J0
G1 Z[#50+21*#52]
G2 I-0.00025 J0
G1 Z[#50+20*#52]
G2 I-0.00025 J0
G1 Z[#50+19*#52]
G2 I-0.00025 J0
G1 Z[#50+18*#52]
G2 I-0.00025 J0
G1 Z[#50+17*#52]
G2 I-0.00025 J0
G1 Z[#50+16*#52]
G2 I-0.00025 J0
G1 Z[#50+15*#52]
G2 I-0.00025 J0
G1 Z[#50+14*#52]
G2 I-0.00025 J0
G1 Z[#50+13*#52]
G2 I-0.00025 J0
G1 Z[#50+12*#52]
G2 I-0.00025 J0
G1 Z[#50+11*#52]
G2 I-0.00025 J0
G1 Z[#50+10*#52]
G2 I-0.00025 J0
G1 Z[#50+9*#52]
G2 I-0.00025 J0
G1 Z[#50+8*#52]
G2 I-0.00025 J0
G1 Z[#50+7*#52]
G2 I-0.00025 J0
G1 Z[#50+6*#52]
G2 I-0.00025 J0
G1 Z[#50+5*#52]
G2 I-0.00025 J0
G1 Z[#50+4*#52]
G2 I-0.00025 J0
G1 Z[#50+3*#52]
G2 I-0.00025 J0
G1 Z[#50+2*#52]
G2 I-0.00025 J0
G1 Z[#50+1*#52]
G2 I-0.00025 J0
G1 Z[#50+0*#52]
G2 I-0.00025 J0
G0 Z0.19685

G0 X1.45955 Y1.16010
G1 Z[#50+30*#52]
G2 I-0.00025 J0
G1 Z[#50+29*#52]
G2 I-0.00025 J0
G1 Z[#50+28*#52]
G2 I-0.00025 J0
G1 Z[#50+27*#52]
G2 I-0.00025 J0
G1 Z[#50+26*#52]
G2 I-0.00025 J0
G1 Z[#50+25*#52]
G2 I-0.00025 J0
G1 Z[#50+24*#52]
G2 I-0.00025 J0
G1 Z[#50+23*#52]
G2 I-0.00025 J0
G1 Z[#50+22*#52]
G2 I-0.00025 J0
G1 Z[#50+21*#52]
G2 I-0.00025 J0
G1 Z[#50+20*#52]
G2 I-0.00025 J0
G1 Z[#50+19*#52]
G2 I-0.00025 J0
G1 Z[#50+18*#52]
G2 I-0.00025 J0
G1 Z[#50+17*#52]
G2 I-0.00025 J0
G1 Z[#50+16*#52]
G2 I-0.00025 J0
G1 Z[#50+15*#52]
G2 I-0.00025 J0
G1 Z[#50+14*#52]
G2 I-0.00025 J0
G1 Z[#50+13*#52]
G2 I-0.00025 J0
G1 Z[#50+12*#52]
G2 I-0.00025 J0
G1 Z[#50+11*#52]
G2 I-0.00025 J0
G1 Z[#50+10*#52]
G2 I-0.00025 J0
G1 Z[#50+9*#52]
G2 I-0.00025 J0
G1 Z[#50+8*#52]
G2 I-0.00025 J0
G1 Z[#50+7*#52]
G2 I-0.00025 J0
G1 Z[#50+6*#52]
G2 I-0.00025 J0
G1 Z[#50+5*#52]
G2 I-0.00025 J0
G1 Z[#50+4*#52]
G2 I-0.00025 J0
G1 Z[#50+3*#52]
G2 I-0.00025 J0
G1 Z[#50+2*#52]
G2 I-0.00025 J0
G1 Z[#50+1*#52]
G2 I-0.00025 J0
G1 Z[#50+0*#52]
G2 I-0.00025 J0
G0 Z0.19685

G0 X1.45955 Y1.06010
G1 Z[#50+30*#52]
G2 I-0.00025 J0
G1 Z[#50+29*#52]
G2 I-0.00025 J0
G1 Z[#50+28*#52]
G2 I-0.00025 J0
G1 Z[#50+27*#52]
G2 I-0.00025 J0
G1 Z[#50+26*#52]
G2 I-0.00025 J0
G1 Z[#50+25*#52]
G2 I-0.00025 J0
G1 Z[#50+24*#52]
G2 I-0.00025 J0
G1 Z[#50+23*#52]
G2 I-0.00025 J0
G1 Z[#50+22*#52]
G2 I-0.00025 J0
G1 Z[#50+21*#52]
G2 I-0.00025 J0
G1 Z[#50+20*#52]
G2 I-0.00025 J0
G1 Z[#50+19*#52]
G2 I-0.00025 J0
G1 Z[#50+18*#52]
G2 I-0.00025 J0
G1 Z[#50+17*#52]
G2 I-0.00025 J0
G1 Z[#50+16*#52]
G2 I-0.00025 J0
G1 Z[#50+15*#52]
G2 I-0.00025 J0
G1 Z[#50+14*#52]
G2 I-0.00025 J0
G1 Z[#50+13*#52]
G2 I-0.00025 J0
G1 Z[#50+12*#52]
G2 I-0.00025 J0
G1 Z[#50+11*#52]
G2 I-0.00025 J0
G1 Z[#50+10*#52]
G2 I-0.00025 J0
G1 Z[#50+9*#52]
G2 I-0.00025 J0
G1 Z[#50+8*#52]
G2 I-0.00025 J0
G1 Z[#50+7*#52]
G2 I-0.00025 J0
G1 Z[#50+6*#52]
G2 I-0.00025 J0
G1 Z[#50+5*#52]
G2 I-0.00025 J0
G1 Z[#50+4*#52]
G2 I-0.00025 J0
G1 Z[#50+3*#52]
G2 I-0.00025 J0
G1 Z[#50+2*#52]
G2 I-0.00025 J0
G1 Z[#50+1*#52]
G2 I-0.00025 J0
G1 Z[#50+0*#52]
G2 I-0.00025 J0
G0 Z0.19685

G0 X1.45955 Y0.96010
G1 Z[#50+30*#52]
G2 I-0.00025 J0
G1 Z[#50+29*#52]
G2 I-0.00025 J0
G1 Z[#50+28*#52]
G2 I-0.00025 J0
G1 Z[#50+27*#52]
G2 I-0.00025 J0
G1 Z[#50+26*#52]
G2 I-0.00025 J0
G1 Z[#50+25*#52]
G2 I-0.00025 J0
G1 Z[#50+24*#52]
G2 I-0.00025 J0
G1 Z[#50+23*#52]
G2 I-0.00025 J0
G1 Z[#50+22*#52]
G2 I-0.00025 J0
G1 Z[#50+21*#52]
G2 I-0.00025 J0
G1 Z[#50+20*#52]
G2 I-0.00025 J0
G1 Z[#50+19*#52]
G2 I-0.00025 J0
G1 Z[#50+18*#52]
G2 I-0.00025 J0
G1 Z[#50+17*#52]
G2 I-0.00025 J0
G1 Z[#50+16*#52]
G2 I-0.00025 J0
G1 Z[#50+15*#52]
G2 I-0.00025 J0
G1 Z[#50+14*#52]
G2 I-0.00025 J0
G1 Z[#50+13*#52]
G2 I-0.00025 J0
G1 Z[#50+12*#52]
G2 I-0.00025 J0
G1 Z[#50+11*#52]
G2 I-0.00025 J0
G1 Z[#50+10*#52]
G2 I-0.00025 J0
G1 Z[#50+9*#52]
G2 I-0.00025 J0
G1 Z[#50+8*#52]
G2 I-0.00025 J0
G1 Z[#50+7*#52]
G2 I-0.00025 J0
G1 Z[#50+6*#52]
G2 I-0.00025 J0
G1 Z[#50+5*#52]
G2 I-0.00025 J0
G1 Z[#50+4*#52]
G2 I-0.00025 J0
G1 Z[#50+3*#52]
G2 I-0.00025 J0
G1 Z[#50+2*#52]
G2 I-0.00025 J0
G1 Z[#50+1*#52]
G2 I-0.00025 J0
G1 Z[#50+0*#52]
G2 I-0.00025 J0
G0 Z0.19685

G0 X1.45955 Y0.86010
G1 Z[#50+30*#52]
G2 I-0.00025 J0
G1 Z[#50+29*#52]
G2 I-0.00025 J0
G1 Z[#50+28*#52]
G2 I-0.00025 J0
G1 Z[#50+27*#52]
G2 I-0.00025 J0
G1 Z[#50+26*#52]
G2 I-0.00025 J0
G1 Z[#50+25*#52]
G2 I-0.00025 J0
G1 Z[#50+24*#52]
G2 I-0.00025 J0
G1 Z[#50+23*#52]
G2 I-0.00025 J0
G1 Z[#50+22*#52]
G2 I-0.00025 J0
G1 Z[#50+21*#52]
G2 I-0.00025 J0
G1 Z[#50+20*#52]
G2 I-0.00025 J0
G1 Z[#50+19*#52]
G2 I-0.00025 J0
G1 Z[#50+18*#52]
G2 I-0.00025 J0
G1 Z[#50+17*#52]
G2 I-0.00025 J0
G1 Z[#50+16*#52]
G2 I-0.00025 J0
G1 Z[#50+15*#52]
G2 I-0.00025 J0
G1 Z[#50+14*#52]
G2 I-0.00025 J0
G1 Z[#50+13*#52]
G2 I-0.00025 J0
G1 Z[#50+12*#52]
G2 I-0.00025 J0
G1 Z[#50+11*#52]
G2 I-0.00025 J0
G1 Z[#50+10*#52]
G2 I-0.00025 J0
G1 Z[#50+9*#52]
G2 I-0.00025 J0
G1 Z[#50+8*#52]
G2 I-0.00025 J0
G1 Z[#50+7*#52]
G2 I-0.00025 J0
G1 Z[#50+6*#52]
G2 I-0.00025 J0
G1 Z[#50+5*#52]
G2 I-0.00025 J0
G1 Z[#50+4*#52]
G2 I-0.00025 J0
G1 Z[#50+3*#52]
G2 I-0.00025 J0
G1 Z[#50+2*#52]
G2 I-0.00025 J0
G1 Z[#50+1*#52]
G2 I-0.00025 J0
G1 Z[#50+0*#52]
G2 I-0.00025 J0
G0 Z0.19685

G0 X1.45955 Y0.76010
G1 Z[#50+30*#52]
G2 I-0.00025 J0
G1 Z[#50+29*#52]
G2 I-0.00025 J0
G1 Z[#50+28*#52]
G2 I-0.00025 J0
G1 Z[#50+27*#52]
G2 I-0.00025 J0
G1 Z[#50+26*#52]
G2 I-0.00025 J0
G1 Z[#50+25*#52]
G2 I-0.00025 J0
G1 Z[#50+24*#52]
G2 I-0.00025 J0
G1 Z[#50+23*#52]
G2 I-0.00025 J0
G1 Z[#50+22*#52]
G2 I-0.00025 J0
G1 Z[#50+21*#52]
G2 I-0.00025 J0
G1 Z[#50+20*#52]
G2 I-0.00025 J0
G1 Z[#50+19*#52]
G2 I-0.00025 J0
G1 Z[#50+18*#52]
G2 I-0.00025 J0
G1 Z[#50+17*#52]
G2 I-0.00025 J0
G1 Z[#50+16*#52]
G2 I-0.00025 J0
G1 Z[#50+15*#52]
G2 I-0.00025 J0
G1 Z[#50+14*#52]
G2 I-0.00025 J0
G1 Z[#50+13*#52]
G2 I-0.00025 J0
G1 Z[#50+12*#52]
G2 I-0.00025 J0
G1 Z[#50+11*#52]
G2 I-0.00025 J0
G1 Z[#50+10*#52]
G2 I-0.00025 J0
G1 Z[#50+9*#52]
G2 I-0.00025 J0
G1 Z[#50+8*#52]
G2 I-0.00025 J0
G1 Z[#50+7*#52]
G2 I-0.00025 J0
G1 Z[#50+6*#52]
G2 I-0.00025 J0
G1 Z[#50+5*#52]
G2 I-0.00025 J0
G1 Z[#50+4*#52]
G2 I-0.00025 J0
G1 Z[#50+3*#52]
G2 I-0.00025 J0
G1 Z[#50+2*#52]
G2 I-0.00025 J0
G1 Z[#50+1*#52]
G2 I-0.00025 J0
G1 Z[#50+0*#52]
G2 I-0.00025 J0
G0 Z0.19685

G0 X1.45955 Y0.66010
G1 Z[#50+30*#52]
G2 I-0.00025 J0
G1 Z[#50+29*#52]
G2 I-0.00025 J0
G1 Z[#50+28*#52]
G2 I-0.00025 J0
G1 Z[#50+27*#52]
G2 I-0.00025 J0
G1 Z[#50+26*#52]
G2 I-0.00025 J0
G1 Z[#50+25*#52]
G2 I-0.00025 J0
G1 Z[#50+24*#52]
G2 I-0.00025 J0
G1 Z[#50+23*#52]
G2 I-0.00025 J0
G1 Z[#50+22*#52]
G2 I-0.00025 J0
G1 Z[#50+21*#52]
G2 I-0.00025 J0
G1 Z[#50+20*#52]
G2 I-0.00025 J0
G1 Z[#50+19*#52]
G2 I-0.00025 J0
G1 Z[#50+18*#52]
G2 I-0.00025 J0
G1 Z[#50+17*#52]
G2 I-0.00025 J0
G1 Z[#50+16*#52]
G2 I-0.00025 J0
G1 Z[#50+15*#52]
G2 I-0.00025 J0
G1 Z[#50+14*#52]
G2 I-0.00025 J0
G1 Z[#50+13*#52]
G2 I-0.00025 J0
G1 Z[#50+12*#52]
G2 I-0.00025 J0
G1 Z[#50+11*#52]
G2 I-0.00025 J0
G1 Z[#50+10*#52]
G2 I-0.00025 J0
G1 Z[#50+9*#52]
G2 I-0.00025 J0
G1 Z[#50+8*#52]
G2 I-0.00025 J0
G1 Z[#50+7*#52]
G2 I-0.00025 J0
G1 Z[#50+6*#52]
G2 I-0.00025 J0
G1 Z[#50+5*#52]
G2 I-0.00025 J0
G1 Z[#50+4*#52]
G2 I-0.00025 J0
G1 Z[#50+3*#52]
G2 I-0.00025 J0
G1 Z[#50+2*#52]
G2 I-0.00025 J0
G1 Z[#50+1*#52]
G2 I-0.00025 J0
G1 Z[#50+0*#52]
G2 I-0.00025 J0
G0 Z0.19685

G0 X1.55955 Y0.76010
G1 Z[#50+30*#52]
G2 I-0.00025 J0
G1 Z[#50+29*#52]
G2 I-0.00025 J0
G1 Z[#50+28*#52]
G2 I-0.00025 J0
G1 Z[#50+27*#52]
G2 I-0.00025 J0
G1 Z[#50+26*#52]
G2 I-0.00025 J0
G1 Z[#50+25*#52]
G2 I-0.00025 J0
G1 Z[#50+24*#52]
G2 I-0.00025 J0
G1 Z[#50+23*#52]
G2 I-0.00025 J0
G1 Z[#50+22*#52]
G2 I-0.00025 J0
G1 Z[#50+21*#52]
G2 I-0.00025 J0
G1 Z[#50+20*#52]
G2 I-0.00025 J0
G1 Z[#50+19*#52]
G2 I-0.00025 J0
G1 Z[#50+18*#52]
G2 I-0.00025 J0
G1 Z[#50+17*#52]
G2 I-0.00025 J0
G1 Z[#50+16*#52]
G2 I-0.00025 J0
G1 Z[#50+15*#52]
G2 I-0.00025 J0
G1 Z[#50+14*#52]
G2 I-0.00025 J0
G1 Z[#50+13*#52]
G2 I-0.00025 J0
G1 Z[#50+12*#52]
G2 I-0.00025 J0
G1 Z[#50+11*#52]
G2 I-0.00025 J0
G1 Z[#50+10*#52]
G2 I-0.00025 J0
G1 Z[#50+9*#52]
G2 I-0.00025 J0
G1 Z[#50+8*#52]
G2 I-0.00025 J0
G1 Z[#50+7*#52]
G2 I-0.00025 J0
G1 Z[#50+6*#52]
G2 I-0.00025 J0
G1 Z[#50+5*#52]
G2 I-0.00025 J0
G1 Z[#50+4*#52]
G2 I-0.00025 J0
G1 Z[#50+3*#52]
G2 I-0.00025 J0
G1 Z[#50+2*#52]
G2 I-0.00025 J0
G1 Z[#50+1*#52]
G2 I-0.00025 J0
G1 Z[#50+0*#52]
G2 I-0.00025 J0
G0 Z0.19685

G0 X1.45955 Y0.56010
G1 Z[#50+30*#52]
G2 I-0.00025 J0
G1 Z[#50+29*#52]
G2 I-0.00025 J0
G1 Z[#50+28*#52]
G2 I-0.00025 J0
G1 Z[#50+27*#52]
G2 I-0.00025 J0
G1 Z[#50+26*#52]
G2 I-0.00025 J0
G1 Z[#50+25*#52]
G2 I-0.00025 J0
G1 Z[#50+24*#52]
G2 I-0.00025 J0
G1 Z[#50+23*#52]
G2 I-0.00025 J0
G1 Z[#50+22*#52]
G2 I-0.00025 J0
G1 Z[#50+21*#52]
G2 I-0.00025 J0
G1 Z[#50+20*#52]
G2 I-0.00025 J0
G1 Z[#50+19*#52]
G2 I-0.00025 J0
G1 Z[#50+18*#52]
G2 I-0.00025 J0
G1 Z[#50+17*#52]
G2 I-0.00025 J0
G1 Z[#50+16*#52]
G2 I-0.00025 J0
G1 Z[#50+15*#52]
G2 I-0.00025 J0
G1 Z[#50+14*#52]
G2 I-0.00025 J0
G1 Z[#50+13*#52]
G2 I-0.00025 J0
G1 Z[#50+12*#52]
G2 I-0.00025 J0
G1 Z[#50+11*#52]
G2 I-0.00025 J0
G1 Z[#50+10*#52]
G2 I-0.00025 J0
G1 Z[#50+9*#52]
G2 I-0.00025 J0
G1 Z[#50+8*#52]
G2 I-0.00025 J0
G1 Z[#50+7*#52]
G2 I-0.00025 J0
G1 Z[#50+6*#52]
G2 I-0.00025 J0
G1 Z[#50+5*#52]
G2 I-0.00025 J0
G1 Z[#50+4*#52]
G2 I-0.00025 J0
G1 Z[#50+3*#52]
G2 I-0.00025 J0
G1 Z[#50+2*#52]
G2 I-0.00025 J0
G1 Z[#50+1*#52]
G2 I-0.00025 J0
G1 Z[#50+0*#52]
G2 I-0.00025 J0
G0 Z0.19685

G0 X1.45955 Y0.46010
G1 Z[#50+30*#52]
G2 I-0.00025 J0
G1 Z[#50+29*#52]
G2 I-0.00025 J0
G1 Z[#50+28*#52]
G2 I-0.00025 J0
G1 Z[#50+27*#52]
G2 I-0.00025 J0
G1 Z[#50+26*#52]
G2 I-0.00025 J0
G1 Z[#50+25*#52]
G2 I-0.00025 J0
G1 Z[#50+24*#52]
G2 I-0.00025 J0
G1 Z[#50+23*#52]
G2 I-0.00025 J0
G1 Z[#50+22*#52]
G2 I-0.00025 J0
G1 Z[#50+21*#52]
G2 I-0.00025 J0
G1 Z[#50+20*#52]
G2 I-0.00025 J0
G1 Z[#50+19*#52]
G2 I-0.00025 J0
G1 Z[#50+18*#52]
G2 I-0.00025 J0
G1 Z[#50+17*#52]
G2 I-0.00025 J0
G1 Z[#50+16*#52]
G2 I-0.00025 J0
G1 Z[#50+15*#52]
G2 I-0.00025 J0
G1 Z[#50+14*#52]
G2 I-0.00025 J0
G1 Z[#50+13*#52]
G2 I-0.00025 J0
G1 Z[#50+12*#52]
G2 I-0.00025 J0
G1 Z[#50+11*#52]
G2 I-0.00025 J0
G1 Z[#50+10*#52]
G2 I-0.00025 J0
G1 Z[#50+9*#52]
G2 I-0.00025 J0
G1 Z[#50+8*#52]
G2 I-0.00025 J0
G1 Z[#50+7*#52]
G2 I-0.00025 J0
G1 Z[#50+6*#52]
G2 I-0.00025 J0
G1 Z[#50+5*#52]
G2 I-0.00025 J0
G1 Z[#50+4*#52]
G2 I-0.00025 J0
G1 Z[#50+3*#52]
G2 I-0.00025 J0
G1 Z[#50+2*#52]
G2 I-0.00025 J0
G1 Z[#50+1*#52]
G2 I-0.00025 J0
G1 Z[#50+0*#52]
G2 I-0.00025 J0
G0 Z0.19685

G0 X1.55955 Y0.46010
G1 Z[#50+30*#52]
G2 I-0.00025 J0
G1 Z[#50+29*#52]
G2 I-0.00025 J0
G1 Z[#50+28*#52]
G2 I-0.00025 J0
G1 Z[#50+27*#52]
G2 I-0.00025 J0
G1 Z[#50+26*#52]
G2 I-0.00025 J0
G1 Z[#50+25*#52]
G2 I-0.00025 J0
G1 Z[#50+24*#52]
G2 I-0.00025 J0
G1 Z[#50+23*#52]
G2 I-0.00025 J0
G1 Z[#50+22*#52]
G2 I-0.00025 J0
G1 Z[#50+21*#52]
G2 I-0.00025 J0
G1 Z[#50+20*#52]
G2 I-0.00025 J0
G1 Z[#50+19*#52]
G2 I-0.00025 J0
G1 Z[#50+18*#52]
G2 I-0.00025 J0
G1 Z[#50+17*#52]
G2 I-0.00025 J0
G1 Z[#50+16*#52]
G2 I-0.00025 J0
G1 Z[#50+15*#52]
G2 I-0.00025 J0
G1 Z[#50+14*#52]
G2 I-0.00025 J0
G1 Z[#50+13*#52]
G2 I-0.00025 J0
G1 Z[#50+12*#52]
G2 I-0.00025 J0
G1 Z[#50+11*#52]
G2 I-0.00025 J0
G1 Z[#50+10*#52]
G2 I-0.00025 J0
G1 Z[#50+9*#52]
G2 I-0.00025 J0
G1 Z[#50+8*#52]
G2 I-0.00025 J0
G1 Z[#50+7*#52]
G2 I-0.00025 J0
G1 Z[#50+6*#52]
G2 I-0.00025 J0
G1 Z[#50+5*#52]
G2 I-0.00025 J0
G1 Z[#50+4*#52]
G2 I-0.00025 J0
G1 Z[#50+3*#52]
G2 I-0.00025 J0
G1 Z[#50+2*#52]
G2 I-0.00025 J0
G1 Z[#50+1*#52]
G2 I-0.00025 J0
G1 Z[#50+0*#52]
G2 I-0.00025 J0
G0 Z0.19685

G0 X1.50955 Y0.31010
G1 Z[#50+30*#52]
G2 I-0.00025 J0
G1 Z[#50+29*#52]
G2 I-0.00025 J0
G1 Z[#50+28*#52]
G2 I-0.00025 J0
G1 Z[#50+27*#52]
G2 I-0.00025 J0
G1 Z[#50+26*#52]
G2 I-0.00025 J0
G1 Z[#50+25*#52]
G2 I-0.00025 J0
G1 Z[#50+24*#52]
G2 I-0.00025 J0
G1 Z[#50+23*#52]
G2 I-0.00025 J0
G1 Z[#50+22*#52]
G2 I-0.00025 J0
G1 Z[#50+21*#52]
G2 I-0.00025 J0
G1 Z[#50+20*#52]
G2 I-0.00025 J0
G1 Z[#50+19*#52]
G2 I-0.00025 J0
G1 Z[#50+18*#52]
G2 I-0.00025 J0
G1 Z[#50+17*#52]
G2 I-0.00025 J0
G1 Z[#50+16*#52]
G2 I-0.00025 J0
G1 Z[#50+15*#52]
G2 I-0.00025 J0
G1 Z[#50+14*#52]
G2 I-0.00025 J0
G1 Z[#50+13*#52]
G2 I-0.00025 J0
G1 Z[#50+12*#52]
G2 I-0.00025 J0
G1 Z[#50+11*#52]
G2 I-0.00025 J0
G1 Z[#50+10*#52]
G2 I-0.00025 J0
G1 Z[#50+9*#52]
G2 I-0.00025 J0
G1 Z[#50+8*#52]
G2 I-0.00025 J0
G1 Z[#50+7*#52]
G2 I-0.00025 J0
G1 Z[#50+6*#52]
G2 I-0.00025 J0
G1 Z[#50+5*#52]
G2 I-0.00025 J0
G1 Z[#50+4*#52]
G2 I-0.00025 J0
G1 Z[#50+3*#52]
G2 I-0.00025 J0
G1 Z[#50+2*#52]
G2 I-0.00025 J0
G1 Z[#50+1*#52]
G2 I-0.00025 J0
G1 Z[#50+0*#52]
G2 I-0.00025 J0
G0 Z0.19685

G0 X1.75955 Y0.46010
G1 Z[#50+30*#52]
G2 I-0.00025 J0
G1 Z[#50+29*#52]
G2 I-0.00025 J0
G1 Z[#50+28*#52]
G2 I-0.00025 J0
G1 Z[#50+27*#52]
G2 I-0.00025 J0
G1 Z[#50+26*#52]
G2 I-0.00025 J0
G1 Z[#50+25*#52]
G2 I-0.00025 J0
G1 Z[#50+24*#52]
G2 I-0.00025 J0
G1 Z[#50+23*#52]
G2 I-0.00025 J0
G1 Z[#50+22*#52]
G2 I-0.00025 J0
G1 Z[#50+21*#52]
G2 I-0.00025 J0
G1 Z[#50+20*#52]
G2 I-0.00025 J0
G1 Z[#50+19*#52]
G2 I-0.00025 J0
G1 Z[#50+18*#52]
G2 I-0.00025 J0
G1 Z[#50+17*#52]
G2 I-0.00025 J0
G1 Z[#50+16*#52]
G2 I-0.00025 J0
G1 Z[#50+15*#52]
G2 I-0.00025 J0
G1 Z[#50+14*#52]
G2 I-0.00025 J0
G1 Z[#50+13*#52]
G2 I-0.00025 J0
G1 Z[#50+12*#52]
G2 I-0.00025 J0
G1 Z[#50+11*#52]
G2 I-0.00025 J0
G1 Z[#50+10*#52]
G2 I-0.00025 J0
G1 Z[#50+9*#52]
G2 I-0.00025 J0
G1 Z[#50+8*#52]
G2 I-0.00025 J0
G1 Z[#50+7*#52]
G2 I-0.00025 J0
G1 Z[#50+6*#52]
G2 I-0.00025 J0
G1 Z[#50+5*#52]
G2 I-0.00025 J0
G1 Z[#50+4*#52]
G2 I-0.00025 J0
G1 Z[#50+3*#52]
G2 I-0.00025 J0
G1 Z[#50+2*#52]
G2 I-0.00025 J0
G1 Z[#50+1*#52]
G2 I-0.00025 J0
G1 Z[#50+0*#52]
G2 I-0.00025 J0
G0 Z0.19685

G0 X1.75955 Y0.56010
G1 Z[#50+30*#52]
G2 I-0.00025 J0
G1 Z[#50+29*#52]
G2 I-0.00025 J0
G1 Z[#50+28*#52]
G2 I-0.00025 J0
G1 Z[#50+27*#52]
G2 I-0.00025 J0
G1 Z[#50+26*#52]
G2 I-0.00025 J0
G1 Z[#50+25*#52]
G2 I-0.00025 J0
G1 Z[#50+24*#52]
G2 I-0.00025 J0
G1 Z[#50+23*#52]
G2 I-0.00025 J0
G1 Z[#50+22*#52]
G2 I-0.00025 J0
G1 Z[#50+21*#52]
G2 I-0.00025 J0
G1 Z[#50+20*#52]
G2 I-0.00025 J0
G1 Z[#50+19*#52]
G2 I-0.00025 J0
G1 Z[#50+18*#52]
G2 I-0.00025 J0
G1 Z[#50+17*#52]
G2 I-0.00025 J0
G1 Z[#50+16*#52]
G2 I-0.00025 J0
G1 Z[#50+15*#52]
G2 I-0.00025 J0
G1 Z[#50+14*#52]
G2 I-0.00025 J0
G1 Z[#50+13*#52]
G2 I-0.00025 J0
G1 Z[#50+12*#52]
G2 I-0.00025 J0
G1 Z[#50+11*#52]
G2 I-0.00025 J0
G1 Z[#50+10*#52]
G2 I-0.00025 J0
G1 Z[#50+9*#52]
G2 I-0.00025 J0
G1 Z[#50+8*#52]
G2 I-0.00025 J0
G1 Z[#50+7*#52]
G2 I-0.00025 J0
G1 Z[#50+6*#52]
G2 I-0.00025 J0
G1 Z[#50+5*#52]
G2 I-0.00025 J0
G1 Z[#50+4*#52]
G2 I-0.00025 J0
G1 Z[#50+3*#52]
G2 I-0.00025 J0
G1 Z[#50+2*#52]
G2 I-0.00025 J0
G1 Z[#50+1*#52]
G2 I-0.00025 J0
G1 Z[#50+0*#52]
G2 I-0.00025 J0
G0 Z0.19685

G0 X1.85955 Y0.46010
G1 Z[#50+30*#52]
G2 I-0.00025 J0
G1 Z[#50+29*#52]
G2 I-0.00025 J0
G1 Z[#50+28*#52]
G2 I-0.00025 J0
G1 Z[#50+27*#52]
G2 I-0.00025 J0
G1 Z[#50+26*#52]
G2 I-0.00025 J0
G1 Z[#50+25*#52]
G2 I-0.00025 J0
G1 Z[#50+24*#52]
G2 I-0.00025 J0
G1 Z[#50+23*#52]
G2 I-0.00025 J0
G1 Z[#50+22*#52]
G2 I-0.00025 J0
G1 Z[#50+21*#52]
G2 I-0.00025 J0
G1 Z[#50+20*#52]
G2 I-0.00025 J0
G1 Z[#50+19*#52]
G2 I-0.00025 J0
G1 Z[#50+18*#52]
G2 I-0.00025 J0
G1 Z[#50+17*#52]
G2 I-0.00025 J0
G1 Z[#50+16*#52]
G2 I-0.00025 J0
G1 Z[#50+15*#52]
G2 I-0.00025 J0
G1 Z[#50+14*#52]
G2 I-0.00025 J0
G1 Z[#50+13*#52]
G2 I-0.00025 J0
G1 Z[#50+12*#52]
G2 I-0.00025 J0
G1 Z[#50+11*#52]
G2 I-0.00025 J0
G1 Z[#50+10*#52]
G2 I-0.00025 J0
G1 Z[#50+9*#52]
G2 I-0.00025 J0
G1 Z[#50+8*#52]
G2 I-0.00025 J0
G1 Z[#50+7*#52]
G2 I-0.00025 J0
G1 Z[#50+6*#52]
G2 I-0.00025 J0
G1 Z[#50+5*#52]
G2 I-0.00025 J0
G1 Z[#50+4*#52]
G2 I-0.00025 J0
G1 Z[#50+3*#52]
G2 I-0.00025 J0
G1 Z[#50+2*#52]
G2 I-0.00025 J0
G1 Z[#50+1*#52]
G2 I-0.00025 J0
G1 Z[#50+0*#52]
G2 I-0.00025 J0
G0 Z0.19685

G0 X1.80955 Y0.31010
G1 Z[#50+30*#52]
G2 I-0.00025 J0
G1 Z[#50+29*#52]
G2 I-0.00025 J0
G1 Z[#50+28*#52]
G2 I-0.00025 J0
G1 Z[#50+27*#52]
G2 I-0.00025 J0
G1 Z[#50+26*#52]
G2 I-0.00025 J0
G1 Z[#50+25*#52]
G2 I-0.00025 J0
G1 Z[#50+24*#52]
G2 I-0.00025 J0
G1 Z[#50+23*#52]
G2 I-0.00025 J0
G1 Z[#50+22*#52]
G2 I-0.00025 J0
G1 Z[#50+21*#52]
G2 I-0.00025 J0
G1 Z[#50+20*#52]
G2 I-0.00025 J0
G1 Z[#50+19*#52]
G2 I-0.00025 J0
G1 Z[#50+18*#52]
G2 I-0.00025 J0
G1 Z[#50+17*#52]
G2 I-0.00025 J0
G1 Z[#50+16*#52]
G2 I-0.00025 J0
G1 Z[#50+15*#52]
G2 I-0.00025 J0
G1 Z[#50+14*#52]
G2 I-0.00025 J0
G1 Z[#50+13*#52]
G2 I-0.00025 J0
G1 Z[#50+12*#52]
G2 I-0.00025 J0
G1 Z[#50+11*#52]
G2 I-0.00025 J0
G1 Z[#50+10*#52]
G2 I-0.00025 J0
G1 Z[#50+9*#52]
G2 I-0.00025 J0
G1 Z[#50+8*#52]
G2 I-0.00025 J0
G1 Z[#50+7*#52]
G2 I-0.00025 J0
G1 Z[#50+6*#52]
G2 I-0.00025 J0
G1 Z[#50+5*#52]
G2 I-0.00025 J0
G1 Z[#50+4*#52]
G2 I-0.00025 J0
G1 Z[#50+3*#52]
G2 I-0.00025 J0
G1 Z[#50+2*#52]
G2 I-0.00025 J0
G1 Z[#50+1*#52]
G2 I-0.00025 J0
G1 Z[#50+0*#52]
G2 I-0.00025 J0
G0 Z0.19685

G0 X1.15955 Y0.46010
G1 Z[#50+30*#52]
G2 I-0.00025 J0
G1 Z[#50+29*#52]
G2 I-0.00025 J0
G1 Z[#50+28*#52]
G2 I-0.00025 J0
G1 Z[#50+27*#52]
G2 I-0.00025 J0
G1 Z[#50+26*#52]
G2 I-0.00025 J0
G1 Z[#50+25*#52]
G2 I-0.00025 J0
G1 Z[#50+24*#52]
G2 I-0.00025 J0
G1 Z[#50+23*#52]
G2 I-0.00025 J0
G1 Z[#50+22*#52]
G2 I-0.00025 J0
G1 Z[#50+21*#52]
G2 I-0.00025 J0
G1 Z[#50+20*#52]
G2 I-0.00025 J0
G1 Z[#50+19*#52]
G2 I-0.00025 J0
G1 Z[#50+18*#52]
G2 I-0.00025 J0
G1 Z[#50+17*#52]
G2 I-0.00025 J0
G1 Z[#50+16*#52]
G2 I-0.00025 J0
G1 Z[#50+15*#52]
G2 I-0.00025 J0
G1 Z[#50+14*#52]
G2 I-0.00025 J0
G1 Z[#50+13*#52]
G2 I-0.00025 J0
G1 Z[#50+12*#52]
G2 I-0.00025 J0
G1 Z[#50+11*#52]
G2 I-0.00025 J0
G1 Z[#50+10*#52]
G2 I-0.00025 J0
G1 Z[#50+9*#52]
G2 I-0.00025 J0
G1 Z[#50+8*#52]
G2 I-0.00025 J0
G1 Z[#50+7*#52]
G2 I-0.00025 J0
G1 Z[#50+6*#52]
G2 I-0.00025 J0
G1 Z[#50+5*#52]
G2 I-0.00025 J0
G1 Z[#50+4*#52]
G2 I-0.00025 J0
G1 Z[#50+3*#52]
G2 I-0.00025 J0
G1 Z[#50+2*#52]
G2 I-0.00025 J0
G1 Z[#50+1*#52]
G2 I-0.00025 J0
G1 Z[#50+0*#52]
G2 I-0.00025 J0
G0 Z0.19685

G0 X1.15955 Y0.56010
G1 Z[#50+30*#52]
G2 I-0.00025 J0
G1 Z[#50+29*#52]
G2 I-0.00025 J0
G1 Z[#50+28*#52]
G2 I-0.00025 J0
G1 Z[#50+27*#52]
G2 I-0.00025 J0
G1 Z[#50+26*#52]
G2 I-0.00025 J0
G1 Z[#50+25*#52]
G2 I-0.00025 J0
G1 Z[#50+24*#52]
G2 I-0.00025 J0
G1 Z[#50+23*#52]
G2 I-0.00025 J0
G1 Z[#50+22*#52]
G2 I-0.00025 J0
G1 Z[#50+21*#52]
G2 I-0.00025 J0
G1 Z[#50+20*#52]
G2 I-0.00025 J0
G1 Z[#50+19*#52]
G2 I-0.00025 J0
G1 Z[#50+18*#52]
G2 I-0.00025 J0
G1 Z[#50+17*#52]
G2 I-0.00025 J0
G1 Z[#50+16*#52]
G2 I-0.00025 J0
G1 Z[#50+15*#52]
G2 I-0.00025 J0
G1 Z[#50+14*#52]
G2 I-0.00025 J0
G1 Z[#50+13*#52]
G2 I-0.00025 J0
G1 Z[#50+12*#52]
G2 I-0.00025 J0
G1 Z[#50+11*#52]
G2 I-0.00025 J0
G1 Z[#50+10*#52]
G2 I-0.00025 J0
G1 Z[#50+9*#52]
G2 I-0.00025 J0
G1 Z[#50+8*#52]
G2 I-0.00025 J0
G1 Z[#50+7*#52]
G2 I-0.00025 J0
G1 Z[#50+6*#52]
G2 I-0.00025 J0
G1 Z[#50+5*#52]
G2 I-0.00025 J0
G1 Z[#50+4*#52]
G2 I-0.00025 J0
G1 Z[#50+3*#52]
G2 I-0.00025 J0
G1 Z[#50+2*#52]
G2 I-0.00025 J0
G1 Z[#50+1*#52]
G2 I-0.00025 J0
G1 Z[#50+0*#52]
G2 I-0.00025 J0
G0 Z0.19685

G0 X1.15955 Y0.66010
G1 Z[#50+30*#52]
G2 I-0.00025 J0
G1 Z[#50+29*#52]
G2 I-0.00025 J0
G1 Z[#50+28*#52]
G2 I-0.00025 J0
G1 Z[#50+27*#52]
G2 I-0.00025 J0
G1 Z[#50+26*#52]
G2 I-0.00025 J0
G1 Z[#50+25*#52]
G2 I-0.00025 J0
G1 Z[#50+24*#52]
G2 I-0.00025 J0
G1 Z[#50+23*#52]
G2 I-0.00025 J0
G1 Z[#50+22*#52]
G2 I-0.00025 J0
G1 Z[#50+21*#52]
G2 I-0.00025 J0
G1 Z[#50+20*#52]
G2 I-0.00025 J0
G1 Z[#50+19*#52]
G2 I-0.00025 J0
G1 Z[#50+18*#52]
G2 I-0.00025 J0
G1 Z[#50+17*#52]
G2 I-0.00025 J0
G1 Z[#50+16*#52]
G2 I-0.00025 J0
G1 Z[#50+15*#52]
G2 I-0.00025 J0
G1 Z[#50+14*#52]
G2 I-0.00025 J0
G1 Z[#50+13*#52]
G2 I-0.00025 J0
G1 Z[#50+12*#52]
G2 I-0.00025 J0
G1 Z[#50+11*#52]
G2 I-0.00025 J0
G1 Z[#50+10*#52]
G2 I-0.00025 J0
G1 Z[#50+9*#52]
G2 I-0.00025 J0
G1 Z[#50+8*#52]
G2 I-0.00025 J0
G1 Z[#50+7*#52]
G2 I-0.00025 J0
G1 Z[#50+6*#52]
G2 I-0.00025 J0
G1 Z[#50+5*#52]
G2 I-0.00025 J0
G1 Z[#50+4*#52]
G2 I-0.00025 J0
G1 Z[#50+3*#52]
G2 I-0.00025 J0
G1 Z[#50+2*#52]
G2 I-0.00025 J0
G1 Z[#50+1*#52]
G2 I-0.00025 J0
G1 Z[#50+0*#52]
G2 I-0.00025 J0
G0 Z0.19685

G0 X1.15955 Y0.76010
G1 Z[#50+30*#52]
G2 I-0.00025 J0
G1 Z[#50+29*#52]
G2 I-0.00025 J0
G1 Z[#50+28*#52]
G2 I-0.00025 J0
G1 Z[#50+27*#52]
G2 I-0.00025 J0
G1 Z[#50+26*#52]
G2 I-0.00025 J0
G1 Z[#50+25*#52]
G2 I-0.00025 J0
G1 Z[#50+24*#52]
G2 I-0.00025 J0
G1 Z[#50+23*#52]
G2 I-0.00025 J0
G1 Z[#50+22*#52]
G2 I-0.00025 J0
G1 Z[#50+21*#52]
G2 I-0.00025 J0
G1 Z[#50+20*#52]
G2 I-0.00025 J0
G1 Z[#50+19*#52]
G2 I-0.00025 J0
G1 Z[#50+18*#52]
G2 I-0.00025 J0
G1 Z[#50+17*#52]
G2 I-0.00025 J0
G1 Z[#50+16*#52]
G2 I-0.00025 J0
G1 Z[#50+15*#52]
G2 I-0.00025 J0
G1 Z[#50+14*#52]
G2 I-0.00025 J0
G1 Z[#50+13*#52]
G2 I-0.00025 J0
G1 Z[#50+12*#52]
G2 I-0.00025 J0
G1 Z[#50+11*#52]
G2 I-0.00025 J0
G1 Z[#50+10*#52]
G2 I-0.00025 J0
G1 Z[#50+9*#52]
G2 I-0.00025 J0
G1 Z[#50+8*#52]
G2 I-0.00025 J0
G1 Z[#50+7*#52]
G2 I-0.00025 J0
G1 Z[#50+6*#52]
G2 I-0.00025 J0
G1 Z[#50+5*#52]
G2 I-0.00025 J0
G1 Z[#50+4*#52]
G2 I-0.00025 J0
G1 Z[#50+3*#52]
G2 I-0.00025 J0
G1 Z[#50+2*#52]
G2 I-0.00025 J0
G1 Z[#50+1*#52]
G2 I-0.00025 J0
G1 Z[#50+0*#52]
G2 I-0.00025 J0
G0 Z0.19685

G0 X1.15955 Y0.86010
G1 Z[#50+30*#52]
G2 I-0.00025 J0
G1 Z[#50+29*#52]
G2 I-0.00025 J0
G1 Z[#50+28*#52]
G2 I-0.00025 J0
G1 Z[#50+27*#52]
G2 I-0.00025 J0
G1 Z[#50+26*#52]
G2 I-0.00025 J0
G1 Z[#50+25*#52]
G2 I-0.00025 J0
G1 Z[#50+24*#52]
G2 I-0.00025 J0
G1 Z[#50+23*#52]
G2 I-0.00025 J0
G1 Z[#50+22*#52]
G2 I-0.00025 J0
G1 Z[#50+21*#52]
G2 I-0.00025 J0
G1 Z[#50+20*#52]
G2 I-0.00025 J0
G1 Z[#50+19*#52]
G2 I-0.00025 J0
G1 Z[#50+18*#52]
G2 I-0.00025 J0
G1 Z[#50+17*#52]
G2 I-0.00025 J0
G1 Z[#50+16*#52]
G2 I-0.00025 J0
G1 Z[#50+15*#52]
G2 I-0.00025 J0
G1 Z[#50+14*#52]
G2 I-0.00025 J0
G1 Z[#50+13*#52]
G2 I-0.00025 J0
G1 Z[#50+12*#52]
G2 I-0.00025 J0
G1 Z[#50+11*#52]
G2 I-0.00025 J0
G1 Z[#50+10*#52]
G2 I-0.00025 J0
G1 Z[#50+9*#52]
G2 I-0.00025 J0
G1 Z[#50+8*#52]
G2 I-0.00025 J0
G1 Z[#50+7*#52]
G2 I-0.00025 J0
G1 Z[#50+6*#52]
G2 I-0.00025 J0
G1 Z[#50+5*#52]
G2 I-0.00025 J0
G1 Z[#50+4*#52]
G2 I-0.00025 J0
G1 Z[#50+3*#52]
G2 I-0.00025 J0
G1 Z[#50+2*#52]
G2 I-0.00025 J0
G1 Z[#50+1*#52]
G2 I-0.00025 J0
G1 Z[#50+0*#52]
G2 I-0.00025 J0
G0 Z0.19685

G0 X1.15955 Y0.96010
G1 Z[#50+30*#52]
G2 I-0.00025 J0
G1 Z[#50+29*#52]
G2 I-0.00025 J0
G1 Z[#50+28*#52]
G2 I-0.00025 J0
G1 Z[#50+27*#52]
G2 I-0.00025 J0
G1 Z[#50+26*#52]
G2 I-0.00025 J0
G1 Z[#50+25*#52]
G2 I-0.00025 J0
G1 Z[#50+24*#52]
G2 I-0.00025 J0
G1 Z[#50+23*#52]
G2 I-0.00025 J0
G1 Z[#50+22*#52]
G2 I-0.00025 J0
G1 Z[#50+21*#52]
G2 I-0.00025 J0
G1 Z[#50+20*#52]
G2 I-0.00025 J0
G1 Z[#50+19*#52]
G2 I-0.00025 J0
G1 Z[#50+18*#52]
G2 I-0.00025 J0
G1 Z[#50+17*#52]
G2 I-0.00025 J0
G1 Z[#50+16*#52]
G2 I-0.00025 J0
G1 Z[#50+15*#52]
G2 I-0.00025 J0
G1 Z[#50+14*#52]
G2 I-0.00025 J0
G1 Z[#50+13*#52]
G2 I-0.00025 J0
G1 Z[#50+12*#52]
G2 I-0.00025 J0
G1 Z[#50+11*#52]
G2 I-0.00025 J0
G1 Z[#50+10*#52]
G2 I-0.00025 J0
G1 Z[#50+9*#52]
G2 I-0.00025 J0
G1 Z[#50+8*#52]
G2 I-0.00025 J0
G1 Z[#50+7*#52]
G2 I-0.00025 J0
G1 Z[#50+6*#52]
G2 I-0.00025 J0
G1 Z[#50+5*#52]
G2 I-0.00025 J0
G1 Z[#50+4*#52]
G2 I-0.00025 J0
G1 Z[#50+3*#52]
G2 I-0.00025 J0
G1 Z[#50+2*#52]
G2 I-0.00025 J0
G1 Z[#50+1*#52]
G2 I-0.00025 J0
G1 Z[#50+0*#52]
G2 I-0.00025 J0
G0 Z0.19685

G0 X1.15955 Y1.06010
G1 Z[#50+30*#52]
G2 I-0.00025 J0
G1 Z[#50+29*#52]
G2 I-0.00025 J0
G1 Z[#50+28*#52]
G2 I-0.00025 J0
G1 Z[#50+27*#52]
G2 I-0.00025 J0
G1 Z[#50+26*#52]
G2 I-0.00025 J0
G1 Z[#50+25*#52]
G2 I-0.00025 J0
G1 Z[#50+24*#52]
G2 I-0.00025 J0
G1 Z[#50+23*#52]
G2 I-0.00025 J0
G1 Z[#50+22*#52]
G2 I-0.00025 J0
G1 Z[#50+21*#52]
G2 I-0.00025 J0
G1 Z[#50+20*#52]
G2 I-0.00025 J0
G1 Z[#50+19*#52]
G2 I-0.00025 J0
G1 Z[#50+18*#52]
G2 I-0.00025 J0
G1 Z[#50+17*#52]
G2 I-0.00025 J0
G1 Z[#50+16*#52]
G2 I-0.00025 J0
G1 Z[#50+15*#52]
G2 I-0.00025 J0
G1 Z[#50+14*#52]
G2 I-0.00025 J0
G1 Z[#50+13*#52]
G2 I-0.00025 J0
G1 Z[#50+12*#52]
G2 I-0.00025 J0
G1 Z[#50+11*#52]
G2 I-0.00025 J0
G1 Z[#50+10*#52]
G2 I-0.00025 J0
G1 Z[#50+9*#52]
G2 I-0.00025 J0
G1 Z[#50+8*#52]
G2 I-0.00025 J0
G1 Z[#50+7*#52]
G2 I-0.00025 J0
G1 Z[#50+6*#52]
G2 I-0.00025 J0
G1 Z[#50+5*#52]
G2 I-0.00025 J0
G1 Z[#50+4*#52]
G2 I-0.00025 J0
G1 Z[#50+3*#52]
G2 I-0.00025 J0
G1 Z[#50+2*#52]
G2 I-0.00025 J0
G1 Z[#50+1*#52]
G2 I-0.00025 J0
G1 Z[#50+0*#52]
G2 I-0.00025 J0
G0 Z0.19685

G0 X1.15955 Y1.16010
G1 Z[#50+30*#52]
G2 I-0.00025 J0
G1 Z[#50+29*#52]
G2 I-0.00025 J0
G1 Z[#50+28*#52]
G2 I-0.00025 J0
G1 Z[#50+27*#52]
G2 I-0.00025 J0
G1 Z[#50+26*#52]
G2 I-0.00025 J0
G1 Z[#50+25*#52]
G2 I-0.00025 J0
G1 Z[#50+24*#52]
G2 I-0.00025 J0
G1 Z[#50+23*#52]
G2 I-0.00025 J0
G1 Z[#50+22*#52]
G2 I-0.00025 J0
G1 Z[#50+21*#52]
G2 I-0.00025 J0
G1 Z[#50+20*#52]
G2 I-0.00025 J0
G1 Z[#50+19*#52]
G2 I-0.00025 J0
G1 Z[#50+18*#52]
G2 I-0.00025 J0
G1 Z[#50+17*#52]
G2 I-0.00025 J0
G1 Z[#50+16*#52]
G2 I-0.00025 J0
G1 Z[#50+15*#52]
G2 I-0.00025 J0
G1 Z[#50+14*#52]
G2 I-0.00025 J0
G1 Z[#50+13*#52]
G2 I-0.00025 J0
G1 Z[#50+12*#52]
G2 I-0.00025 J0
G1 Z[#50+11*#52]
G2 I-0.00025 J0
G1 Z[#50+10*#52]
G2 I-0.00025 J0
G1 Z[#50+9*#52]
G2 I-0.00025 J0
G1 Z[#50+8*#52]
G2 I-0.00025 J0
G1 Z[#50+7*#52]
G2 I-0.00025 J0
G1 Z[#50+6*#52]
G2 I-0.00025 J0
G1 Z[#50+5*#52]
G2 I-0.00025 J0
G1 Z[#50+4*#52]
G2 I-0.00025 J0
G1 Z[#50+3*#52]
G2 I-0.00025 J0
G1 Z[#50+2*#52]
G2 I-0.00025 J0
G1 Z[#50+1*#52]
G2 I-0.00025 J0
G1 Z[#50+0*#52]
G2 I-0.00025 J0
G0 Z0.19685

G0 X1.15955 Y1.26010
G1 Z[#50+30*#52]
G2 I-0.00025 J0
G1 Z[#50+29*#52]
G2 I-0.00025 J0
G1 Z[#50+28*#52]
G2 I-0.00025 J0
G1 Z[#50+27*#52]
G2 I-0.00025 J0
G1 Z[#50+26*#52]
G2 I-0.00025 J0
G1 Z[#50+25*#52]
G2 I-0.00025 J0
G1 Z[#50+24*#52]
G2 I-0.00025 J0
G1 Z[#50+23*#52]
G2 I-0.00025 J0
G1 Z[#50+22*#52]
G2 I-0.00025 J0
G1 Z[#50+21*#52]
G2 I-0.00025 J0
G1 Z[#50+20*#52]
G2 I-0.00025 J0
G1 Z[#50+19*#52]
G2 I-0.00025 J0
G1 Z[#50+18*#52]
G2 I-0.00025 J0
G1 Z[#50+17*#52]
G2 I-0.00025 J0
G1 Z[#50+16*#52]
G2 I-0.00025 J0
G1 Z[#50+15*#52]
G2 I-0.00025 J0
G1 Z[#50+14*#52]
G2 I-0.00025 J0
G1 Z[#50+13*#52]
G2 I-0.00025 J0
G1 Z[#50+12*#52]
G2 I-0.00025 J0
G1 Z[#50+11*#52]
G2 I-0.00025 J0
G1 Z[#50+10*#52]
G2 I-0.00025 J0
G1 Z[#50+9*#52]
G2 I-0.00025 J0
G1 Z[#50+8*#52]
G2 I-0.00025 J0
G1 Z[#50+7*#52]
G2 I-0.00025 J0
G1 Z[#50+6*#52]
G2 I-0.00025 J0
G1 Z[#50+5*#52]
G2 I-0.00025 J0
G1 Z[#50+4*#52]
G2 I-0.00025 J0
G1 Z[#50+3*#52]
G2 I-0.00025 J0
G1 Z[#50+2*#52]
G2 I-0.00025 J0
G1 Z[#50+1*#52]
G2 I-0.00025 J0
G1 Z[#50+0*#52]
G2 I-0.00025 J0
G0 Z0.19685

G0 X1.15955 Y1.36010
G1 Z[#50+30*#52]
G2 I-0.00025 J0
G1 Z[#50+29*#52]
G2 I-0.00025 J0
G1 Z[#50+28*#52]
G2 I-0.00025 J0
G1 Z[#50+27*#52]
G2 I-0.00025 J0
G1 Z[#50+26*#52]
G2 I-0.00025 J0
G1 Z[#50+25*#52]
G2 I-0.00025 J0
G1 Z[#50+24*#52]
G2 I-0.00025 J0
G1 Z[#50+23*#52]
G2 I-0.00025 J0
G1 Z[#50+22*#52]
G2 I-0.00025 J0
G1 Z[#50+21*#52]
G2 I-0.00025 J0
G1 Z[#50+20*#52]
G2 I-0.00025 J0
G1 Z[#50+19*#52]
G2 I-0.00025 J0
G1 Z[#50+18*#52]
G2 I-0.00025 J0
G1 Z[#50+17*#52]
G2 I-0.00025 J0
G1 Z[#50+16*#52]
G2 I-0.00025 J0
G1 Z[#50+15*#52]
G2 I-0.00025 J0
G1 Z[#50+14*#52]
G2 I-0.00025 J0
G1 Z[#50+13*#52]
G2 I-0.00025 J0
G1 Z[#50+12*#52]
G2 I-0.00025 J0
G1 Z[#50+11*#52]
G2 I-0.00025 J0
G1 Z[#50+10*#52]
G2 I-0.00025 J0
G1 Z[#50+9*#52]
G2 I-0.00025 J0
G1 Z[#50+8*#52]
G2 I-0.00025 J0
G1 Z[#50+7*#52]
G2 I-0.00025 J0
G1 Z[#50+6*#52]
G2 I-0.00025 J0
G1 Z[#50+5*#52]
G2 I-0.00025 J0
G1 Z[#50+4*#52]
G2 I-0.00025 J0
G1 Z[#50+3*#52]
G2 I-0.00025 J0
G1 Z[#50+2*#52]
G2 I-0.00025 J0
G1 Z[#50+1*#52]
G2 I-0.00025 J0
G1 Z[#50+0*#52]
G2 I-0.00025 J0
G0 Z0.19685

G0 X1.15955 Y1.46010
G1 Z[#50+30*#52]
G2 I-0.00025 J0
G1 Z[#50+29*#52]
G2 I-0.00025 J0
G1 Z[#50+28*#52]
G2 I-0.00025 J0
G1 Z[#50+27*#52]
G2 I-0.00025 J0
G1 Z[#50+26*#52]
G2 I-0.00025 J0
G1 Z[#50+25*#52]
G2 I-0.00025 J0
G1 Z[#50+24*#52]
G2 I-0.00025 J0
G1 Z[#50+23*#52]
G2 I-0.00025 J0
G1 Z[#50+22*#52]
G2 I-0.00025 J0
G1 Z[#50+21*#52]
G2 I-0.00025 J0
G1 Z[#50+20*#52]
G2 I-0.00025 J0
G1 Z[#50+19*#52]
G2 I-0.00025 J0
G1 Z[#50+18*#52]
G2 I-0.00025 J0
G1 Z[#50+17*#52]
G2 I-0.00025 J0
G1 Z[#50+16*#52]
G2 I-0.00025 J0
G1 Z[#50+15*#52]
G2 I-0.00025 J0
G1 Z[#50+14*#52]
G2 I-0.00025 J0
G1 Z[#50+13*#52]
G2 I-0.00025 J0
G1 Z[#50+12*#52]
G2 I-0.00025 J0
G1 Z[#50+11*#52]
G2 I-0.00025 J0
G1 Z[#50+10*#52]
G2 I-0.00025 J0
G1 Z[#50+9*#52]
G2 I-0.00025 J0
G1 Z[#50+8*#52]
G2 I-0.00025 J0
G1 Z[#50+7*#52]
G2 I-0.00025 J0
G1 Z[#50+6*#52]
G2 I-0.00025 J0
G1 Z[#50+5*#52]
G2 I-0.00025 J0
G1 Z[#50+4*#52]
G2 I-0.00025 J0
G1 Z[#50+3*#52]
G2 I-0.00025 J0
G1 Z[#50+2*#52]
G2 I-0.00025 J0
G1 Z[#50+1*#52]
G2 I-0.00025 J0
G1 Z[#50+0*#52]
G2 I-0.00025 J0
G0 Z0.19685

G0 X1.15955 Y1.56010
G1 Z[#50+30*#52]
G2 I-0.00025 J0
G1 Z[#50+29*#52]
G2 I-0.00025 J0
G1 Z[#50+28*#52]
G2 I-0.00025 J0
G1 Z[#50+27*#52]
G2 I-0.00025 J0
G1 Z[#50+26*#52]
G2 I-0.00025 J0
G1 Z[#50+25*#52]
G2 I-0.00025 J0
G1 Z[#50+24*#52]
G2 I-0.00025 J0
G1 Z[#50+23*#52]
G2 I-0.00025 J0
G1 Z[#50+22*#52]
G2 I-0.00025 J0
G1 Z[#50+21*#52]
G2 I-0.00025 J0
G1 Z[#50+20*#52]
G2 I-0.00025 J0
G1 Z[#50+19*#52]
G2 I-0.00025 J0
G1 Z[#50+18*#52]
G2 I-0.00025 J0
G1 Z[#50+17*#52]
G2 I-0.00025 J0
G1 Z[#50+16*#52]
G2 I-0.00025 J0
G1 Z[#50+15*#52]
G2 I-0.00025 J0
G1 Z[#50+14*#52]
G2 I-0.00025 J0
G1 Z[#50+13*#52]
G2 I-0.00025 J0
G1 Z[#50+12*#52]
G2 I-0.00025 J0
G1 Z[#50+11*#52]
G2 I-0.00025 J0
G1 Z[#50+10*#52]
G2 I-0.00025 J0
G1 Z[#50+9*#52]
G2 I-0.00025 J0
G1 Z[#50+8*#52]
G2 I-0.00025 J0
G1 Z[#50+7*#52]
G2 I-0.00025 J0
G1 Z[#50+6*#52]
G2 I-0.00025 J0
G1 Z[#50+5*#52]
G2 I-0.00025 J0
G1 Z[#50+4*#52]
G2 I-0.00025 J0
G1 Z[#50+3*#52]
G2 I-0.00025 J0
G1 Z[#50+2*#52]
G2 I-0.00025 J0
G1 Z[#50+1*#52]
G2 I-0.00025 J0
G1 Z[#50+0*#52]
G2 I-0.00025 J0
G0 Z0.19685

G0 X1.15955 Y1.66010
G1 Z[#50+30*#52]
G2 I-0.00025 J0
G1 Z[#50+29*#52]
G2 I-0.00025 J0
G1 Z[#50+28*#52]
G2 I-0.00025 J0
G1 Z[#50+27*#52]
G2 I-0.00025 J0
G1 Z[#50+26*#52]
G2 I-0.00025 J0
G1 Z[#50+25*#52]
G2 I-0.00025 J0
G1 Z[#50+24*#52]
G2 I-0.00025 J0
G1 Z[#50+23*#52]
G2 I-0.00025 J0
G1 Z[#50+22*#52]
G2 I-0.00025 J0
G1 Z[#50+21*#52]
G2 I-0.00025 J0
G1 Z[#50+20*#52]
G2 I-0.00025 J0
G1 Z[#50+19*#52]
G2 I-0.00025 J0
G1 Z[#50+18*#52]
G2 I-0.00025 J0
G1 Z[#50+17*#52]
G2 I-0.00025 J0
G1 Z[#50+16*#52]
G2 I-0.00025 J0
G1 Z[#50+15*#52]
G2 I-0.00025 J0
G1 Z[#50+14*#52]
G2 I-0.00025 J0
G1 Z[#50+13*#52]
G2 I-0.00025 J0
G1 Z[#50+12*#52]
G2 I-0.00025 J0
G1 Z[#50+11*#52]
G2 I-0.00025 J0
G1 Z[#50+10*#52]
G2 I-0.00025 J0
G1 Z[#50+9*#52]
G2 I-0.00025 J0
G1 Z[#50+8*#52]
G2 I-0.00025 J0
G1 Z[#50+7*#52]
G2 I-0.00025 J0
G1 Z[#50+6*#52]
G2 I-0.00025 J0
G1 Z[#50+5*#52]
G2 I-0.00025 J0
G1 Z[#50+4*#52]
G2 I-0.00025 J0
G1 Z[#50+3*#52]
G2 I-0.00025 J0
G1 Z[#50+2*#52]
G2 I-0.00025 J0
G1 Z[#50+1*#52]
G2 I-0.00025 J0
G1 Z[#50+0*#52]
G2 I-0.00025 J0
G0 Z0.19685

G0 X1.15955 Y1.76010
G1 Z[#50+30*#52]
G2 I-0.00025 J0
G1 Z[#50+29*#52]
G2 I-0.00025 J0
G1 Z[#50+28*#52]
G2 I-0.00025 J0
G1 Z[#50+27*#52]
G2 I-0.00025 J0
G1 Z[#50+26*#52]
G2 I-0.00025 J0
G1 Z[#50+25*#52]
G2 I-0.00025 J0
G1 Z[#50+24*#52]
G2 I-0.00025 J0
G1 Z[#50+23*#52]
G2 I-0.00025 J0
G1 Z[#50+22*#52]
G2 I-0.00025 J0
G1 Z[#50+21*#52]
G2 I-0.00025 J0
G1 Z[#50+20*#52]
G2 I-0.00025 J0
G1 Z[#50+19*#52]
G2 I-0.00025 J0
G1 Z[#50+18*#52]
G2 I-0.00025 J0
G1 Z[#50+17*#52]
G2 I-0.00025 J0
G1 Z[#50+16*#52]
G2 I-0.00025 J0
G1 Z[#50+15*#52]
G2 I-0.00025 J0
G1 Z[#50+14*#52]
G2 I-0.00025 J0
G1 Z[#50+13*#52]
G2 I-0.00025 J0
G1 Z[#50+12*#52]
G2 I-0.00025 J0
G1 Z[#50+11*#52]
G2 I-0.00025 J0
G1 Z[#50+10*#52]
G2 I-0.00025 J0
G1 Z[#50+9*#52]
G2 I-0.00025 J0
G1 Z[#50+8*#52]
G2 I-0.00025 J0
G1 Z[#50+7*#52]
G2 I-0.00025 J0
G1 Z[#50+6*#52]
G2 I-0.00025 J0
G1 Z[#50+5*#52]
G2 I-0.00025 J0
G1 Z[#50+4*#52]
G2 I-0.00025 J0
G1 Z[#50+3*#52]
G2 I-0.00025 J0
G1 Z[#50+2*#52]
G2 I-0.00025 J0
G1 Z[#50+1*#52]
G2 I-0.00025 J0
G1 Z[#50+0*#52]
G2 I-0.00025 J0
G0 Z0.19685

G0 X1.10955 Y2.16010
G1 Z[#50+30*#52]
G2 I-0.00025 J0
G1 Z[#50+29*#52]
G2 I-0.00025 J0
G1 Z[#50+28*#52]
G2 I-0.00025 J0
G1 Z[#50+27*#52]
G2 I-0.00025 J0
G1 Z[#50+26*#52]
G2 I-0.00025 J0
G1 Z[#50+25*#52]
G2 I-0.00025 J0
G1 Z[#50+24*#52]
G2 I-0.00025 J0
G1 Z[#50+23*#52]
G2 I-0.00025 J0
G1 Z[#50+22*#52]
G2 I-0.00025 J0
G1 Z[#50+21*#52]
G2 I-0.00025 J0
G1 Z[#50+20*#52]
G2 I-0.00025 J0
G1 Z[#50+19*#52]
G2 I-0.00025 J0
G1 Z[#50+18*#52]
G2 I-0.00025 J0
G1 Z[#50+17*#52]
G2 I-0.00025 J0
G1 Z[#50+16*#52]
G2 I-0.00025 J0
G1 Z[#50+15*#52]
G2 I-0.00025 J0
G1 Z[#50+14*#52]
G2 I-0.00025 J0
G1 Z[#50+13*#52]
G2 I-0.00025 J0
G1 Z[#50+12*#52]
G2 I-0.00025 J0
G1 Z[#50+11*#52]
G2 I-0.00025 J0
G1 Z[#50+10*#52]
G2 I-0.00025 J0
G1 Z[#50+9*#52]
G2 I-0.00025 J0
G1 Z[#50+8*#52]
G2 I-0.00025 J0
G1 Z[#50+7*#52]
G2 I-0.00025 J0
G1 Z[#50+6*#52]
G2 I-0.00025 J0
G1 Z[#50+5*#52]
G2 I-0.00025 J0
G1 Z[#50+4*#52]
G2 I-0.00025 J0
G1 Z[#50+3*#52]
G2 I-0.00025 J0
G1 Z[#50+2*#52]
G2 I-0.00025 J0
G1 Z[#50+1*#52]
G2 I-0.00025 J0
G1 Z[#50+0*#52]
G2 I-0.00025 J0
G0 Z0.19685

G0 X0.80955 Y2.16010
G1 Z[#50+30*#52]
G2 I-0.00025 J0
G1 Z[#50+29*#52]
G2 I-0.00025 J0
G1 Z[#50+28*#52]
G2 I-0.00025 J0
G1 Z[#50+27*#52]
G2 I-0.00025 J0
G1 Z[#50+26*#52]
G2 I-0.00025 J0
G1 Z[#50+25*#52]
G2 I-0.00025 J0
G1 Z[#50+24*#52]
G2 I-0.00025 J0
G1 Z[#50+23*#52]
G2 I-0.00025 J0
G1 Z[#50+22*#52]
G2 I-0.00025 J0
G1 Z[#50+21*#52]
G2 I-0.00025 J0
G1 Z[#50+20*#52]
G2 I-0.00025 J0
G1 Z[#50+19*#52]
G2 I-0.00025 J0
G1 Z[#50+18*#52]
G2 I-0.00025 J0
G1 Z[#50+17*#52]
G2 I-0.00025 J0
G1 Z[#50+16*#52]
G2 I-0.00025 J0
G1 Z[#50+15*#52]
G2 I-0.00025 J0
G1 Z[#50+14*#52]
G2 I-0.00025 J0
G1 Z[#50+13*#52]
G2 I-0.00025 J0
G1 Z[#50+12*#52]
G2 I-0.00025 J0
G1 Z[#50+11*#52]
G2 I-0.00025 J0
G1 Z[#50+10*#52]
G2 I-0.00025 J0
G1 Z[#50+9*#52]
G2 I-0.00025 J0
G1 Z[#50+8*#52]
G2 I-0.00025 J0
G1 Z[#50+7*#52]
G2 I-0.00025 J0
G1 Z[#50+6*#52]
G2 I-0.00025 J0
G1 Z[#50+5*#52]
G2 I-0.00025 J0
G1 Z[#50+4*#52]
G2 I-0.00025 J0
G1 Z[#50+3*#52]
G2 I-0.00025 J0
G1 Z[#50+2*#52]
G2 I-0.00025 J0
G1 Z[#50+1*#52]
G2 I-0.00025 J0
G1 Z[#50+0*#52]
G2 I-0.00025 J0
G0 Z0.19685

G0 X1.60955 Y1.66010
G1 Z[#50+30*#52]
G2 I-0.00025 J0
G1 Z[#50+29*#52]
G2 I-0.00025 J0
G1 Z[#50+28*#52]
G2 I-0.00025 J0
G1 Z[#50+27*#52]
G2 I-0.00025 J0
G1 Z[#50+26*#52]
G2 I-0.00025 J0
G1 Z[#50+25*#52]
G2 I-0.00025 J0
G1 Z[#50+24*#52]
G2 I-0.00025 J0
G1 Z[#50+23*#52]
G2 I-0.00025 J0
G1 Z[#50+22*#52]
G2 I-0.00025 J0
G1 Z[#50+21*#52]
G2 I-0.00025 J0
G1 Z[#50+20*#52]
G2 I-0.00025 J0
G1 Z[#50+19*#52]
G2 I-0.00025 J0
G1 Z[#50+18*#52]
G2 I-0.00025 J0
G1 Z[#50+17*#52]
G2 I-0.00025 J0
G1 Z[#50+16*#52]
G2 I-0.00025 J0
G1 Z[#50+15*#52]
G2 I-0.00025 J0
G1 Z[#50+14*#52]
G2 I-0.00025 J0
G1 Z[#50+13*#52]
G2 I-0.00025 J0
G1 Z[#50+12*#52]
G2 I-0.00025 J0
G1 Z[#50+11*#52]
G2 I-0.00025 J0
G1 Z[#50+10*#52]
G2 I-0.00025 J0
G1 Z[#50+9*#52]
G2 I-0.00025 J0
G1 Z[#50+8*#52]
G2 I-0.00025 J0
G1 Z[#50+7*#52]
G2 I-0.00025 J0
G1 Z[#50+6*#52]
G2 I-0.00025 J0
G1 Z[#50+5*#52]
G2 I-0.00025 J0
G1 Z[#50+4*#52]
G2 I-0.00025 J0
G1 Z[#50+3*#52]
G2 I-0.00025 J0
G1 Z[#50+2*#52]
G2 I-0.00025 J0
G1 Z[#50+1*#52]
G2 I-0.00025 J0
G1 Z[#50+0*#52]
G2 I-0.00025 J0
G0 Z0.19685

G0 X1.60955 Y1.36010
G1 Z[#50+30*#52]
G2 I-0.00025 J0
G1 Z[#50+29*#52]
G2 I-0.00025 J0
G1 Z[#50+28*#52]
G2 I-0.00025 J0
G1 Z[#50+27*#52]
G2 I-0.00025 J0
G1 Z[#50+26*#52]
G2 I-0.00025 J0
G1 Z[#50+25*#52]
G2 I-0.00025 J0
G1 Z[#50+24*#52]
G2 I-0.00025 J0
G1 Z[#50+23*#52]
G2 I-0.00025 J0
G1 Z[#50+22*#52]
G2 I-0.00025 J0
G1 Z[#50+21*#52]
G2 I-0.00025 J0
G1 Z[#50+20*#52]
G2 I-0.00025 J0
G1 Z[#50+19*#52]
G2 I-0.00025 J0
G1 Z[#50+18*#52]
G2 I-0.00025 J0
G1 Z[#50+17*#52]
G2 I-0.00025 J0
G1 Z[#50+16*#52]
G2 I-0.00025 J0
G1 Z[#50+15*#52]
G2 I-0.00025 J0
G1 Z[#50+14*#52]
G2 I-0.00025 J0
G1 Z[#50+13*#52]
G2 I-0.00025 J0
G1 Z[#50+12*#52]
G2 I-0.00025 J0
G1 Z[#50+11*#52]
G2 I-0.00025 J0
G1 Z[#50+10*#52]
G2 I-0.00025 J0
G1 Z[#50+9*#52]
G2 I-0.00025 J0
G1 Z[#50+8*#52]
G2 I-0.00025 J0
G1 Z[#50+7*#52]
G2 I-0.00025 J0
G1 Z[#50+6*#52]
G2 I-0.00025 J0
G1 Z[#50+5*#52]
G2 I-0.00025 J0
G1 Z[#50+4*#52]
G2 I-0.00025 J0
G1 Z[#50+3*#52]
G2 I-0.00025 J0
G1 Z[#50+2*#52]
G2 I-0.00025 J0
G1 Z[#50+1*#52]
G2 I-0.00025 J0
G1 Z[#50+0*#52]
G2 I-0.00025 J0
G0 Z0.19685

G0 X0.70955 Y0.71010
G1 Z[#50+30*#52]
G2 I-0.00025 J0
G1 Z[#50+29*#52]
G2 I-0.00025 J0
G1 Z[#50+28*#52]
G2 I-0.00025 J0
G1 Z[#50+27*#52]
G2 I-0.00025 J0
G1 Z[#50+26*#52]
G2 I-0.00025 J0
G1 Z[#50+25*#52]
G2 I-0.00025 J0
G1 Z[#50+24*#52]
G2 I-0.00025 J0
G1 Z[#50+23*#52]
G2 I-0.00025 J0
G1 Z[#50+22*#52]
G2 I-0.00025 J0
G1 Z[#50+21*#52]
G2 I-0.00025 J0
G1 Z[#50+20*#52]
G2 I-0.00025 J0
G1 Z[#50+19*#52]
G2 I-0.00025 J0
G1 Z[#50+18*#52]
G2 I-0.00025 J0
G1 Z[#50+17*#52]
G2 I-0.00025 J0
G1 Z[#50+16*#52]
G2 I-0.00025 J0
G1 Z[#50+15*#52]
G2 I-0.00025 J0
G1 Z[#50+14*#52]
G2 I-0.00025 J0
G1 Z[#50+13*#52]
G2 I-0.00025 J0
G1 Z[#50+12*#52]
G2 I-0.00025 J0
G1 Z[#50+11*#52]
G2 I-0.00025 J0
G1 Z[#50+10*#52]
G2 I-0.00025 J0
G1 Z[#50+9*#52]
G2 I-0.00025 J0
G1 Z[#50+8*#52]
G2 I-0.00025 J0
G1 Z[#50+7*#52]
G2 I-0.00025 J0
G1 Z[#50+6*#52]
G2 I-0.00025 J0
G1 Z[#50+5*#52]
G2 I-0.00025 J0
G1 Z[#50+4*#52]
G2 I-0.00025 J0
G1 Z[#50+3*#52]
G2 I-0.00025 J0
G1 Z[#50+2*#52]
G2 I-0.00025 J0
G1 Z[#50+1*#52]
G2 I-0.00025 J0
G1 Z[#50+0*#52]
G2 I-0.00025 J0
G0 Z0.19685

G0 X0.60955 Y0.71010
G1 Z[#50+30*#52]
G2 I-0.00025 J0
G1 Z[#50+29*#52]
G2 I-0.00025 J0
G1 Z[#50+28*#52]
G2 I-0.00025 J0
G1 Z[#50+27*#52]
G2 I-0.00025 J0
G1 Z[#50+26*#52]
G2 I-0.00025 J0
G1 Z[#50+25*#52]
G2 I-0.00025 J0
G1 Z[#50+24*#52]
G2 I-0.00025 J0
G1 Z[#50+23*#52]
G2 I-0.00025 J0
G1 Z[#50+22*#52]
G2 I-0.00025 J0
G1 Z[#50+21*#52]
G2 I-0.00025 J0
G1 Z[#50+20*#52]
G2 I-0.00025 J0
G1 Z[#50+19*#52]
G2 I-0.00025 J0
G1 Z[#50+18*#52]
G2 I-0.00025 J0
G1 Z[#50+17*#52]
G2 I-0.00025 J0
G1 Z[#50+16*#52]
G2 I-0.00025 J0
G1 Z[#50+15*#52]
G2 I-0.00025 J0
G1 Z[#50+14*#52]
G2 I-0.00025 J0
G1 Z[#50+13*#52]
G2 I-0.00025 J0
G1 Z[#50+12*#52]
G2 I-0.00025 J0
G1 Z[#50+11*#52]
G2 I-0.00025 J0
G1 Z[#50+10*#52]
G2 I-0.00025 J0
G1 Z[#50+9*#52]
G2 I-0.00025 J0
G1 Z[#50+8*#52]
G2 I-0.00025 J0
G1 Z[#50+7*#52]
G2 I-0.00025 J0
G1 Z[#50+6*#52]
G2 I-0.00025 J0
G1 Z[#50+5*#52]
G2 I-0.00025 J0
G1 Z[#50+4*#52]
G2 I-0.00025 J0
G1 Z[#50+3*#52]
G2 I-0.00025 J0
G1 Z[#50+2*#52]
G2 I-0.00025 J0
G1 Z[#50+1*#52]
G2 I-0.00025 J0
G1 Z[#50+0*#52]
G2 I-0.00025 J0
G0 Z0.19685

G0 X0.50955 Y0.71010
G1 Z[#50+30*#52]
G2 I-0.00025 J0
G1 Z[#50+29*#52]
G2 I-0.00025 J0
G1 Z[#50+28*#52]
G2 I-0.00025 J0
G1 Z[#50+27*#52]
G2 I-0.00025 J0
G1 Z[#50+26*#52]
G2 I-0.00025 J0
G1 Z[#50+25*#52]
G2 I-0.00025 J0
G1 Z[#50+24*#52]
G2 I-0.00025 J0
G1 Z[#50+23*#52]
G2 I-0.00025 J0
G1 Z[#50+22*#52]
G2 I-0.00025 J0
G1 Z[#50+21*#52]
G2 I-0.00025 J0
G1 Z[#50+20*#52]
G2 I-0.00025 J0
G1 Z[#50+19*#52]
G2 I-0.00025 J0
G1 Z[#50+18*#52]
G2 I-0.00025 J0
G1 Z[#50+17*#52]
G2 I-0.00025 J0
G1 Z[#50+16*#52]
G2 I-0.00025 J0
G1 Z[#50+15*#52]
G2 I-0.00025 J0
G1 Z[#50+14*#52]
G2 I-0.00025 J0
G1 Z[#50+13*#52]
G2 I-0.00025 J0
G1 Z[#50+12*#52]
G2 I-0.00025 J0
G1 Z[#50+11*#52]
G2 I-0.00025 J0
G1 Z[#50+10*#52]
G2 I-0.00025 J0
G1 Z[#50+9*#52]
G2 I-0.00025 J0
G1 Z[#50+8*#52]
G2 I-0.00025 J0
G1 Z[#50+7*#52]
G2 I-0.00025 J0
G1 Z[#50+6*#52]
G2 I-0.00025 J0
G1 Z[#50+5*#52]
G2 I-0.00025 J0
G1 Z[#50+4*#52]
G2 I-0.00025 J0
G1 Z[#50+3*#52]
G2 I-0.00025 J0
G1 Z[#50+2*#52]
G2 I-0.00025 J0
G1 Z[#50+1*#52]
G2 I-0.00025 J0
G1 Z[#50+0*#52]
G2 I-0.00025 J0
G0 Z0.19685

G0 X0.40955 Y0.71010
G1 Z[#50+30*#52]
G2 I-0.00025 J0
G1 Z[#50+29*#52]
G2 I-0.00025 J0
G1 Z[#50+28*#52]
G2 I-0.00025 J0
G1 Z[#50+27*#52]
G2 I-0.00025 J0
G1 Z[#50+26*#52]
G2 I-0.00025 J0
G1 Z[#50+25*#52]
G2 I-0.00025 J0
G1 Z[#50+24*#52]
G2 I-0.00025 J0
G1 Z[#50+23*#52]
G2 I-0.00025 J0
G1 Z[#50+22*#52]
G2 I-0.00025 J0
G1 Z[#50+21*#52]
G2 I-0.00025 J0
G1 Z[#50+20*#52]
G2 I-0.00025 J0
G1 Z[#50+19*#52]
G2 I-0.00025 J0
G1 Z[#50+18*#52]
G2 I-0.00025 J0
G1 Z[#50+17*#52]
G2 I-0.00025 J0
G1 Z[#50+16*#52]
G2 I-0.00025 J0
G1 Z[#50+15*#52]
G2 I-0.00025 J0
G1 Z[#50+14*#52]
G2 I-0.00025 J0
G1 Z[#50+13*#52]
G2 I-0.00025 J0
G1 Z[#50+12*#52]
G2 I-0.00025 J0
G1 Z[#50+11*#52]
G2 I-0.00025 J0
G1 Z[#50+10*#52]
G2 I-0.00025 J0
G1 Z[#50+9*#52]
G2 I-0.00025 J0
G1 Z[#50+8*#52]
G2 I-0.00025 J0
G1 Z[#50+7*#52]
G2 I-0.00025 J0
G1 Z[#50+6*#52]
G2 I-0.00025 J0
G1 Z[#50+5*#52]
G2 I-0.00025 J0
G1 Z[#50+4*#52]
G2 I-0.00025 J0
G1 Z[#50+3*#52]
G2 I-0.00025 J0
G1 Z[#50+2*#52]
G2 I-0.00025 J0
G1 Z[#50+1*#52]
G2 I-0.00025 J0
G1 Z[#50+0*#52]
G2 I-0.00025 J0
G0 Z0.19685

G0 X0.40955 Y0.41010
G1 Z[#50+30*#52]
G2 I-0.00025 J0
G1 Z[#50+29*#52]
G2 I-0.00025 J0
G1 Z[#50+28*#52]
G2 I-0.00025 J0
G1 Z[#50+27*#52]
G2 I-0.00025 J0
G1 Z[#50+26*#52]
G2 I-0.00025 J0
G1 Z[#50+25*#52]
G2 I-0.00025 J0
G1 Z[#50+24*#52]
G2 I-0.00025 J0
G1 Z[#50+23*#52]
G2 I-0.00025 J0
G1 Z[#50+22*#52]
G2 I-0.00025 J0
G1 Z[#50+21*#52]
G2 I-0.00025 J0
G1 Z[#50+20*#52]
G2 I-0.00025 J0
G1 Z[#50+19*#52]
G2 I-0.00025 J0
G1 Z[#50+18*#52]
G2 I-0.00025 J0
G1 Z[#50+17*#52]
G2 I-0.00025 J0
G1 Z[#50+16*#52]
G2 I-0.00025 J0
G1 Z[#50+15*#52]
G2 I-0.00025 J0
G1 Z[#50+14*#52]
G2 I-0.00025 J0
G1 Z[#50+13*#52]
G2 I-0.00025 J0
G1 Z[#50+12*#52]
G2 I-0.00025 J0
G1 Z[#50+11*#52]
G2 I-0.00025 J0
G1 Z[#50+10*#52]
G2 I-0.00025 J0
G1 Z[#50+9*#52]
G2 I-0.00025 J0
G1 Z[#50+8*#52]
G2 I-0.00025 J0
G1 Z[#50+7*#52]
G2 I-0.00025 J0
G1 Z[#50+6*#52]
G2 I-0.00025 J0
G1 Z[#50+5*#52]
G2 I-0.00025 J0
G1 Z[#50+4*#52]
G2 I-0.00025 J0
G1 Z[#50+3*#52]
G2 I-0.00025 J0
G1 Z[#50+2*#52]
G2 I-0.00025 J0
G1 Z[#50+1*#52]
G2 I-0.00025 J0
G1 Z[#50+0*#52]
G2 I-0.00025 J0
G0 Z0.19685

G0 X0.50955 Y0.41010
G1 Z[#50+30*#52]
G2 I-0.00025 J0
G1 Z[#50+29*#52]
G2 I-0.00025 J0
G1 Z[#50+28*#52]
G2 I-0.00025 J0
G1 Z[#50+27*#52]
G2 I-0.00025 J0
G1 Z[#50+26*#52]
G2 I-0.00025 J0
G1 Z[#50+25*#52]
G2 I-0.00025 J0
G1 Z[#50+24*#52]
G2 I-0.00025 J0
G1 Z[#50+23*#52]
G2 I-0.00025 J0
G1 Z[#50+22*#52]
G2 I-0.00025 J0
G1 Z[#50+21*#52]
G2 I-0.00025 J0
G1 Z[#50+20*#52]
G2 I-0.00025 J0
G1 Z[#50+19*#52]
G2 I-0.00025 J0
G1 Z[#50+18*#52]
G2 I-0.00025 J0
G1 Z[#50+17*#52]
G2 I-0.00025 J0
G1 Z[#50+16*#52]
G2 I-0.00025 J0
G1 Z[#50+15*#52]
G2 I-0.00025 J0
G1 Z[#50+14*#52]
G2 I-0.00025 J0
G1 Z[#50+13*#52]
G2 I-0.00025 J0
G1 Z[#50+12*#52]
G2 I-0.00025 J0
G1 Z[#50+11*#52]
G2 I-0.00025 J0
G1 Z[#50+10*#52]
G2 I-0.00025 J0
G1 Z[#50+9*#52]
G2 I-0.00025 J0
G1 Z[#50+8*#52]
G2 I-0.00025 J0
G1 Z[#50+7*#52]
G2 I-0.00025 J0
G1 Z[#50+6*#52]
G2 I-0.00025 J0
G1 Z[#50+5*#52]
G2 I-0.00025 J0
G1 Z[#50+4*#52]
G2 I-0.00025 J0
G1 Z[#50+3*#52]
G2 I-0.00025 J0
G1 Z[#50+2*#52]
G2 I-0.00025 J0
G1 Z[#50+1*#52]
G2 I-0.00025 J0
G1 Z[#50+0*#52]
G2 I-0.00025 J0
G0 Z0.19685

G0 X0.60955 Y0.41010
G1 Z[#50+30*#52]
G2 I-0.00025 J0
G1 Z[#50+29*#52]
G2 I-0.00025 J0
G1 Z[#50+28*#52]
G2 I-0.00025 J0
G1 Z[#50+27*#52]
G2 I-0.00025 J0
G1 Z[#50+26*#52]
G2 I-0.00025 J0
G1 Z[#50+25*#52]
G2 I-0.00025 J0
G1 Z[#50+24*#52]
G2 I-0.00025 J0
G1 Z[#50+23*#52]
G2 I-0.00025 J0
G1 Z[#50+22*#52]
G2 I-0.00025 J0
G1 Z[#50+21*#52]
G2 I-0.00025 J0
G1 Z[#50+20*#52]
G2 I-0.00025 J0
G1 Z[#50+19*#52]
G2 I-0.00025 J0
G1 Z[#50+18*#52]
G2 I-0.00025 J0
G1 Z[#50+17*#52]
G2 I-0.00025 J0
G1 Z[#50+16*#52]
G2 I-0.00025 J0
G1 Z[#50+15*#52]
G2 I-0.00025 J0
G1 Z[#50+14*#52]
G2 I-0.00025 J0
G1 Z[#50+13*#52]
G2 I-0.00025 J0
G1 Z[#50+12*#52]
G2 I-0.00025 J0
G1 Z[#50+11*#52]
G2 I-0.00025 J0
G1 Z[#50+10*#52]
G2 I-0.00025 J0
G1 Z[#50+9*#52]
G2 I-0.00025 J0
G1 Z[#50+8*#52]
G2 I-0.00025 J0
G1 Z[#50+7*#52]
G2 I-0.00025 J0
G1 Z[#50+6*#52]
G2 I-0.00025 J0
G1 Z[#50+5*#52]
G2 I-0.00025 J0
G1 Z[#50+4*#52]
G2 I-0.00025 J0
G1 Z[#50+3*#52]
G2 I-0.00025 J0
G1 Z[#50+2*#52]
G2 I-0.00025 J0
G1 Z[#50+1*#52]
G2 I-0.00025 J0
G1 Z[#50+0*#52]
G2 I-0.00025 J0
G0 Z0.19685

G0 X0.70955 Y0.41010
G1 Z[#50+30*#52]
G2 I-0.00025 J0
G1 Z[#50+29*#52]
G2 I-0.00025 J0
G1 Z[#50+28*#52]
G2 I-0.00025 J0
G1 Z[#50+27*#52]
G2 I-0.00025 J0
G1 Z[#50+26*#52]
G2 I-0.00025 J0
G1 Z[#50+25*#52]
G2 I-0.00025 J0
G1 Z[#50+24*#52]
G2 I-0.00025 J0
G1 Z[#50+23*#52]
G2 I-0.00025 J0
G1 Z[#50+22*#52]
G2 I-0.00025 J0
G1 Z[#50+21*#52]
G2 I-0.00025 J0
G1 Z[#50+20*#52]
G2 I-0.00025 J0
G1 Z[#50+19*#52]
G2 I-0.00025 J0
G1 Z[#50+18*#52]
G2 I-0.00025 J0
G1 Z[#50+17*#52]
G2 I-0.00025 J0
G1 Z[#50+16*#52]
G2 I-0.00025 J0
G1 Z[#50+15*#52]
G2 I-0.00025 J0
G1 Z[#50+14*#52]
G2 I-0.00025 J0
G1 Z[#50+13*#52]
G2 I-0.00025 J0
G1 Z[#50+12*#52]
G2 I-0.00025 J0
G1 Z[#50+11*#52]
G2 I-0.00025 J0
G1 Z[#50+10*#52]
G2 I-0.00025 J0
G1 Z[#50+9*#52]
G2 I-0.00025 J0
G1 Z[#50+8*#52]
G2 I-0.00025 J0
G1 Z[#50+7*#52]
G2 I-0.00025 J0
G1 Z[#50+6*#52]
G2 I-0.00025 J0
G1 Z[#50+5*#52]
G2 I-0.00025 J0
G1 Z[#50+4*#52]
G2 I-0.00025 J0
G1 Z[#50+3*#52]
G2 I-0.00025 J0
G1 Z[#50+2*#52]
G2 I-0.00025 J0
G1 Z[#50+1*#52]
G2 I-0.00025 J0
G1 Z[#50+0*#52]
G2 I-0.00025 J0
G0 Z0.19685

G0 X0.65855 Y0.31010
G1 Z[#50+30*#52]
G2 I-0.00425 J0
G1 Z[#50+29*#52]
G2 I-0.00425 J0
G1 Z[#50+28*#52]
G2 I-0.00425 J0
G1 Z[#50+27*#52]
G2 I-0.00425 J0
G1 Z[#50+26*#52]
G2 I-0.00425 J0
G1 Z[#50+25*#52]
G2 I-0.00425 J0
G1 Z[#50+24*#52]
G2 I-0.00425 J0
G1 Z[#50+23*#52]
G2 I-0.00425 J0
G1 Z[#50+22*#52]
G2 I-0.00425 J0
G1 Z[#50+21*#52]
G2 I-0.00425 J0
G1 Z[#50+20*#52]
G2 I-0.00425 J0
G1 Z[#50+19*#52]
G2 I-0.00425 J0
G1 Z[#50+18*#52]
G2 I-0.00425 J0
G1 Z[#50+17*#52]
G2 I-0.00425 J0
G1 Z[#50+16*#52]
G2 I-0.00425 J0
G1 Z[#50+15*#52]
G2 I-0.00425 J0
G1 Z[#50+14*#52]
G2 I-0.00425 J0
G1 Z[#50+13*#52]
G2 I-0.00425 J0
G1 Z[#50+12*#52]
G2 I-0.00425 J0
G1 Z[#50+11*#52]
G2 I-0.00425 J0
G1 Z[#50+10*#52]
G2 I-0.00425 J0
G1 Z[#50+9*#52]
G2 I-0.00425 J0
G1 Z[#50+8*#52]
G2 I-0.00425 J0
G1 Z[#50+7*#52]
G2 I-0.00425 J0
G1 Z[#50+6*#52]
G2 I-0.00425 J0
G1 Z[#50+5*#52]
G2 I-0.00425 J0
G1 Z[#50+4*#52]
G2 I-0.00425 J0
G1 Z[#50+3*#52]
G2 I-0.00425 J0
G1 Z[#50+2*#52]
G2 I-0.00425 J0
G1 Z[#50+1*#52]
G2 I-0.00425 J0
G1 Z[#50+0*#52]
G2 I-0.00425 J0
G0 Z0.19685

G0 X0.76855 Y0.31010
G1 Z[#50+30*#52]
G2 I-0.00425 J0
G1 Z[#50+29*#52]
G2 I-0.00425 J0
G1 Z[#50+28*#52]
G2 I-0.00425 J0
G1 Z[#50+27*#52]
G2 I-0.00425 J0
G1 Z[#50+26*#52]
G2 I-0.00425 J0
G1 Z[#50+25*#52]
G2 I-0.00425 J0
G1 Z[#50+24*#52]
G2 I-0.00425 J0
G1 Z[#50+23*#52]
G2 I-0.00425 J0
G1 Z[#50+22*#52]
G2 I-0.00425 J0
G1 Z[#50+21*#52]
G2 I-0.00425 J0
G1 Z[#50+20*#52]
G2 I-0.00425 J0
G1 Z[#50+19*#52]
G2 I-0.00425 J0
G1 Z[#50+18*#52]
G2 I-0.00425 J0
G1 Z[#50+17*#52]
G2 I-0.00425 J0
G1 Z[#50+16*#52]
G2 I-0.00425 J0
G1 Z[#50+15*#52]
G2 I-0.00425 J0
G1 Z[#50+14*#52]
G2 I-0.00425 J0
G1 Z[#50+13*#52]
G2 I-0.00425 J0
G1 Z[#50+12*#52]
G2 I-0.00425 J0
G1 Z[#50+11*#52]
G2 I-0.00425 J0
G1 Z[#50+10*#52]
G2 I-0.00425 J0
G1 Z[#50+9*#52]
G2 I-0.00425 J0
G1 Z[#50+8*#52]
G2 I-0.00425 J0
G1 Z[#50+7*#52]
G2 I-0.00425 J0
G1 Z[#50+6*#52]
G2 I-0.00425 J0
G1 Z[#50+5*#52]
G2 I-0.00425 J0
G1 Z[#50+4*#52]
G2 I-0.00425 J0
G1 Z[#50+3*#52]
G2 I-0.00425 J0
G1 Z[#50+2*#52]
G2 I-0.00425 J0
G1 Z[#50+1*#52]
G2 I-0.00425 J0
G1 Z[#50+0*#52]
G2 I-0.00425 J0
G0 Z0.19685

G0 X0.46855 Y0.31010
G1 Z[#50+30*#52]
G2 I-0.00425 J0
G1 Z[#50+29*#52]
G2 I-0.00425 J0
G1 Z[#50+28*#52]
G2 I-0.00425 J0
G1 Z[#50+27*#52]
G2 I-0.00425 J0
G1 Z[#50+26*#52]
G2 I-0.00425 J0
G1 Z[#50+25*#52]
G2 I-0.00425 J0
G1 Z[#50+24*#52]
G2 I-0.00425 J0
G1 Z[#50+23*#52]
G2 I-0.00425 J0
G1 Z[#50+22*#52]
G2 I-0.00425 J0
G1 Z[#50+21*#52]
G2 I-0.00425 J0
G1 Z[#50+20*#52]
G2 I-0.00425 J0
G1 Z[#50+19*#52]
G2 I-0.00425 J0
G1 Z[#50+18*#52]
G2 I-0.00425 J0
G1 Z[#50+17*#52]
G2 I-0.00425 J0
G1 Z[#50+16*#52]
G2 I-0.00425 J0
G1 Z[#50+15*#52]
G2 I-0.00425 J0
G1 Z[#50+14*#52]
G2 I-0.00425 J0
G1 Z[#50+13*#52]
G2 I-0.00425 J0
G1 Z[#50+12*#52]
G2 I-0.00425 J0
G1 Z[#50+11*#52]
G2 I-0.00425 J0
G1 Z[#50+10*#52]
G2 I-0.00425 J0
G1 Z[#50+9*#52]
G2 I-0.00425 J0
G1 Z[#50+8*#52]
G2 I-0.00425 J0
G1 Z[#50+7*#52]
G2 I-0.00425 J0
G1 Z[#50+6*#52]
G2 I-0.00425 J0
G1 Z[#50+5*#52]
G2 I-0.00425 J0
G1 Z[#50+4*#52]
G2 I-0.00425 J0
G1 Z[#50+3*#52]
G2 I-0.00425 J0
G1 Z[#50+2*#52]
G2 I-0.00425 J0
G1 Z[#50+1*#52]
G2 I-0.00425 J0
G1 Z[#50+0*#52]
G2 I-0.00425 J0
G0 Z0.19685

G0 X0.35855 Y0.31010
G1 Z[#50+30*#52]
G2 I-0.00425 J0
G1 Z[#50+29*#52]
G2 I-0.00425 J0
G1 Z[#50+28*#52]
G2 I-0.00425 J0
G1 Z[#50+27*#52]
G2 I-0.00425 J0
G1 Z[#50+26*#52]
G2 I-0.00425 J0
G1 Z[#50+25*#52]
G2 I-0.00425 J0
G1 Z[#50+24*#52]
G2 I-0.00425 J0
G1 Z[#50+23*#52]
G2 I-0.00425 J0
G1 Z[#50+22*#52]
G2 I-0.00425 J0
G1 Z[#50+21*#52]
G2 I-0.00425 J0
G1 Z[#50+20*#52]
G2 I-0.00425 J0
G1 Z[#50+19*#52]
G2 I-0.00425 J0
G1 Z[#50+18*#52]
G2 I-0.00425 J0
G1 Z[#50+17*#52]
G2 I-0.00425 J0
G1 Z[#50+16*#52]
G2 I-0.00425 J0
G1 Z[#50+15*#52]
G2 I-0.00425 J0
G1 Z[#50+14*#52]
G2 I-0.00425 J0
G1 Z[#50+13*#52]
G2 I-0.00425 J0
G1 Z[#50+12*#52]
G2 I-0.00425 J0
G1 Z[#50+11*#52]
G2 I-0.00425 J0
G1 Z[#50+10*#52]
G2 I-0.00425 J0
G1 Z[#50+9*#52]
G2 I-0.00425 J0
G1 Z[#50+8*#52]
G2 I-0.00425 J0
G1 Z[#50+7*#52]
G2 I-0.00425 J0
G1 Z[#50+6*#52]
G2 I-0.00425 J0
G1 Z[#50+5*#52]
G2 I-0.00425 J0
G1 Z[#50+4*#52]
G2 I-0.00425 J0
G1 Z[#50+3*#52]
G2 I-0.00425 J0
G1 Z[#50+2*#52]
G2 I-0.00425 J0
G1 Z[#50+1*#52]
G2 I-0.00425 J0
G1 Z[#50+0*#52]
G2 I-0.00425 J0
G0 Z0.19685

G0 X0.40855 Y0.81010
G1 Z[#50+30*#52]
G2 I-0.00425 J0
G1 Z[#50+29*#52]
G2 I-0.00425 J0
G1 Z[#50+28*#52]
G2 I-0.00425 J0
G1 Z[#50+27*#52]
G2 I-0.00425 J0
G1 Z[#50+26*#52]
G2 I-0.00425 J0
G1 Z[#50+25*#52]
G2 I-0.00425 J0
G1 Z[#50+24*#52]
G2 I-0.00425 J0
G1 Z[#50+23*#52]
G2 I-0.00425 J0
G1 Z[#50+22*#52]
G2 I-0.00425 J0
G1 Z[#50+21*#52]
G2 I-0.00425 J0
G1 Z[#50+20*#52]
G2 I-0.00425 J0
G1 Z[#50+19*#52]
G2 I-0.00425 J0
G1 Z[#50+18*#52]
G2 I-0.00425 J0
G1 Z[#50+17*#52]
G2 I-0.00425 J0
G1 Z[#50+16*#52]
G2 I-0.00425 J0
G1 Z[#50+15*#52]
G2 I-0.00425 J0
G1 Z[#50+14*#52]
G2 I-0.00425 J0
G1 Z[#50+13*#52]
G2 I-0.00425 J0
G1 Z[#50+12*#52]
G2 I-0.00425 J0
G1 Z[#50+11*#52]
G2 I-0.00425 J0
G1 Z[#50+10*#52]
G2 I-0.00425 J0
G1 Z[#50+9*#52]
G2 I-0.00425 J0
G1 Z[#50+8*#52]
G2 I-0.00425 J0
G1 Z[#50+7*#52]
G2 I-0.00425 J0
G1 Z[#50+6*#52]
G2 I-0.00425 J0
G1 Z[#50+5*#52]
G2 I-0.00425 J0
G1 Z[#50+4*#52]
G2 I-0.00425 J0
G1 Z[#50+3*#52]
G2 I-0.00425 J0
G1 Z[#50+2*#52]
G2 I-0.00425 J0
G1 Z[#50+1*#52]
G2 I-0.00425 J0
G1 Z[#50+0*#52]
G2 I-0.00425 J0
G0 Z0.19685

G0 X0.51855 Y0.81010
G1 Z[#50+30*#52]
G2 I-0.00425 J0
G1 Z[#50+29*#52]
G2 I-0.00425 J0
G1 Z[#50+28*#52]
G2 I-0.00425 J0
G1 Z[#50+27*#52]
G2 I-0.00425 J0
G1 Z[#50+26*#52]
G2 I-0.00425 J0
G1 Z[#50+25*#52]
G2 I-0.00425 J0
G1 Z[#50+24*#52]
G2 I-0.00425 J0
G1 Z[#50+23*#52]
G2 I-0.00425 J0
G1 Z[#50+22*#52]
G2 I-0.00425 J0
G1 Z[#50+21*#52]
G2 I-0.00425 J0
G1 Z[#50+20*#52]
G2 I-0.00425 J0
G1 Z[#50+19*#52]
G2 I-0.00425 J0
G1 Z[#50+18*#52]
G2 I-0.00425 J0
G1 Z[#50+17*#52]
G2 I-0.00425 J0
G1 Z[#50+16*#52]
G2 I-0.00425 J0
G1 Z[#50+15*#52]
G2 I-0.00425 J0
G1 Z[#50+14*#52]
G2 I-0.00425 J0
G1 Z[#50+13*#52]
G2 I-0.00425 J0
G1 Z[#50+12*#52]
G2 I-0.00425 J0
G1 Z[#50+11*#52]
G2 I-0.00425 J0
G1 Z[#50+10*#52]
G2 I-0.00425 J0
G1 Z[#50+9*#52]
G2 I-0.00425 J0
G1 Z[#50+8*#52]
G2 I-0.00425 J0
G1 Z[#50+7*#52]
G2 I-0.00425 J0
G1 Z[#50+6*#52]
G2 I-0.00425 J0
G1 Z[#50+5*#52]
G2 I-0.00425 J0
G1 Z[#50+4*#52]
G2 I-0.00425 J0
G1 Z[#50+3*#52]
G2 I-0.00425 J0
G1 Z[#50+2*#52]
G2 I-0.00425 J0
G1 Z[#50+1*#52]
G2 I-0.00425 J0
G1 Z[#50+0*#52]
G2 I-0.00425 J0
G0 Z0.19685

G0 X0.46355 Y0.96010
G1 Z[#50+30*#52]
G2 I-0.00425 J0
G1 Z[#50+29*#52]
G2 I-0.00425 J0
G1 Z[#50+28*#52]
G2 I-0.00425 J0
G1 Z[#50+27*#52]
G2 I-0.00425 J0
G1 Z[#50+26*#52]
G2 I-0.00425 J0
G1 Z[#50+25*#52]
G2 I-0.00425 J0
G1 Z[#50+24*#52]
G2 I-0.00425 J0
G1 Z[#50+23*#52]
G2 I-0.00425 J0
G1 Z[#50+22*#52]
G2 I-0.00425 J0
G1 Z[#50+21*#52]
G2 I-0.00425 J0
G1 Z[#50+20*#52]
G2 I-0.00425 J0
G1 Z[#50+19*#52]
G2 I-0.00425 J0
G1 Z[#50+18*#52]
G2 I-0.00425 J0
G1 Z[#50+17*#52]
G2 I-0.00425 J0
G1 Z[#50+16*#52]
G2 I-0.00425 J0
G1 Z[#50+15*#52]
G2 I-0.00425 J0
G1 Z[#50+14*#52]
G2 I-0.00425 J0
G1 Z[#50+13*#52]
G2 I-0.00425 J0
G1 Z[#50+12*#52]
G2 I-0.00425 J0
G1 Z[#50+11*#52]
G2 I-0.00425 J0
G1 Z[#50+10*#52]
G2 I-0.00425 J0
G1 Z[#50+9*#52]
G2 I-0.00425 J0
G1 Z[#50+8*#52]
G2 I-0.00425 J0
G1 Z[#50+7*#52]
G2 I-0.00425 J0
G1 Z[#50+6*#52]
G2 I-0.00425 J0
G1 Z[#50+5*#52]
G2 I-0.00425 J0
G1 Z[#50+4*#52]
G2 I-0.00425 J0
G1 Z[#50+3*#52]
G2 I-0.00425 J0
G1 Z[#50+2*#52]
G2 I-0.00425 J0
G1 Z[#50+1*#52]
G2 I-0.00425 J0
G1 Z[#50+0*#52]
G2 I-0.00425 J0
G0 Z0.19685

G0 X0.46355 Y1.05510
G1 Z[#50+30*#52]
G2 I-0.00425 J0
G1 Z[#50+29*#52]
G2 I-0.00425 J0
G1 Z[#50+28*#52]
G2 I-0.00425 J0
G1 Z[#50+27*#52]
G2 I-0.00425 J0
G1 Z[#50+26*#52]
G2 I-0.00425 J0
G1 Z[#50+25*#52]
G2 I-0.00425 J0
G1 Z[#50+24*#52]
G2 I-0.00425 J0
G1 Z[#50+23*#52]
G2 I-0.00425 J0
G1 Z[#50+22*#52]
G2 I-0.00425 J0
G1 Z[#50+21*#52]
G2 I-0.00425 J0
G1 Z[#50+20*#52]
G2 I-0.00425 J0
G1 Z[#50+19*#52]
G2 I-0.00425 J0
G1 Z[#50+18*#52]
G2 I-0.00425 J0
G1 Z[#50+17*#52]
G2 I-0.00425 J0
G1 Z[#50+16*#52]
G2 I-0.00425 J0
G1 Z[#50+15*#52]
G2 I-0.00425 J0
G1 Z[#50+14*#52]
G2 I-0.00425 J0
G1 Z[#50+13*#52]
G2 I-0.00425 J0
G1 Z[#50+12*#52]
G2 I-0.00425 J0
G1 Z[#50+11*#52]
G2 I-0.00425 J0
G1 Z[#50+10*#52]
G2 I-0.00425 J0
G1 Z[#50+9*#52]
G2 I-0.00425 J0
G1 Z[#50+8*#52]
G2 I-0.00425 J0
G1 Z[#50+7*#52]
G2 I-0.00425 J0
G1 Z[#50+6*#52]
G2 I-0.00425 J0
G1 Z[#50+5*#52]
G2 I-0.00425 J0
G1 Z[#50+4*#52]
G2 I-0.00425 J0
G1 Z[#50+3*#52]
G2 I-0.00425 J0
G1 Z[#50+2*#52]
G2 I-0.00425 J0
G1 Z[#50+1*#52]
G2 I-0.00425 J0
G1 Z[#50+0*#52]
G2 I-0.00425 J0
G0 Z0.19685

G0 X0.56355 Y1.06510
G1 Z[#50+30*#52]
G2 I-0.00425 J0
G1 Z[#50+29*#52]
G2 I-0.00425 J0
G1 Z[#50+28*#52]
G2 I-0.00425 J0
G1 Z[#50+27*#52]
G2 I-0.00425 J0
G1 Z[#50+26*#52]
G2 I-0.00425 J0
G1 Z[#50+25*#52]
G2 I-0.00425 J0
G1 Z[#50+24*#52]
G2 I-0.00425 J0
G1 Z[#50+23*#52]
G2 I-0.00425 J0
G1 Z[#50+22*#52]
G2 I-0.00425 J0
G1 Z[#50+21*#52]
G2 I-0.00425 J0
G1 Z[#50+20*#52]
G2 I-0.00425 J0
G1 Z[#50+19*#52]
G2 I-0.00425 J0
G1 Z[#50+18*#52]
G2 I-0.00425 J0
G1 Z[#50+17*#52]
G2 I-0.00425 J0
G1 Z[#50+16*#52]
G2 I-0.00425 J0
G1 Z[#50+15*#52]
G2 I-0.00425 J0
G1 Z[#50+14*#52]
G2 I-0.00425 J0
G1 Z[#50+13*#52]
G2 I-0.00425 J0
G1 Z[#50+12*#52]
G2 I-0.00425 J0
G1 Z[#50+11*#52]
G2 I-0.00425 J0
G1 Z[#50+10*#52]
G2 I-0.00425 J0
G1 Z[#50+9*#52]
G2 I-0.00425 J0
G1 Z[#50+8*#52]
G2 I-0.00425 J0
G1 Z[#50+7*#52]
G2 I-0.00425 J0
G1 Z[#50+6*#52]
G2 I-0.00425 J0
G1 Z[#50+5*#52]
G2 I-0.00425 J0
G1 Z[#50+4*#52]
G2 I-0.00425 J0
G1 Z[#50+3*#52]
G2 I-0.00425 J0
G1 Z[#50+2*#52]
G2 I-0.00425 J0
G1 Z[#50+1*#52]
G2 I-0.00425 J0
G1 Z[#50+0*#52]
G2 I-0.00425 J0
G0 Z0.19685

G0 X0.66355 Y1.05510
G1 Z[#50+30*#52]
G2 I-0.00425 J0
G1 Z[#50+29*#52]
G2 I-0.00425 J0
G1 Z[#50+28*#52]
G2 I-0.00425 J0
G1 Z[#50+27*#52]
G2 I-0.00425 J0
G1 Z[#50+26*#52]
G2 I-0.00425 J0
G1 Z[#50+25*#52]
G2 I-0.00425 J0
G1 Z[#50+24*#52]
G2 I-0.00425 J0
G1 Z[#50+23*#52]
G2 I-0.00425 J0
G1 Z[#50+22*#52]
G2 I-0.00425 J0
G1 Z[#50+21*#52]
G2 I-0.00425 J0
G1 Z[#50+20*#52]
G2 I-0.00425 J0
G1 Z[#50+19*#52]
G2 I-0.00425 J0
G1 Z[#50+18*#52]
G2 I-0.00425 J0
G1 Z[#50+17*#52]
G2 I-0.00425 J0
G1 Z[#50+16*#52]
G2 I-0.00425 J0
G1 Z[#50+15*#52]
G2 I-0.00425 J0
G1 Z[#50+14*#52]
G2 I-0.00425 J0
G1 Z[#50+13*#52]
G2 I-0.00425 J0
G1 Z[#50+12*#52]
G2 I-0.00425 J0
G1 Z[#50+11*#52]
G2 I-0.00425 J0
G1 Z[#50+10*#52]
G2 I-0.00425 J0
G1 Z[#50+9*#52]
G2 I-0.00425 J0
G1 Z[#50+8*#52]
G2 I-0.00425 J0
G1 Z[#50+7*#52]
G2 I-0.00425 J0
G1 Z[#50+6*#52]
G2 I-0.00425 J0
G1 Z[#50+5*#52]
G2 I-0.00425 J0
G1 Z[#50+4*#52]
G2 I-0.00425 J0
G1 Z[#50+3*#52]
G2 I-0.00425 J0
G1 Z[#50+2*#52]
G2 I-0.00425 J0
G1 Z[#50+1*#52]
G2 I-0.00425 J0
G1 Z[#50+0*#52]
G2 I-0.00425 J0
G0 Z0.19685

G0 X0.76355 Y1.06510
G1 Z[#50+30*#52]
G2 I-0.00425 J0
G1 Z[#50+29*#52]
G2 I-0.00425 J0
G1 Z[#50+28*#52]
G2 I-0.00425 J0
G1 Z[#50+27*#52]
G2 I-0.00425 J0
G1 Z[#50+26*#52]
G2 I-0.00425 J0
G1 Z[#50+25*#52]
G2 I-0.00425 J0
G1 Z[#50+24*#52]
G2 I-0.00425 J0
G1 Z[#50+23*#52]
G2 I-0.00425 J0
G1 Z[#50+22*#52]
G2 I-0.00425 J0
G1 Z[#50+21*#52]
G2 I-0.00425 J0
G1 Z[#50+20*#52]
G2 I-0.00425 J0
G1 Z[#50+19*#52]
G2 I-0.00425 J0
G1 Z[#50+18*#52]
G2 I-0.00425 J0
G1 Z[#50+17*#52]
G2 I-0.00425 J0
G1 Z[#50+16*#52]
G2 I-0.00425 J0
G1 Z[#50+15*#52]
G2 I-0.00425 J0
G1 Z[#50+14*#52]
G2 I-0.00425 J0
G1 Z[#50+13*#52]
G2 I-0.00425 J0
G1 Z[#50+12*#52]
G2 I-0.00425 J0
G1 Z[#50+11*#52]
G2 I-0.00425 J0
G1 Z[#50+10*#52]
G2 I-0.00425 J0
G1 Z[#50+9*#52]
G2 I-0.00425 J0
G1 Z[#50+8*#52]
G2 I-0.00425 J0
G1 Z[#50+7*#52]
G2 I-0.00425 J0
G1 Z[#50+6*#52]
G2 I-0.00425 J0
G1 Z[#50+5*#52]
G2 I-0.00425 J0
G1 Z[#50+4*#52]
G2 I-0.00425 J0
G1 Z[#50+3*#52]
G2 I-0.00425 J0
G1 Z[#50+2*#52]
G2 I-0.00425 J0
G1 Z[#50+1*#52]
G2 I-0.00425 J0
G1 Z[#50+0*#52]
G2 I-0.00425 J0
G0 Z0.19685

G0 X0.11855 Y1.36010
G1 Z[#50+30*#52]
G2 I-0.00425 J0
G1 Z[#50+29*#52]
G2 I-0.00425 J0
G1 Z[#50+28*#52]
G2 I-0.00425 J0
G1 Z[#50+27*#52]
G2 I-0.00425 J0
G1 Z[#50+26*#52]
G2 I-0.00425 J0
G1 Z[#50+25*#52]
G2 I-0.00425 J0
G1 Z[#50+24*#52]
G2 I-0.00425 J0
G1 Z[#50+23*#52]
G2 I-0.00425 J0
G1 Z[#50+22*#52]
G2 I-0.00425 J0
G1 Z[#50+21*#52]
G2 I-0.00425 J0
G1 Z[#50+20*#52]
G2 I-0.00425 J0
G1 Z[#50+19*#52]
G2 I-0.00425 J0
G1 Z[#50+18*#52]
G2 I-0.00425 J0
G1 Z[#50+17*#52]
G2 I-0.00425 J0
G1 Z[#50+16*#52]
G2 I-0.00425 J0
G1 Z[#50+15*#52]
G2 I-0.00425 J0
G1 Z[#50+14*#52]
G2 I-0.00425 J0
G1 Z[#50+13*#52]
G2 I-0.00425 J0
G1 Z[#50+12*#52]
G2 I-0.00425 J0
G1 Z[#50+11*#52]
G2 I-0.00425 J0
G1 Z[#50+10*#52]
G2 I-0.00425 J0
G1 Z[#50+9*#52]
G2 I-0.00425 J0
G1 Z[#50+8*#52]
G2 I-0.00425 J0
G1 Z[#50+7*#52]
G2 I-0.00425 J0
G1 Z[#50+6*#52]
G2 I-0.00425 J0
G1 Z[#50+5*#52]
G2 I-0.00425 J0
G1 Z[#50+4*#52]
G2 I-0.00425 J0
G1 Z[#50+3*#52]
G2 I-0.00425 J0
G1 Z[#50+2*#52]
G2 I-0.00425 J0
G1 Z[#50+1*#52]
G2 I-0.00425 J0
G1 Z[#50+0*#52]
G2 I-0.00425 J0
G0 Z0.19685

G0 X0.10855 Y1.46010
G1 Z[#50+30*#52]
G2 I-0.00425 J0
G1 Z[#50+29*#52]
G2 I-0.00425 J0
G1 Z[#50+28*#52]
G2 I-0.00425 J0
G1 Z[#50+27*#52]
G2 I-0.00425 J0
G1 Z[#50+26*#52]
G2 I-0.00425 J0
G1 Z[#50+25*#52]
G2 I-0.00425 J0
G1 Z[#50+24*#52]
G2 I-0.00425 J0
G1 Z[#50+23*#52]
G2 I-0.00425 J0
G1 Z[#50+22*#52]
G2 I-0.00425 J0
G1 Z[#50+21*#52]
G2 I-0.00425 J0
G1 Z[#50+20*#52]
G2 I-0.00425 J0
G1 Z[#50+19*#52]
G2 I-0.00425 J0
G1 Z[#50+18*#52]
G2 I-0.00425 J0
G1 Z[#50+17*#52]
G2 I-0.00425 J0
G1 Z[#50+16*#52]
G2 I-0.00425 J0
G1 Z[#50+15*#52]
G2 I-0.00425 J0
G1 Z[#50+14*#52]
G2 I-0.00425 J0
G1 Z[#50+13*#52]
G2 I-0.00425 J0
G1 Z[#50+12*#52]
G2 I-0.00425 J0
G1 Z[#50+11*#52]
G2 I-0.00425 J0
G1 Z[#50+10*#52]
G2 I-0.00425 J0
G1 Z[#50+9*#52]
G2 I-0.00425 J0
G1 Z[#50+8*#52]
G2 I-0.00425 J0
G1 Z[#50+7*#52]
G2 I-0.00425 J0
G1 Z[#50+6*#52]
G2 I-0.00425 J0
G1 Z[#50+5*#52]
G2 I-0.00425 J0
G1 Z[#50+4*#52]
G2 I-0.00425 J0
G1 Z[#50+3*#52]
G2 I-0.00425 J0
G1 Z[#50+2*#52]
G2 I-0.00425 J0
G1 Z[#50+1*#52]
G2 I-0.00425 J0
G1 Z[#50+0*#52]
G2 I-0.00425 J0
G0 Z0.19685

G0 X0.11855 Y1.56010
G1 Z[#50+30*#52]
G2 I-0.00425 J0
G1 Z[#50+29*#52]
G2 I-0.00425 J0
G1 Z[#50+28*#52]
G2 I-0.00425 J0
G1 Z[#50+27*#52]
G2 I-0.00425 J0
G1 Z[#50+26*#52]
G2 I-0.00425 J0
G1 Z[#50+25*#52]
G2 I-0.00425 J0
G1 Z[#50+24*#52]
G2 I-0.00425 J0
G1 Z[#50+23*#52]
G2 I-0.00425 J0
G1 Z[#50+22*#52]
G2 I-0.00425 J0
G1 Z[#50+21*#52]
G2 I-0.00425 J0
G1 Z[#50+20*#52]
G2 I-0.00425 J0
G1 Z[#50+19*#52]
G2 I-0.00425 J0
G1 Z[#50+18*#52]
G2 I-0.00425 J0
G1 Z[#50+17*#52]
G2 I-0.00425 J0
G1 Z[#50+16*#52]
G2 I-0.00425 J0
G1 Z[#50+15*#52]
G2 I-0.00425 J0
G1 Z[#50+14*#52]
G2 I-0.00425 J0
G1 Z[#50+13*#52]
G2 I-0.00425 J0
G1 Z[#50+12*#52]
G2 I-0.00425 J0
G1 Z[#50+11*#52]
G2 I-0.00425 J0
G1 Z[#50+10*#52]
G2 I-0.00425 J0
G1 Z[#50+9*#52]
G2 I-0.00425 J0
G1 Z[#50+8*#52]
G2 I-0.00425 J0
G1 Z[#50+7*#52]
G2 I-0.00425 J0
G1 Z[#50+6*#52]
G2 I-0.00425 J0
G1 Z[#50+5*#52]
G2 I-0.00425 J0
G1 Z[#50+4*#52]
G2 I-0.00425 J0
G1 Z[#50+3*#52]
G2 I-0.00425 J0
G1 Z[#50+2*#52]
G2 I-0.00425 J0
G1 Z[#50+1*#52]
G2 I-0.00425 J0
G1 Z[#50+0*#52]
G2 I-0.00425 J0
G0 Z0.19685

G0 X0.10855 Y1.66010
G1 Z[#50+30*#52]
G2 I-0.00425 J0
G1 Z[#50+29*#52]
G2 I-0.00425 J0
G1 Z[#50+28*#52]
G2 I-0.00425 J0
G1 Z[#50+27*#52]
G2 I-0.00425 J0
G1 Z[#50+26*#52]
G2 I-0.00425 J0
G1 Z[#50+25*#52]
G2 I-0.00425 J0
G1 Z[#50+24*#52]
G2 I-0.00425 J0
G1 Z[#50+23*#52]
G2 I-0.00425 J0
G1 Z[#50+22*#52]
G2 I-0.00425 J0
G1 Z[#50+21*#52]
G2 I-0.00425 J0
G1 Z[#50+20*#52]
G2 I-0.00425 J0
G1 Z[#50+19*#52]
G2 I-0.00425 J0
G1 Z[#50+18*#52]
G2 I-0.00425 J0
G1 Z[#50+17*#52]
G2 I-0.00425 J0
G1 Z[#50+16*#52]
G2 I-0.00425 J0
G1 Z[#50+15*#52]
G2 I-0.00425 J0
G1 Z[#50+14*#52]
G2 I-0.00425 J0
G1 Z[#50+13*#52]
G2 I-0.00425 J0
G1 Z[#50+12*#52]
G2 I-0.00425 J0
G1 Z[#50+11*#52]
G2 I-0.00425 J0
G1 Z[#50+10*#52]
G2 I-0.00425 J0
G1 Z[#50+9*#52]
G2 I-0.00425 J0
G1 Z[#50+8*#52]
G2 I-0.00425 J0
G1 Z[#50+7*#52]
G2 I-0.00425 J0
G1 Z[#50+6*#52]
G2 I-0.00425 J0
G1 Z[#50+5*#52]
G2 I-0.00425 J0
G1 Z[#50+4*#52]
G2 I-0.00425 J0
G1 Z[#50+3*#52]
G2 I-0.00425 J0
G1 Z[#50+2*#52]
G2 I-0.00425 J0
G1 Z[#50+1*#52]
G2 I-0.00425 J0
G1 Z[#50+0*#52]
G2 I-0.00425 J0
G0 Z0.19685

G0 X0.11855 Y1.76010
G1 Z[#50+30*#52]
G2 I-0.00425 J0
G1 Z[#50+29*#52]
G2 I-0.00425 J0
G1 Z[#50+28*#52]
G2 I-0.00425 J0
G1 Z[#50+27*#52]
G2 I-0.00425 J0
G1 Z[#50+26*#52]
G2 I-0.00425 J0
G1 Z[#50+25*#52]
G2 I-0.00425 J0
G1 Z[#50+24*#52]
G2 I-0.00425 J0
G1 Z[#50+23*#52]
G2 I-0.00425 J0
G1 Z[#50+22*#52]
G2 I-0.00425 J0
G1 Z[#50+21*#52]
G2 I-0.00425 J0
G1 Z[#50+20*#52]
G2 I-0.00425 J0
G1 Z[#50+19*#52]
G2 I-0.00425 J0
G1 Z[#50+18*#52]
G2 I-0.00425 J0
G1 Z[#50+17*#52]
G2 I-0.00425 J0
G1 Z[#50+16*#52]
G2 I-0.00425 J0
G1 Z[#50+15*#52]
G2 I-0.00425 J0
G1 Z[#50+14*#52]
G2 I-0.00425 J0
G1 Z[#50+13*#52]
G2 I-0.00425 J0
G1 Z[#50+12*#52]
G2 I-0.00425 J0
G1 Z[#50+11*#52]
G2 I-0.00425 J0
G1 Z[#50+10*#52]
G2 I-0.00425 J0
G1 Z[#50+9*#52]
G2 I-0.00425 J0
G1 Z[#50+8*#52]
G2 I-0.00425 J0
G1 Z[#50+7*#52]
G2 I-0.00425 J0
G1 Z[#50+6*#52]
G2 I-0.00425 J0
G1 Z[#50+5*#52]
G2 I-0.00425 J0
G1 Z[#50+4*#52]
G2 I-0.00425 J0
G1 Z[#50+3*#52]
G2 I-0.00425 J0
G1 Z[#50+2*#52]
G2 I-0.00425 J0
G1 Z[#50+1*#52]
G2 I-0.00425 J0
G1 Z[#50+0*#52]
G2 I-0.00425 J0
G0 Z0.19685

G0 X0.10855 Y1.86010
G1 Z[#50+30*#52]
G2 I-0.00425 J0
G1 Z[#50+29*#52]
G2 I-0.00425 J0
G1 Z[#50+28*#52]
G2 I-0.00425 J0
G1 Z[#50+27*#52]
G2 I-0.00425 J0
G1 Z[#50+26*#52]
G2 I-0.00425 J0
G1 Z[#50+25*#52]
G2 I-0.00425 J0
G1 Z[#50+24*#52]
G2 I-0.00425 J0
G1 Z[#50+23*#52]
G2 I-0.00425 J0
G1 Z[#50+22*#52]
G2 I-0.00425 J0
G1 Z[#50+21*#52]
G2 I-0.00425 J0
G1 Z[#50+20*#52]
G2 I-0.00425 J0
G1 Z[#50+19*#52]
G2 I-0.00425 J0
G1 Z[#50+18*#52]
G2 I-0.00425 J0
G1 Z[#50+17*#52]
G2 I-0.00425 J0
G1 Z[#50+16*#52]
G2 I-0.00425 J0
G1 Z[#50+15*#52]
G2 I-0.00425 J0
G1 Z[#50+14*#52]
G2 I-0.00425 J0
G1 Z[#50+13*#52]
G2 I-0.00425 J0
G1 Z[#50+12*#52]
G2 I-0.00425 J0
G1 Z[#50+11*#52]
G2 I-0.00425 J0
G1 Z[#50+10*#52]
G2 I-0.00425 J0
G1 Z[#50+9*#52]
G2 I-0.00425 J0
G1 Z[#50+8*#52]
G2 I-0.00425 J0
G1 Z[#50+7*#52]
G2 I-0.00425 J0
G1 Z[#50+6*#52]
G2 I-0.00425 J0
G1 Z[#50+5*#52]
G2 I-0.00425 J0
G1 Z[#50+4*#52]
G2 I-0.00425 J0
G1 Z[#50+3*#52]
G2 I-0.00425 J0
G1 Z[#50+2*#52]
G2 I-0.00425 J0
G1 Z[#50+1*#52]
G2 I-0.00425 J0
G1 Z[#50+0*#52]
G2 I-0.00425 J0
G0 Z0.19685

G0 X0.11855 Y1.96010
G1 Z[#50+30*#52]
G2 I-0.00425 J0
G1 Z[#50+29*#52]
G2 I-0.00425 J0
G1 Z[#50+28*#52]
G2 I-0.00425 J0
G1 Z[#50+27*#52]
G2 I-0.00425 J0
G1 Z[#50+26*#52]
G2 I-0.00425 J0
G1 Z[#50+25*#52]
G2 I-0.00425 J0
G1 Z[#50+24*#52]
G2 I-0.00425 J0
G1 Z[#50+23*#52]
G2 I-0.00425 J0
G1 Z[#50+22*#52]
G2 I-0.00425 J0
G1 Z[#50+21*#52]
G2 I-0.00425 J0
G1 Z[#50+20*#52]
G2 I-0.00425 J0
G1 Z[#50+19*#52]
G2 I-0.00425 J0
G1 Z[#50+18*#52]
G2 I-0.00425 J0
G1 Z[#50+17*#52]
G2 I-0.00425 J0
G1 Z[#50+16*#52]
G2 I-0.00425 J0
G1 Z[#50+15*#52]
G2 I-0.00425 J0
G1 Z[#50+14*#52]
G2 I-0.00425 J0
G1 Z[#50+13*#52]
G2 I-0.00425 J0
G1 Z[#50+12*#52]
G2 I-0.00425 J0
G1 Z[#50+11*#52]
G2 I-0.00425 J0
G1 Z[#50+10*#52]
G2 I-0.00425 J0
G1 Z[#50+9*#52]
G2 I-0.00425 J0
G1 Z[#50+8*#52]
G2 I-0.00425 J0
G1 Z[#50+7*#52]
G2 I-0.00425 J0
G1 Z[#50+6*#52]
G2 I-0.00425 J0
G1 Z[#50+5*#52]
G2 I-0.00425 J0
G1 Z[#50+4*#52]
G2 I-0.00425 J0
G1 Z[#50+3*#52]
G2 I-0.00425 J0
G1 Z[#50+2*#52]
G2 I-0.00425 J0
G1 Z[#50+1*#52]
G2 I-0.00425 J0
G1 Z[#50+0*#52]
G2 I-0.00425 J0
G0 Z0.19685

G0 X0.10855 Y2.06010
G1 Z[#50+30*#52]
G2 I-0.00425 J0
G1 Z[#50+29*#52]
G2 I-0.00425 J0
G1 Z[#50+28*#52]
G2 I-0.00425 J0
G1 Z[#50+27*#52]
G2 I-0.00425 J0
G1 Z[#50+26*#52]
G2 I-0.00425 J0
G1 Z[#50+25*#52]
G2 I-0.00425 J0
G1 Z[#50+24*#52]
G2 I-0.00425 J0
G1 Z[#50+23*#52]
G2 I-0.00425 J0
G1 Z[#50+22*#52]
G2 I-0.00425 J0
G1 Z[#50+21*#52]
G2 I-0.00425 J0
G1 Z[#50+20*#52]
G2 I-0.00425 J0
G1 Z[#50+19*#52]
G2 I-0.00425 J0
G1 Z[#50+18*#52]
G2 I-0.00425 J0
G1 Z[#50+17*#52]
G2 I-0.00425 J0
G1 Z[#50+16*#52]
G2 I-0.00425 J0
G1 Z[#50+15*#52]
G2 I-0.00425 J0
G1 Z[#50+14*#52]
G2 I-0.00425 J0
G1 Z[#50+13*#52]
G2 I-0.00425 J0
G1 Z[#50+12*#52]
G2 I-0.00425 J0
G1 Z[#50+11*#52]
G2 I-0.00425 J0
G1 Z[#50+10*#52]
G2 I-0.00425 J0
G1 Z[#50+9*#52]
G2 I-0.00425 J0
G1 Z[#50+8*#52]
G2 I-0.00425 J0
G1 Z[#50+7*#52]
G2 I-0.00425 J0
G1 Z[#50+6*#52]
G2 I-0.00425 J0
G1 Z[#50+5*#52]
G2 I-0.00425 J0
G1 Z[#50+4*#52]
G2 I-0.00425 J0
G1 Z[#50+3*#52]
G2 I-0.00425 J0
G1 Z[#50+2*#52]
G2 I-0.00425 J0
G1 Z[#50+1*#52]
G2 I-0.00425 J0
G1 Z[#50+0*#52]
G2 I-0.00425 J0
G0 Z0.19685

G0 X1.50655 Y2.11010
G1 Z[#50+30*#52]
G2 I-0.00425 J0
G1 Z[#50+29*#52]
G2 I-0.00425 J0
G1 Z[#50+28*#52]
G2 I-0.00425 J0
G1 Z[#50+27*#52]
G2 I-0.00425 J0
G1 Z[#50+26*#52]
G2 I-0.00425 J0
G1 Z[#50+25*#52]
G2 I-0.00425 J0
G1 Z[#50+24*#52]
G2 I-0.00425 J0
G1 Z[#50+23*#52]
G2 I-0.00425 J0
G1 Z[#50+22*#52]
G2 I-0.00425 J0
G1 Z[#50+21*#52]
G2 I-0.00425 J0
G1 Z[#50+20*#52]
G2 I-0.00425 J0
G1 Z[#50+19*#52]
G2 I-0.00425 J0
G1 Z[#50+18*#52]
G2 I-0.00425 J0
G1 Z[#50+17*#52]
G2 I-0.00425 J0
G1 Z[#50+16*#52]
G2 I-0.00425 J0
G1 Z[#50+15*#52]
G2 I-0.00425 J0
G1 Z[#50+14*#52]
G2 I-0.00425 J0
G1 Z[#50+13*#52]
G2 I-0.00425 J0
G1 Z[#50+12*#52]
G2 I-0.00425 J0
G1 Z[#50+11*#52]
G2 I-0.00425 J0
G1 Z[#50+10*#52]
G2 I-0.00425 J0
G1 Z[#50+9*#52]
G2 I-0.00425 J0
G1 Z[#50+8*#52]
G2 I-0.00425 J0
G1 Z[#50+7*#52]
G2 I-0.00425 J0
G1 Z[#50+6*#52]
G2 I-0.00425 J0
G1 Z[#50+5*#52]
G2 I-0.00425 J0
G1 Z[#50+4*#52]
G2 I-0.00425 J0
G1 Z[#50+3*#52]
G2 I-0.00425 J0
G1 Z[#50+2*#52]
G2 I-0.00425 J0
G1 Z[#50+1*#52]
G2 I-0.00425 J0
G1 Z[#50+0*#52]
G2 I-0.00425 J0
G0 Z0.19685

G0 X1.62055 Y2.11010
G1 Z[#50+30*#52]
G2 I-0.00425 J0
G1 Z[#50+29*#52]
G2 I-0.00425 J0
G1 Z[#50+28*#52]
G2 I-0.00425 J0
G1 Z[#50+27*#52]
G2 I-0.00425 J0
G1 Z[#50+26*#52]
G2 I-0.00425 J0
G1 Z[#50+25*#52]
G2 I-0.00425 J0
G1 Z[#50+24*#52]
G2 I-0.00425 J0
G1 Z[#50+23*#52]
G2 I-0.00425 J0
G1 Z[#50+22*#52]
G2 I-0.00425 J0
G1 Z[#50+21*#52]
G2 I-0.00425 J0
G1 Z[#50+20*#52]
G2 I-0.00425 J0
G1 Z[#50+19*#52]
G2 I-0.00425 J0
G1 Z[#50+18*#52]
G2 I-0.00425 J0
G1 Z[#50+17*#52]
G2 I-0.00425 J0
G1 Z[#50+16*#52]
G2 I-0.00425 J0
G1 Z[#50+15*#52]
G2 I-0.00425 J0
G1 Z[#50+14*#52]
G2 I-0.00425 J0
G1 Z[#50+13*#52]
G2 I-0.00425 J0
G1 Z[#50+12*#52]
G2 I-0.00425 J0
G1 Z[#50+11*#52]
G2 I-0.00425 J0
G1 Z[#50+10*#52]
G2 I-0.00425 J0
G1 Z[#50+9*#52]
G2 I-0.00425 J0
G1 Z[#50+8*#52]
G2 I-0.00425 J0
G1 Z[#50+7*#52]
G2 I-0.00425 J0
G1 Z[#50+6*#52]
G2 I-0.00425 J0
G1 Z[#50+5*#52]
G2 I-0.00425 J0
G1 Z[#50+4*#52]
G2 I-0.00425 J0
G1 Z[#50+3*#52]
G2 I-0.00425 J0
G1 Z[#50+2*#52]
G2 I-0.00425 J0
G1 Z[#50+1*#52]
G2 I-0.00425 J0
G1 Z[#50+0*#52]
G2 I-0.00425 J0
G0 Z0.19685

G0 X1.86355 Y2.11010
G1 Z[#50+30*#52]
G2 I-0.00425 J0
G1 Z[#50+29*#52]
G2 I-0.00425 J0
G1 Z[#50+28*#52]
G2 I-0.00425 J0
G1 Z[#50+27*#52]
G2 I-0.00425 J0
G1 Z[#50+26*#52]
G2 I-0.00425 J0
G1 Z[#50+25*#52]
G2 I-0.00425 J0
G1 Z[#50+24*#52]
G2 I-0.00425 J0
G1 Z[#50+23*#52]
G2 I-0.00425 J0
G1 Z[#50+22*#52]
G2 I-0.00425 J0
G1 Z[#50+21*#52]
G2 I-0.00425 J0
G1 Z[#50+20*#52]
G2 I-0.00425 J0
G1 Z[#50+19*#52]
G2 I-0.00425 J0
G1 Z[#50+18*#52]
G2 I-0.00425 J0
G1 Z[#50+17*#52]
G2 I-0.00425 J0
G1 Z[#50+16*#52]
G2 I-0.00425 J0
G1 Z[#50+15*#52]
G2 I-0.00425 J0
G1 Z[#50+14*#52]
G2 I-0.00425 J0
G1 Z[#50+13*#52]
G2 I-0.00425 J0
G1 Z[#50+12*#52]
G2 I-0.00425 J0
G1 Z[#50+11*#52]
G2 I-0.00425 J0
G1 Z[#50+10*#52]
G2 I-0.00425 J0
G1 Z[#50+9*#52]
G2 I-0.00425 J0
G1 Z[#50+8*#52]
G2 I-0.00425 J0
G1 Z[#50+7*#52]
G2 I-0.00425 J0
G1 Z[#50+6*#52]
G2 I-0.00425 J0
G1 Z[#50+5*#52]
G2 I-0.00425 J0
G1 Z[#50+4*#52]
G2 I-0.00425 J0
G1 Z[#50+3*#52]
G2 I-0.00425 J0
G1 Z[#50+2*#52]
G2 I-0.00425 J0
G1 Z[#50+1*#52]
G2 I-0.00425 J0
G1 Z[#50+0*#52]
G2 I-0.00425 J0
G0 Z0.19685

G0 X1.96355 Y2.11010
G1 Z[#50+30*#52]
G2 I-0.00425 J0
G1 Z[#50+29*#52]
G2 I-0.00425 J0
G1 Z[#50+28*#52]
G2 I-0.00425 J0
G1 Z[#50+27*#52]
G2 I-0.00425 J0
G1 Z[#50+26*#52]
G2 I-0.00425 J0
G1 Z[#50+25*#52]
G2 I-0.00425 J0
G1 Z[#50+24*#52]
G2 I-0.00425 J0
G1 Z[#50+23*#52]
G2 I-0.00425 J0
G1 Z[#50+22*#52]
G2 I-0.00425 J0
G1 Z[#50+21*#52]
G2 I-0.00425 J0
G1 Z[#50+20*#52]
G2 I-0.00425 J0
G1 Z[#50+19*#52]
G2 I-0.00425 J0
G1 Z[#50+18*#52]
G2 I-0.00425 J0
G1 Z[#50+17*#52]
G2 I-0.00425 J0
G1 Z[#50+16*#52]
G2 I-0.00425 J0
G1 Z[#50+15*#52]
G2 I-0.00425 J0
G1 Z[#50+14*#52]
G2 I-0.00425 J0
G1 Z[#50+13*#52]
G2 I-0.00425 J0
G1 Z[#50+12*#52]
G2 I-0.00425 J0
G1 Z[#50+11*#52]
G2 I-0.00425 J0
G1 Z[#50+10*#52]
G2 I-0.00425 J0
G1 Z[#50+9*#52]
G2 I-0.00425 J0
G1 Z[#50+8*#52]
G2 I-0.00425 J0
G1 Z[#50+7*#52]
G2 I-0.00425 J0
G1 Z[#50+6*#52]
G2 I-0.00425 J0
G1 Z[#50+5*#52]
G2 I-0.00425 J0
G1 Z[#50+4*#52]
G2 I-0.00425 J0
G1 Z[#50+3*#52]
G2 I-0.00425 J0
G1 Z[#50+2*#52]
G2 I-0.00425 J0
G1 Z[#50+1*#52]
G2 I-0.00425 J0
G1 Z[#50+0*#52]
G2 I-0.00425 J0
G0 Z0.19685

G0 X2.06355 Y2.11010
G1 Z[#50+30*#52]
G2 I-0.00425 J0
G1 Z[#50+29*#52]
G2 I-0.00425 J0
G1 Z[#50+28*#52]
G2 I-0.00425 J0
G1 Z[#50+27*#52]
G2 I-0.00425 J0
G1 Z[#50+26*#52]
G2 I-0.00425 J0
G1 Z[#50+25*#52]
G2 I-0.00425 J0
G1 Z[#50+24*#52]
G2 I-0.00425 J0
G1 Z[#50+23*#52]
G2 I-0.00425 J0
G1 Z[#50+22*#52]
G2 I-0.00425 J0
G1 Z[#50+21*#52]
G2 I-0.00425 J0
G1 Z[#50+20*#52]
G2 I-0.00425 J0
G1 Z[#50+19*#52]
G2 I-0.00425 J0
G1 Z[#50+18*#52]
G2 I-0.00425 J0
G1 Z[#50+17*#52]
G2 I-0.00425 J0
G1 Z[#50+16*#52]
G2 I-0.00425 J0
G1 Z[#50+15*#52]
G2 I-0.00425 J0
G1 Z[#50+14*#52]
G2 I-0.00425 J0
G1 Z[#50+13*#52]
G2 I-0.00425 J0
G1 Z[#50+12*#52]
G2 I-0.00425 J0
G1 Z[#50+11*#52]
G2 I-0.00425 J0
G1 Z[#50+10*#52]
G2 I-0.00425 J0
G1 Z[#50+9*#52]
G2 I-0.00425 J0
G1 Z[#50+8*#52]
G2 I-0.00425 J0
G1 Z[#50+7*#52]
G2 I-0.00425 J0
G1 Z[#50+6*#52]
G2 I-0.00425 J0
G1 Z[#50+5*#52]
G2 I-0.00425 J0
G1 Z[#50+4*#52]
G2 I-0.00425 J0
G1 Z[#50+3*#52]
G2 I-0.00425 J0
G1 Z[#50+2*#52]
G2 I-0.00425 J0
G1 Z[#50+1*#52]
G2 I-0.00425 J0
G1 Z[#50+0*#52]
G2 I-0.00425 J0
G0 Z0.19685

G0 X2.16355 Y2.11010
G1 Z[#50+30*#52]
G2 I-0.00425 J0
G1 Z[#50+29*#52]
G2 I-0.00425 J0
G1 Z[#50+28*#52]
G2 I-0.00425 J0
G1 Z[#50+27*#52]
G2 I-0.00425 J0
G1 Z[#50+26*#52]
G2 I-0.00425 J0
G1 Z[#50+25*#52]
G2 I-0.00425 J0
G1 Z[#50+24*#52]
G2 I-0.00425 J0
G1 Z[#50+23*#52]
G2 I-0.00425 J0
G1 Z[#50+22*#52]
G2 I-0.00425 J0
G1 Z[#50+21*#52]
G2 I-0.00425 J0
G1 Z[#50+20*#52]
G2 I-0.00425 J0
G1 Z[#50+19*#52]
G2 I-0.00425 J0
G1 Z[#50+18*#52]
G2 I-0.00425 J0
G1 Z[#50+17*#52]
G2 I-0.00425 J0
G1 Z[#50+16*#52]
G2 I-0.00425 J0
G1 Z[#50+15*#52]
G2 I-0.00425 J0
G1 Z[#50+14*#52]
G2 I-0.00425 J0
G1 Z[#50+13*#52]
G2 I-0.00425 J0
G1 Z[#50+12*#52]
G2 I-0.00425 J0
G1 Z[#50+11*#52]
G2 I-0.00425 J0
G1 Z[#50+10*#52]
G2 I-0.00425 J0
G1 Z[#50+9*#52]
G2 I-0.00425 J0
G1 Z[#50+8*#52]
G2 I-0.00425 J0
G1 Z[#50+7*#52]
G2 I-0.00425 J0
G1 Z[#50+6*#52]
G2 I-0.00425 J0
G1 Z[#50+5*#52]
G2 I-0.00425 J0
G1 Z[#50+4*#52]
G2 I-0.00425 J0
G1 Z[#50+3*#52]
G2 I-0.00425 J0
G1 Z[#50+2*#52]
G2 I-0.00425 J0
G1 Z[#50+1*#52]
G2 I-0.00425 J0
G1 Z[#50+0*#52]
G2 I-0.00425 J0
G0 Z0.19685

G0 X2.26355 Y2.11010
G1 Z[#50+30*#52]
G2 I-0.00425 J0
G1 Z[#50+29*#52]
G2 I-0.00425 J0
G1 Z[#50+28*#52]
G2 I-0.00425 J0
G1 Z[#50+27*#52]
G2 I-0.00425 J0
G1 Z[#50+26*#52]
G2 I-0.00425 J0
G1 Z[#50+25*#52]
G2 I-0.00425 J0
G1 Z[#50+24*#52]
G2 I-0.00425 J0
G1 Z[#50+23*#52]
G2 I-0.00425 J0
G1 Z[#50+22*#52]
G2 I-0.00425 J0
G1 Z[#50+21*#52]
G2 I-0.00425 J0
G1 Z[#50+20*#52]
G2 I-0.00425 J0
G1 Z[#50+19*#52]
G2 I-0.00425 J0
G1 Z[#50+18*#52]
G2 I-0.00425 J0
G1 Z[#50+17*#52]
G2 I-0.00425 J0
G1 Z[#50+16*#52]
G2 I-0.00425 J0
G1 Z[#50+15*#52]
G2 I-0.00425 J0
G1 Z[#50+14*#52]
G2 I-0.00425 J0
G1 Z[#50+13*#52]
G2 I-0.00425 J0
G1 Z[#50+12*#52]
G2 I-0.00425 J0
G1 Z[#50+11*#52]
G2 I-0.00425 J0
G1 Z[#50+10*#52]
G2 I-0.00425 J0
G1 Z[#50+9*#52]
G2 I-0.00425 J0
G1 Z[#50+8*#52]
G2 I-0.00425 J0
G1 Z[#50+7*#52]
G2 I-0.00425 J0
G1 Z[#50+6*#52]
G2 I-0.00425 J0
G1 Z[#50+5*#52]
G2 I-0.00425 J0
G1 Z[#50+4*#52]
G2 I-0.00425 J0
G1 Z[#50+3*#52]
G2 I-0.00425 J0
G1 Z[#50+2*#52]
G2 I-0.00425 J0
G1 Z[#50+1*#52]
G2 I-0.00425 J0
G1 Z[#50+0*#52]
G2 I-0.00425 J0
G0 Z0.19685

G0 X2.36355 Y2.11010
G1 Z[#50+30*#52]
G2 I-0.00425 J0
G1 Z[#50+29*#52]
G2 I-0.00425 J0
G1 Z[#50+28*#52]
G2 I-0.00425 J0
G1 Z[#50+27*#52]
G2 I-0.00425 J0
G1 Z[#50+26*#52]
G2 I-0.00425 J0
G1 Z[#50+25*#52]
G2 I-0.00425 J0
G1 Z[#50+24*#52]
G2 I-0.00425 J0
G1 Z[#50+23*#52]
G2 I-0.00425 J0
G1 Z[#50+22*#52]
G2 I-0.00425 J0
G1 Z[#50+21*#52]
G2 I-0.00425 J0
G1 Z[#50+20*#52]
G2 I-0.00425 J0
G1 Z[#50+19*#52]
G2 I-0.00425 J0
G1 Z[#50+18*#52]
G2 I-0.00425 J0
G1 Z[#50+17*#52]
G2 I-0.00425 J0
G1 Z[#50+16*#52]
G2 I-0.00425 J0
G1 Z[#50+15*#52]
G2 I-0.00425 J0
G1 Z[#50+14*#52]
G2 I-0.00425 J0
G1 Z[#50+13*#52]
G2 I-0.00425 J0
G1 Z[#50+12*#52]
G2 I-0.00425 J0
G1 Z[#50+11*#52]
G2 I-0.00425 J0
G1 Z[#50+10*#52]
G2 I-0.00425 J0
G1 Z[#50+9*#52]
G2 I-0.00425 J0
G1 Z[#50+8*#52]
G2 I-0.00425 J0
G1 Z[#50+7*#52]
G2 I-0.00425 J0
G1 Z[#50+6*#52]
G2 I-0.00425 J0
G1 Z[#50+5*#52]
G2 I-0.00425 J0
G1 Z[#50+4*#52]
G2 I-0.00425 J0
G1 Z[#50+3*#52]
G2 I-0.00425 J0
G1 Z[#50+2*#52]
G2 I-0.00425 J0
G1 Z[#50+1*#52]
G2 I-0.00425 J0
G1 Z[#50+0*#52]
G2 I-0.00425 J0
G0 Z0.19685

G0 X2.36355 Y1.96510
G1 Z[#50+30*#52]
G2 I-0.00425 J0
G1 Z[#50+29*#52]
G2 I-0.00425 J0
G1 Z[#50+28*#52]
G2 I-0.00425 J0
G1 Z[#50+27*#52]
G2 I-0.00425 J0
G1 Z[#50+26*#52]
G2 I-0.00425 J0
G1 Z[#50+25*#52]
G2 I-0.00425 J0
G1 Z[#50+24*#52]
G2 I-0.00425 J0
G1 Z[#50+23*#52]
G2 I-0.00425 J0
G1 Z[#50+22*#52]
G2 I-0.00425 J0
G1 Z[#50+21*#52]
G2 I-0.00425 J0
G1 Z[#50+20*#52]
G2 I-0.00425 J0
G1 Z[#50+19*#52]
G2 I-0.00425 J0
G1 Z[#50+18*#52]
G2 I-0.00425 J0
G1 Z[#50+17*#52]
G2 I-0.00425 J0
G1 Z[#50+16*#52]
G2 I-0.00425 J0
G1 Z[#50+15*#52]
G2 I-0.00425 J0
G1 Z[#50+14*#52]
G2 I-0.00425 J0
G1 Z[#50+13*#52]
G2 I-0.00425 J0
G1 Z[#50+12*#52]
G2 I-0.00425 J0
G1 Z[#50+11*#52]
G2 I-0.00425 J0
G1 Z[#50+10*#52]
G2 I-0.00425 J0
G1 Z[#50+9*#52]
G2 I-0.00425 J0
G1 Z[#50+8*#52]
G2 I-0.00425 J0
G1 Z[#50+7*#52]
G2 I-0.00425 J0
G1 Z[#50+6*#52]
G2 I-0.00425 J0
G1 Z[#50+5*#52]
G2 I-0.00425 J0
G1 Z[#50+4*#52]
G2 I-0.00425 J0
G1 Z[#50+3*#52]
G2 I-0.00425 J0
G1 Z[#50+2*#52]
G2 I-0.00425 J0
G1 Z[#50+1*#52]
G2 I-0.00425 J0
G1 Z[#50+0*#52]
G2 I-0.00425 J0
G0 Z0.19685

G0 X2.36355 Y1.85510
G1 Z[#50+30*#52]
G2 I-0.00425 J0
G1 Z[#50+29*#52]
G2 I-0.00425 J0
G1 Z[#50+28*#52]
G2 I-0.00425 J0
G1 Z[#50+27*#52]
G2 I-0.00425 J0
G1 Z[#50+26*#52]
G2 I-0.00425 J0
G1 Z[#50+25*#52]
G2 I-0.00425 J0
G1 Z[#50+24*#52]
G2 I-0.00425 J0
G1 Z[#50+23*#52]
G2 I-0.00425 J0
G1 Z[#50+22*#52]
G2 I-0.00425 J0
G1 Z[#50+21*#52]
G2 I-0.00425 J0
G1 Z[#50+20*#52]
G2 I-0.00425 J0
G1 Z[#50+19*#52]
G2 I-0.00425 J0
G1 Z[#50+18*#52]
G2 I-0.00425 J0
G1 Z[#50+17*#52]
G2 I-0.00425 J0
G1 Z[#50+16*#52]
G2 I-0.00425 J0
G1 Z[#50+15*#52]
G2 I-0.00425 J0
G1 Z[#50+14*#52]
G2 I-0.00425 J0
G1 Z[#50+13*#52]
G2 I-0.00425 J0
G1 Z[#50+12*#52]
G2 I-0.00425 J0
G1 Z[#50+11*#52]
G2 I-0.00425 J0
G1 Z[#50+10*#52]
G2 I-0.00425 J0
G1 Z[#50+9*#52]
G2 I-0.00425 J0
G1 Z[#50+8*#52]
G2 I-0.00425 J0
G1 Z[#50+7*#52]
G2 I-0.00425 J0
G1 Z[#50+6*#52]
G2 I-0.00425 J0
G1 Z[#50+5*#52]
G2 I-0.00425 J0
G1 Z[#50+4*#52]
G2 I-0.00425 J0
G1 Z[#50+3*#52]
G2 I-0.00425 J0
G1 Z[#50+2*#52]
G2 I-0.00425 J0
G1 Z[#50+1*#52]
G2 I-0.00425 J0
G1 Z[#50+0*#52]
G2 I-0.00425 J0
G0 Z0.19685

G0 X2.15855 Y1.66010
G1 Z[#50+30*#52]
G2 I-0.00425 J0
G1 Z[#50+29*#52]
G2 I-0.00425 J0
G1 Z[#50+28*#52]
G2 I-0.00425 J0
G1 Z[#50+27*#52]
G2 I-0.00425 J0
G1 Z[#50+26*#52]
G2 I-0.00425 J0
G1 Z[#50+25*#52]
G2 I-0.00425 J0
G1 Z[#50+24*#52]
G2 I-0.00425 J0
G1 Z[#50+23*#52]
G2 I-0.00425 J0
G1 Z[#50+22*#52]
G2 I-0.00425 J0
G1 Z[#50+21*#52]
G2 I-0.00425 J0
G1 Z[#50+20*#52]
G2 I-0.00425 J0
G1 Z[#50+19*#52]
G2 I-0.00425 J0
G1 Z[#50+18*#52]
G2 I-0.00425 J0
G1 Z[#50+17*#52]
G2 I-0.00425 J0
G1 Z[#50+16*#52]
G2 I-0.00425 J0
G1 Z[#50+15*#52]
G2 I-0.00425 J0
G1 Z[#50+14*#52]
G2 I-0.00425 J0
G1 Z[#50+13*#52]
G2 I-0.00425 J0
G1 Z[#50+12*#52]
G2 I-0.00425 J0
G1 Z[#50+11*#52]
G2 I-0.00425 J0
G1 Z[#50+10*#52]
G2 I-0.00425 J0
G1 Z[#50+9*#52]
G2 I-0.00425 J0
G1 Z[#50+8*#52]
G2 I-0.00425 J0
G1 Z[#50+7*#52]
G2 I-0.00425 J0
G1 Z[#50+6*#52]
G2 I-0.00425 J0
G1 Z[#50+5*#52]
G2 I-0.00425 J0
G1 Z[#50+4*#52]
G2 I-0.00425 J0
G1 Z[#50+3*#52]
G2 I-0.00425 J0
G1 Z[#50+2*#52]
G2 I-0.00425 J0
G1 Z[#50+1*#52]
G2 I-0.00425 J0
G1 Z[#50+0*#52]
G2 I-0.00425 J0
G0 Z0.19685

G0 X2.16855 Y1.56010
G1 Z[#50+30*#52]
G2 I-0.00425 J0
G1 Z[#50+29*#52]
G2 I-0.00425 J0
G1 Z[#50+28*#52]
G2 I-0.00425 J0
G1 Z[#50+27*#52]
G2 I-0.00425 J0
G1 Z[#50+26*#52]
G2 I-0.00425 J0
G1 Z[#50+25*#52]
G2 I-0.00425 J0
G1 Z[#50+24*#52]
G2 I-0.00425 J0
G1 Z[#50+23*#52]
G2 I-0.00425 J0
G1 Z[#50+22*#52]
G2 I-0.00425 J0
G1 Z[#50+21*#52]
G2 I-0.00425 J0
G1 Z[#50+20*#52]
G2 I-0.00425 J0
G1 Z[#50+19*#52]
G2 I-0.00425 J0
G1 Z[#50+18*#52]
G2 I-0.00425 J0
G1 Z[#50+17*#52]
G2 I-0.00425 J0
G1 Z[#50+16*#52]
G2 I-0.00425 J0
G1 Z[#50+15*#52]
G2 I-0.00425 J0
G1 Z[#50+14*#52]
G2 I-0.00425 J0
G1 Z[#50+13*#52]
G2 I-0.00425 J0
G1 Z[#50+12*#52]
G2 I-0.00425 J0
G1 Z[#50+11*#52]
G2 I-0.00425 J0
G1 Z[#50+10*#52]
G2 I-0.00425 J0
G1 Z[#50+9*#52]
G2 I-0.00425 J0
G1 Z[#50+8*#52]
G2 I-0.00425 J0
G1 Z[#50+7*#52]
G2 I-0.00425 J0
G1 Z[#50+6*#52]
G2 I-0.00425 J0
G1 Z[#50+5*#52]
G2 I-0.00425 J0
G1 Z[#50+4*#52]
G2 I-0.00425 J0
G1 Z[#50+3*#52]
G2 I-0.00425 J0
G1 Z[#50+2*#52]
G2 I-0.00425 J0
G1 Z[#50+1*#52]
G2 I-0.00425 J0
G1 Z[#50+0*#52]
G2 I-0.00425 J0
G0 Z0.19685

G0 X2.15855 Y1.46010
G1 Z[#50+30*#52]
G2 I-0.00425 J0
G1 Z[#50+29*#52]
G2 I-0.00425 J0
G1 Z[#50+28*#52]
G2 I-0.00425 J0
G1 Z[#50+27*#52]
G2 I-0.00425 J0
G1 Z[#50+26*#52]
G2 I-0.00425 J0
G1 Z[#50+25*#52]
G2 I-0.00425 J0
G1 Z[#50+24*#52]
G2 I-0.00425 J0
G1 Z[#50+23*#52]
G2 I-0.00425 J0
G1 Z[#50+22*#52]
G2 I-0.00425 J0
G1 Z[#50+21*#52]
G2 I-0.00425 J0
G1 Z[#50+20*#52]
G2 I-0.00425 J0
G1 Z[#50+19*#52]
G2 I-0.00425 J0
G1 Z[#50+18*#52]
G2 I-0.00425 J0
G1 Z[#50+17*#52]
G2 I-0.00425 J0
G1 Z[#50+16*#52]
G2 I-0.00425 J0
G1 Z[#50+15*#52]
G2 I-0.00425 J0
G1 Z[#50+14*#52]
G2 I-0.00425 J0
G1 Z[#50+13*#52]
G2 I-0.00425 J0
G1 Z[#50+12*#52]
G2 I-0.00425 J0
G1 Z[#50+11*#52]
G2 I-0.00425 J0
G1 Z[#50+10*#52]
G2 I-0.00425 J0
G1 Z[#50+9*#52]
G2 I-0.00425 J0
G1 Z[#50+8*#52]
G2 I-0.00425 J0
G1 Z[#50+7*#52]
G2 I-0.00425 J0
G1 Z[#50+6*#52]
G2 I-0.00425 J0
G1 Z[#50+5*#52]
G2 I-0.00425 J0
G1 Z[#50+4*#52]
G2 I-0.00425 J0
G1 Z[#50+3*#52]
G2 I-0.00425 J0
G1 Z[#50+2*#52]
G2 I-0.00425 J0
G1 Z[#50+1*#52]
G2 I-0.00425 J0
G1 Z[#50+0*#52]
G2 I-0.00425 J0
G0 Z0.19685

G0 X2.16855 Y1.36010
G1 Z[#50+30*#52]
G2 I-0.00425 J0
G1 Z[#50+29*#52]
G2 I-0.00425 J0
G1 Z[#50+28*#52]
G2 I-0.00425 J0
G1 Z[#50+27*#52]
G2 I-0.00425 J0
G1 Z[#50+26*#52]
G2 I-0.00425 J0
G1 Z[#50+25*#52]
G2 I-0.00425 J0
G1 Z[#50+24*#52]
G2 I-0.00425 J0
G1 Z[#50+23*#52]
G2 I-0.00425 J0
G1 Z[#50+22*#52]
G2 I-0.00425 J0
G1 Z[#50+21*#52]
G2 I-0.00425 J0
G1 Z[#50+20*#52]
G2 I-0.00425 J0
G1 Z[#50+19*#52]
G2 I-0.00425 J0
G1 Z[#50+18*#52]
G2 I-0.00425 J0
G1 Z[#50+17*#52]
G2 I-0.00425 J0
G1 Z[#50+16*#52]
G2 I-0.00425 J0
G1 Z[#50+15*#52]
G2 I-0.00425 J0
G1 Z[#50+14*#52]
G2 I-0.00425 J0
G1 Z[#50+13*#52]
G2 I-0.00425 J0
G1 Z[#50+12*#52]
G2 I-0.00425 J0
G1 Z[#50+11*#52]
G2 I-0.00425 J0
G1 Z[#50+10*#52]
G2 I-0.00425 J0
G1 Z[#50+9*#52]
G2 I-0.00425 J0
G1 Z[#50+8*#52]
G2 I-0.00425 J0
G1 Z[#50+7*#52]
G2 I-0.00425 J0
G1 Z[#50+6*#52]
G2 I-0.00425 J0
G1 Z[#50+5*#52]
G2 I-0.00425 J0
G1 Z[#50+4*#52]
G2 I-0.00425 J0
G1 Z[#50+3*#52]
G2 I-0.00425 J0
G1 Z[#50+2*#52]
G2 I-0.00425 J0
G1 Z[#50+1*#52]
G2 I-0.00425 J0
G1 Z[#50+0*#52]
G2 I-0.00425 J0
G0 Z0.19685

G0 X2.06355 Y1.61010
G1 Z[#50+30*#52]
G2 I-0.00425 J0
G1 Z[#50+29*#52]
G2 I-0.00425 J0
G1 Z[#50+28*#52]
G2 I-0.00425 J0
G1 Z[#50+27*#52]
G2 I-0.00425 J0
G1 Z[#50+26*#52]
G2 I-0.00425 J0
G1 Z[#50+25*#52]
G2 I-0.00425 J0
G1 Z[#50+24*#52]
G2 I-0.00425 J0
G1 Z[#50+23*#52]
G2 I-0.00425 J0
G1 Z[#50+22*#52]
G2 I-0.00425 J0
G1 Z[#50+21*#52]
G2 I-0.00425 J0
G1 Z[#50+20*#52]
G2 I-0.00425 J0
G1 Z[#50+19*#52]
G2 I-0.00425 J0
G1 Z[#50+18*#52]
G2 I-0.00425 J0
G1 Z[#50+17*#52]
G2 I-0.00425 J0
G1 Z[#50+16*#52]
G2 I-0.00425 J0
G1 Z[#50+15*#52]
G2 I-0.00425 J0
G1 Z[#50+14*#52]
G2 I-0.00425 J0
G1 Z[#50+13*#52]
G2 I-0.00425 J0
G1 Z[#50+12*#52]
G2 I-0.00425 J0
G1 Z[#50+11*#52]
G2 I-0.00425 J0
G1 Z[#50+10*#52]
G2 I-0.00425 J0
G1 Z[#50+9*#52]
G2 I-0.00425 J0
G1 Z[#50+8*#52]
G2 I-0.00425 J0
G1 Z[#50+7*#52]
G2 I-0.00425 J0
G1 Z[#50+6*#52]
G2 I-0.00425 J0
G1 Z[#50+5*#52]
G2 I-0.00425 J0
G1 Z[#50+4*#52]
G2 I-0.00425 J0
G1 Z[#50+3*#52]
G2 I-0.00425 J0
G1 Z[#50+2*#52]
G2 I-0.00425 J0
G1 Z[#50+1*#52]
G2 I-0.00425 J0
G1 Z[#50+0*#52]
G2 I-0.00425 J0
G0 Z0.19685

G0 X2.15855 Y0.46010
G1 Z[#50+30*#52]
G2 I-0.00425 J0
G1 Z[#50+29*#52]
G2 I-0.00425 J0
G1 Z[#50+28*#52]
G2 I-0.00425 J0
G1 Z[#50+27*#52]
G2 I-0.00425 J0
G1 Z[#50+26*#52]
G2 I-0.00425 J0
G1 Z[#50+25*#52]
G2 I-0.00425 J0
G1 Z[#50+24*#52]
G2 I-0.00425 J0
G1 Z[#50+23*#52]
G2 I-0.00425 J0
G1 Z[#50+22*#52]
G2 I-0.00425 J0
G1 Z[#50+21*#52]
G2 I-0.00425 J0
G1 Z[#50+20*#52]
G2 I-0.00425 J0
G1 Z[#50+19*#52]
G2 I-0.00425 J0
G1 Z[#50+18*#52]
G2 I-0.00425 J0
G1 Z[#50+17*#52]
G2 I-0.00425 J0
G1 Z[#50+16*#52]
G2 I-0.00425 J0
G1 Z[#50+15*#52]
G2 I-0.00425 J0
G1 Z[#50+14*#52]
G2 I-0.00425 J0
G1 Z[#50+13*#52]
G2 I-0.00425 J0
G1 Z[#50+12*#52]
G2 I-0.00425 J0
G1 Z[#50+11*#52]
G2 I-0.00425 J0
G1 Z[#50+10*#52]
G2 I-0.00425 J0
G1 Z[#50+9*#52]
G2 I-0.00425 J0
G1 Z[#50+8*#52]
G2 I-0.00425 J0
G1 Z[#50+7*#52]
G2 I-0.00425 J0
G1 Z[#50+6*#52]
G2 I-0.00425 J0
G1 Z[#50+5*#52]
G2 I-0.00425 J0
G1 Z[#50+4*#52]
G2 I-0.00425 J0
G1 Z[#50+3*#52]
G2 I-0.00425 J0
G1 Z[#50+2*#52]
G2 I-0.00425 J0
G1 Z[#50+1*#52]
G2 I-0.00425 J0
G1 Z[#50+0*#52]
G2 I-0.00425 J0
G0 Z0.19685

G0 X2.16855 Y0.36010
G1 Z[#50+30*#52]
G2 I-0.00425 J0
G1 Z[#50+29*#52]
G2 I-0.00425 J0
G1 Z[#50+28*#52]
G2 I-0.00425 J0
G1 Z[#50+27*#52]
G2 I-0.00425 J0
G1 Z[#50+26*#52]
G2 I-0.00425 J0
G1 Z[#50+25*#52]
G2 I-0.00425 J0
G1 Z[#50+24*#52]
G2 I-0.00425 J0
G1 Z[#50+23*#52]
G2 I-0.00425 J0
G1 Z[#50+22*#52]
G2 I-0.00425 J0
G1 Z[#50+21*#52]
G2 I-0.00425 J0
G1 Z[#50+20*#52]
G2 I-0.00425 J0
G1 Z[#50+19*#52]
G2 I-0.00425 J0
G1 Z[#50+18*#52]
G2 I-0.00425 J0
G1 Z[#50+17*#52]
G2 I-0.00425 J0
G1 Z[#50+16*#52]
G2 I-0.00425 J0
G1 Z[#50+15*#52]
G2 I-0.00425 J0
G1 Z[#50+14*#52]
G2 I-0.00425 J0
G1 Z[#50+13*#52]
G2 I-0.00425 J0
G1 Z[#50+12*#52]
G2 I-0.00425 J0
G1 Z[#50+11*#52]
G2 I-0.00425 J0
G1 Z[#50+10*#52]
G2 I-0.00425 J0
G1 Z[#50+9*#52]
G2 I-0.00425 J0
G1 Z[#50+8*#52]
G2 I-0.00425 J0
G1 Z[#50+7*#52]
G2 I-0.00425 J0
G1 Z[#50+6*#52]
G2 I-0.00425 J0
G1 Z[#50+5*#52]
G2 I-0.00425 J0
G1 Z[#50+4*#52]
G2 I-0.00425 J0
G1 Z[#50+3*#52]
G2 I-0.00425 J0
G1 Z[#50+2*#52]
G2 I-0.00425 J0
G1 Z[#50+1*#52]
G2 I-0.00425 J0
G1 Z[#50+0*#52]
G2 I-0.00425 J0
G0 Z0.19685

G0 X2.15855 Y0.26010
G1 Z[#50+30*#52]
G2 I-0.00425 J0
G1 Z[#50+29*#52]
G2 I-0.00425 J0
G1 Z[#50+28*#52]
G2 I-0.00425 J0
G1 Z[#50+27*#52]
G2 I-0.00425 J0
G1 Z[#50+26*#52]
G2 I-0.00425 J0
G1 Z[#50+25*#52]
G2 I-0.00425 J0
G1 Z[#50+24*#52]
G2 I-0.00425 J0
G1 Z[#50+23*#52]
G2 I-0.00425 J0
G1 Z[#50+22*#52]
G2 I-0.00425 J0
G1 Z[#50+21*#52]
G2 I-0.00425 J0
G1 Z[#50+20*#52]
G2 I-0.00425 J0
G1 Z[#50+19*#52]
G2 I-0.00425 J0
G1 Z[#50+18*#52]
G2 I-0.00425 J0
G1 Z[#50+17*#52]
G2 I-0.00425 J0
G1 Z[#50+16*#52]
G2 I-0.00425 J0
G1 Z[#50+15*#52]
G2 I-0.00425 J0
G1 Z[#50+14*#52]
G2 I-0.00425 J0
G1 Z[#50+13*#52]
G2 I-0.00425 J0
G1 Z[#50+12*#52]
G2 I-0.00425 J0
G1 Z[#50+11*#52]
G2 I-0.00425 J0
G1 Z[#50+10*#52]
G2 I-0.00425 J0
G1 Z[#50+9*#52]
G2 I-0.00425 J0
G1 Z[#50+8*#52]
G2 I-0.00425 J0
G1 Z[#50+7*#52]
G2 I-0.00425 J0
G1 Z[#50+6*#52]
G2 I-0.00425 J0
G1 Z[#50+5*#52]
G2 I-0.00425 J0
G1 Z[#50+4*#52]
G2 I-0.00425 J0
G1 Z[#50+3*#52]
G2 I-0.00425 J0
G1 Z[#50+2*#52]
G2 I-0.00425 J0
G1 Z[#50+1*#52]
G2 I-0.00425 J0
G1 Z[#50+0*#52]
G2 I-0.00425 J0
G0 Z0.19685

G0 X2.16855 Y0.16010
G1 Z[#50+30*#52]
G2 I-0.00425 J0
G1 Z[#50+29*#52]
G2 I-0.00425 J0
G1 Z[#50+28*#52]
G2 I-0.00425 J0
G1 Z[#50+27*#52]
G2 I-0.00425 J0
G1 Z[#50+26*#52]
G2 I-0.00425 J0
G1 Z[#50+25*#52]
G2 I-0.00425 J0
G1 Z[#50+24*#52]
G2 I-0.00425 J0
G1 Z[#50+23*#52]
G2 I-0.00425 J0
G1 Z[#50+22*#52]
G2 I-0.00425 J0
G1 Z[#50+21*#52]
G2 I-0.00425 J0
G1 Z[#50+20*#52]
G2 I-0.00425 J0
G1 Z[#50+19*#52]
G2 I-0.00425 J0
G1 Z[#50+18*#52]
G2 I-0.00425 J0
G1 Z[#50+17*#52]
G2 I-0.00425 J0
G1 Z[#50+16*#52]
G2 I-0.00425 J0
G1 Z[#50+15*#52]
G2 I-0.00425 J0
G1 Z[#50+14*#52]
G2 I-0.00425 J0
G1 Z[#50+13*#52]
G2 I-0.00425 J0
G1 Z[#50+12*#52]
G2 I-0.00425 J0
G1 Z[#50+11*#52]
G2 I-0.00425 J0
G1 Z[#50+10*#52]
G2 I-0.00425 J0
G1 Z[#50+9*#52]
G2 I-0.00425 J0
G1 Z[#50+8*#52]
G2 I-0.00425 J0
G1 Z[#50+7*#52]
G2 I-0.00425 J0
G1 Z[#50+6*#52]
G2 I-0.00425 J0
G1 Z[#50+5*#52]
G2 I-0.00425 J0
G1 Z[#50+4*#52]
G2 I-0.00425 J0
G1 Z[#50+3*#52]
G2 I-0.00425 J0
G1 Z[#50+2*#52]
G2 I-0.00425 J0
G1 Z[#50+1*#52]
G2 I-0.00425 J0
G1 Z[#50+0*#52]
G2 I-0.00425 J0
G0 Z0.19685

G0 X1.71355 Y0.16010
G1 Z[#50+30*#52]
G2 I-0.00425 J0
G1 Z[#50+29*#52]
G2 I-0.00425 J0
G1 Z[#50+28*#52]
G2 I-0.00425 J0
G1 Z[#50+27*#52]
G2 I-0.00425 J0
G1 Z[#50+26*#52]
G2 I-0.00425 J0
G1 Z[#50+25*#52]
G2 I-0.00425 J0
G1 Z[#50+24*#52]
G2 I-0.00425 J0
G1 Z[#50+23*#52]
G2 I-0.00425 J0
G1 Z[#50+22*#52]
G2 I-0.00425 J0
G1 Z[#50+21*#52]
G2 I-0.00425 J0
G1 Z[#50+20*#52]
G2 I-0.00425 J0
G1 Z[#50+19*#52]
G2 I-0.00425 J0
G1 Z[#50+18*#52]
G2 I-0.00425 J0
G1 Z[#50+17*#52]
G2 I-0.00425 J0
G1 Z[#50+16*#52]
G2 I-0.00425 J0
G1 Z[#50+15*#52]
G2 I-0.00425 J0
G1 Z[#50+14*#52]
G2 I-0.00425 J0
G1 Z[#50+13*#52]
G2 I-0.00425 J0
G1 Z[#50+12*#52]
G2 I-0.00425 J0
G1 Z[#50+11*#52]
G2 I-0.00425 J0
G1 Z[#50+10*#52]
G2 I-0.00425 J0
G1 Z[#50+9*#52]
G2 I-0.00425 J0
G1 Z[#50+8*#52]
G2 I-0.00425 J0
G1 Z[#50+7*#52]
G2 I-0.00425 J0
G1 Z[#50+6*#52]
G2 I-0.00425 J0
G1 Z[#50+5*#52]
G2 I-0.00425 J0
G1 Z[#50+4*#52]
G2 I-0.00425 J0
G1 Z[#50+3*#52]
G2 I-0.00425 J0
G1 Z[#50+2*#52]
G2 I-0.00425 J0
G1 Z[#50+1*#52]
G2 I-0.00425 J0
G1 Z[#50+0*#52]
G2 I-0.00425 J0
G0 Z0.19685

G0 X1.61355 Y0.16010
G1 Z[#50+30*#52]
G2 I-0.00425 J0
G1 Z[#50+29*#52]
G2 I-0.00425 J0
G1 Z[#50+28*#52]
G2 I-0.00425 J0
G1 Z[#50+27*#52]
G2 I-0.00425 J0
G1 Z[#50+26*#52]
G2 I-0.00425 J0
G1 Z[#50+25*#52]
G2 I-0.00425 J0
G1 Z[#50+24*#52]
G2 I-0.00425 J0
G1 Z[#50+23*#52]
G2 I-0.00425 J0
G1 Z[#50+22*#52]
G2 I-0.00425 J0
G1 Z[#50+21*#52]
G2 I-0.00425 J0
G1 Z[#50+20*#52]
G2 I-0.00425 J0
G1 Z[#50+19*#52]
G2 I-0.00425 J0
G1 Z[#50+18*#52]
G2 I-0.00425 J0
G1 Z[#50+17*#52]
G2 I-0.00425 J0
G1 Z[#50+16*#52]
G2 I-0.00425 J0
G1 Z[#50+15*#52]
G2 I-0.00425 J0
G1 Z[#50+14*#52]
G2 I-0.00425 J0
G1 Z[#50+13*#52]
G2 I-0.00425 J0
G1 Z[#50+12*#52]
G2 I-0.00425 J0
G1 Z[#50+11*#52]
G2 I-0.00425 J0
G1 Z[#50+10*#52]
G2 I-0.00425 J0
G1 Z[#50+9*#52]
G2 I-0.00425 J0
G1 Z[#50+8*#52]
G2 I-0.00425 J0
G1 Z[#50+7*#52]
G2 I-0.00425 J0
G1 Z[#50+6*#52]
G2 I-0.00425 J0
G1 Z[#50+5*#52]
G2 I-0.00425 J0
G1 Z[#50+4*#52]
G2 I-0.00425 J0
G1 Z[#50+3*#52]
G2 I-0.00425 J0
G1 Z[#50+2*#52]
G2 I-0.00425 J0
G1 Z[#50+1*#52]
G2 I-0.00425 J0
G1 Z[#50+0*#52]
G2 I-0.00425 J0
G0 Z0.19685

G0 X1.51355 Y0.16010
G1 Z[#50+30*#52]
G2 I-0.00425 J0
G1 Z[#50+29*#52]
G2 I-0.00425 J0
G1 Z[#50+28*#52]
G2 I-0.00425 J0
G1 Z[#50+27*#52]
G2 I-0.00425 J0
G1 Z[#50+26*#52]
G2 I-0.00425 J0
G1 Z[#50+25*#52]
G2 I-0.00425 J0
G1 Z[#50+24*#52]
G2 I-0.00425 J0
G1 Z[#50+23*#52]
G2 I-0.00425 J0
G1 Z[#50+22*#52]
G2 I-0.00425 J0
G1 Z[#50+21*#52]
G2 I-0.00425 J0
G1 Z[#50+20*#52]
G2 I-0.00425 J0
G1 Z[#50+19*#52]
G2 I-0.00425 J0
G1 Z[#50+18*#52]
G2 I-0.00425 J0
G1 Z[#50+17*#52]
G2 I-0.00425 J0
G1 Z[#50+16*#52]
G2 I-0.00425 J0
G1 Z[#50+15*#52]
G2 I-0.00425 J0
G1 Z[#50+14*#52]
G2 I-0.00425 J0
G1 Z[#50+13*#52]
G2 I-0.00425 J0
G1 Z[#50+12*#52]
G2 I-0.00425 J0
G1 Z[#50+11*#52]
G2 I-0.00425 J0
G1 Z[#50+10*#52]
G2 I-0.00425 J0
G1 Z[#50+9*#52]
G2 I-0.00425 J0
G1 Z[#50+8*#52]
G2 I-0.00425 J0
G1 Z[#50+7*#52]
G2 I-0.00425 J0
G1 Z[#50+6*#52]
G2 I-0.00425 J0
G1 Z[#50+5*#52]
G2 I-0.00425 J0
G1 Z[#50+4*#52]
G2 I-0.00425 J0
G1 Z[#50+3*#52]
G2 I-0.00425 J0
G1 Z[#50+2*#52]
G2 I-0.00425 J0
G1 Z[#50+1*#52]
G2 I-0.00425 J0
G1 Z[#50+0*#52]
G2 I-0.00425 J0
G0 Z0.19685

G0 X1.41355 Y0.16010
G1 Z[#50+30*#52]
G2 I-0.00425 J0
G1 Z[#50+29*#52]
G2 I-0.00425 J0
G1 Z[#50+28*#52]
G2 I-0.00425 J0
G1 Z[#50+27*#52]
G2 I-0.00425 J0
G1 Z[#50+26*#52]
G2 I-0.00425 J0
G1 Z[#50+25*#52]
G2 I-0.00425 J0
G1 Z[#50+24*#52]
G2 I-0.00425 J0
G1 Z[#50+23*#52]
G2 I-0.00425 J0
G1 Z[#50+22*#52]
G2 I-0.00425 J0
G1 Z[#50+21*#52]
G2 I-0.00425 J0
G1 Z[#50+20*#52]
G2 I-0.00425 J0
G1 Z[#50+19*#52]
G2 I-0.00425 J0
G1 Z[#50+18*#52]
G2 I-0.00425 J0
G1 Z[#50+17*#52]
G2 I-0.00425 J0
G1 Z[#50+16*#52]
G2 I-0.00425 J0
G1 Z[#50+15*#52]
G2 I-0.00425 J0
G1 Z[#50+14*#52]
G2 I-0.00425 J0
G1 Z[#50+13*#52]
G2 I-0.00425 J0
G1 Z[#50+12*#52]
G2 I-0.00425 J0
G1 Z[#50+11*#52]
G2 I-0.00425 J0
G1 Z[#50+10*#52]
G2 I-0.00425 J0
G1 Z[#50+9*#52]
G2 I-0.00425 J0
G1 Z[#50+8*#52]
G2 I-0.00425 J0
G1 Z[#50+7*#52]
G2 I-0.00425 J0
G1 Z[#50+6*#52]
G2 I-0.00425 J0
G1 Z[#50+5*#52]
G2 I-0.00425 J0
G1 Z[#50+4*#52]
G2 I-0.00425 J0
G1 Z[#50+3*#52]
G2 I-0.00425 J0
G1 Z[#50+2*#52]
G2 I-0.00425 J0
G1 Z[#50+1*#52]
G2 I-0.00425 J0
G1 Z[#50+0*#52]
G2 I-0.00425 J0
G0 Z0.19685

G0 X2.45655 Y0.11010
G1 Z[#50+30*#52]
G2 I-0.04725 J0
G1 Z[#50+29*#52]
G2 I-0.04725 J0
G1 Z[#50+28*#52]
G2 I-0.04725 J0
G1 Z[#50+27*#52]
G2 I-0.04725 J0
G1 Z[#50+26*#52]
G2 I-0.04725 J0
G1 Z[#50+25*#52]
G2 I-0.04725 J0
G1 Z[#50+24*#52]
G2 I-0.04725 J0
G1 Z[#50+23*#52]
G2 I-0.04725 J0
G1 Z[#50+22*#52]
G2 I-0.04725 J0
G1 Z[#50+21*#52]
G2 I-0.04725 J0
G1 Z[#50+20*#52]
G2 I-0.04725 J0
G1 Z[#50+19*#52]
G2 I-0.04725 J0
G1 Z[#50+18*#52]
G2 I-0.04725 J0
G1 Z[#50+17*#52]
G2 I-0.04725 J0
G1 Z[#50+16*#52]
G2 I-0.04725 J0
G1 Z[#50+15*#52]
G2 I-0.04725 J0
G1 Z[#50+14*#52]
G2 I-0.04725 J0
G1 Z[#50+13*#52]
G2 I-0.04725 J0
G1 Z[#50+12*#52]
G2 I-0.04725 J0
G1 Z[#50+11*#52]
G2 I-0.04725 J0
G1 Z[#50+10*#52]
G2 I-0.04725 J0
G1 Z[#50+9*#52]
G2 I-0.04725 J0
G1 Z[#50+8*#52]
G2 I-0.04725 J0
G1 Z[#50+7*#52]
G2 I-0.04725 J0
G1 Z[#50+6*#52]
G2 I-0.04725 J0
G1 Z[#50+5*#52]
G2 I-0.04725 J0
G1 Z[#50+4*#52]
G2 I-0.04725 J0
G1 Z[#50+3*#52]
G2 I-0.04725 J0
G1 Z[#50+2*#52]
G2 I-0.04725 J0
G1 Z[#50+1*#52]
G2 I-0.04725 J0
G1 Z[#50+0*#52]
G2 I-0.04725 J0
G0 Z0.19685

G0 X1.25655 Y0.21010
G1 Z[#50+30*#52]
G2 I-0.04725 J0
G1 Z[#50+29*#52]
G2 I-0.04725 J0
G1 Z[#50+28*#52]
G2 I-0.04725 J0
G1 Z[#50+27*#52]
G2 I-0.04725 J0
G1 Z[#50+26*#52]
G2 I-0.04725 J0
G1 Z[#50+25*#52]
G2 I-0.04725 J0
G1 Z[#50+24*#52]
G2 I-0.04725 J0
G1 Z[#50+23*#52]
G2 I-0.04725 J0
G1 Z[#50+22*#52]
G2 I-0.04725 J0
G1 Z[#50+21*#52]
G2 I-0.04725 J0
G1 Z[#50+20*#52]
G2 I-0.04725 J0
G1 Z[#50+19*#52]
G2 I-0.04725 J0
G1 Z[#50+18*#52]
G2 I-0.04725 J0
G1 Z[#50+17*#52]
G2 I-0.04725 J0
G1 Z[#50+16*#52]
G2 I-0.04725 J0
G1 Z[#50+15*#52]
G2 I-0.04725 J0
G1 Z[#50+14*#52]
G2 I-0.04725 J0
G1 Z[#50+13*#52]
G2 I-0.04725 J0
G1 Z[#50+12*#52]
G2 I-0.04725 J0
G1 Z[#50+11*#52]
G2 I-0.04725 J0
G1 Z[#50+10*#52]
G2 I-0.04725 J0
G1 Z[#50+9*#52]
G2 I-0.04725 J0
G1 Z[#50+8*#52]
G2 I-0.04725 J0
G1 Z[#50+7*#52]
G2 I-0.04725 J0
G1 Z[#50+6*#52]
G2 I-0.04725 J0
G1 Z[#50+5*#52]
G2 I-0.04725 J0
G1 Z[#50+4*#52]
G2 I-0.04725 J0
G1 Z[#50+3*#52]
G2 I-0.04725 J0
G1 Z[#50+2*#52]
G2 I-0.04725 J0
G1 Z[#50+1*#52]
G2 I-0.04725 J0
G1 Z[#50+0*#52]
G2 I-0.04725 J0
G0 Z0.19685

G0 X0.25655 Y0.21010
G1 Z[#50+30*#52]
G2 I-0.04725 J0
G1 Z[#50+29*#52]
G2 I-0.04725 J0
G1 Z[#50+28*#52]
G2 I-0.04725 J0
G1 Z[#50+27*#52]
G2 I-0.04725 J0
G1 Z[#50+26*#52]
G2 I-0.04725 J0
G1 Z[#50+25*#52]
G2 I-0.04725 J0
G1 Z[#50+24*#52]
G2 I-0.04725 J0
G1 Z[#50+23*#52]
G2 I-0.04725 J0
G1 Z[#50+22*#52]
G2 I-0.04725 J0
G1 Z[#50+21*#52]
G2 I-0.04725 J0
G1 Z[#50+20*#52]
G2 I-0.04725 J0
G1 Z[#50+19*#52]
G2 I-0.04725 J0
G1 Z[#50+18*#52]
G2 I-0.04725 J0
G1 Z[#50+17*#52]
G2 I-0.04725 J0
G1 Z[#50+16*#52]
G2 I-0.04725 J0
G1 Z[#50+15*#52]
G2 I-0.04725 J0
G1 Z[#50+14*#52]
G2 I-0.04725 J0
G1 Z[#50+13*#52]
G2 I-0.04725 J0
G1 Z[#50+12*#52]
G2 I-0.04725 J0
G1 Z[#50+11*#52]
G2 I-0.04725 J0
G1 Z[#50+10*#52]
G2 I-0.04725 J0
G1 Z[#50+9*#52]
G2 I-0.04725 J0
G1 Z[#50+8*#52]
G2 I-0.04725 J0
G1 Z[#50+7*#52]
G2 I-0.04725 J0
G1 Z[#50+6*#52]
G2 I-0.04725 J0
G1 Z[#50+5*#52]
G2 I-0.04725 J0
G1 Z[#50+4*#52]
G2 I-0.04725 J0
G1 Z[#50+3*#52]
G2 I-0.04725 J0
G1 Z[#50+2*#52]
G2 I-0.04725 J0
G1 Z[#50+1*#52]
G2 I-0.04725 J0
G1 Z[#50+0*#52]
G2 I-0.04725 J0
G0 Z0.19685

G0 X1.35655 Y2.06010
G1 Z[#50+30*#52]
G2 I-0.04725 J0
G1 Z[#50+29*#52]
G2 I-0.04725 J0
G1 Z[#50+28*#52]
G2 I-0.04725 J0
G1 Z[#50+27*#52]
G2 I-0.04725 J0
G1 Z[#50+26*#52]
G2 I-0.04725 J0
G1 Z[#50+25*#52]
G2 I-0.04725 J0
G1 Z[#50+24*#52]
G2 I-0.04725 J0
G1 Z[#50+23*#52]
G2 I-0.04725 J0
G1 Z[#50+22*#52]
G2 I-0.04725 J0
G1 Z[#50+21*#52]
G2 I-0.04725 J0
G1 Z[#50+20*#52]
G2 I-0.04725 J0
G1 Z[#50+19*#52]
G2 I-0.04725 J0
G1 Z[#50+18*#52]
G2 I-0.04725 J0
G1 Z[#50+17*#52]
G2 I-0.04725 J0
G1 Z[#50+16*#52]
G2 I-0.04725 J0
G1 Z[#50+15*#52]
G2 I-0.04725 J0
G1 Z[#50+14*#52]
G2 I-0.04725 J0
G1 Z[#50+13*#52]
G2 I-0.04725 J0
G1 Z[#50+12*#52]
G2 I-0.04725 J0
G1 Z[#50+11*#52]
G2 I-0.04725 J0
G1 Z[#50+10*#52]
G2 I-0.04725 J0
G1 Z[#50+9*#52]
G2 I-0.04725 J0
G1 Z[#50+8*#52]
G2 I-0.04725 J0
G1 Z[#50+7*#52]
G2 I-0.04725 J0
G1 Z[#50+6*#52]
G2 I-0.04725 J0
G1 Z[#50+5*#52]
G2 I-0.04725 J0
G1 Z[#50+4*#52]
G2 I-0.04725 J0
G1 Z[#50+3*#52]
G2 I-0.04725 J0
G1 Z[#50+2*#52]
G2 I-0.04725 J0
G1 Z[#50+1*#52]
G2 I-0.04725 J0
G1 Z[#50+0*#52]
G2 I-0.04725 J0
G0 Z0.19685

G0 X0.35655 Y2.16010
G1 Z[#50+30*#52]
G2 I-0.04725 J0
G1 Z[#50+29*#52]
G2 I-0.04725 J0
G1 Z[#50+28*#52]
G2 I-0.04725 J0
G1 Z[#50+27*#52]
G2 I-0.04725 J0
G1 Z[#50+26*#52]
G2 I-0.04725 J0
G1 Z[#50+25*#52]
G2 I-0.04725 J0
G1 Z[#50+24*#52]
G2 I-0.04725 J0
G1 Z[#50+23*#52]
G2 I-0.04725 J0
G1 Z[#50+22*#52]
G2 I-0.04725 J0
G1 Z[#50+21*#52]
G2 I-0.04725 J0
G1 Z[#50+20*#52]
G2 I-0.04725 J0
G1 Z[#50+19*#52]
G2 I-0.04725 J0
G1 Z[#50+18*#52]
G2 I-0.04725 J0
G1 Z[#50+17*#52]
G2 I-0.04725 J0
G1 Z[#50+16*#52]
G2 I-0.04725 J0
G1 Z[#50+15*#52]
G2 I-0.04725 J0
G1 Z[#50+14*#52]
G2 I-0.04725 J0
G1 Z[#50+13*#52]
G2 I-0.04725 J0
G1 Z[#50+12*#52]
G2 I-0.04725 J0
G1 Z[#50+11*#52]
G2 I-0.04725 J0
G1 Z[#50+10*#52]
G2 I-0.04725 J0
G1 Z[#50+9*#52]
G2 I-0.04725 J0
G1 Z[#50+8*#52]
G2 I-0.04725 J0
G1 Z[#50+7*#52]
G2 I-0.04725 J0
G1 Z[#50+6*#52]
G2 I-0.04725 J0
G1 Z[#50+5*#52]
G2 I-0.04725 J0
G1 Z[#50+4*#52]
G2 I-0.04725 J0
G1 Z[#50+3*#52]
G2 I-0.04725 J0
G1 Z[#50+2*#52]
G2 I-0.04725 J0
G1 Z[#50+1*#52]
G2 I-0.04725 J0
G1 Z[#50+0*#52]
G2 I-0.04725 J0
G0 Z0.19685

G0 X2.45655 Y1.46010
G1 Z[#50+30*#52]
G2 I-0.04725 J0
G1 Z[#50+29*#52]
G2 I-0.04725 J0
G1 Z[#50+28*#52]
G2 I-0.04725 J0
G1 Z[#50+27*#52]
G2 I-0.04725 J0
G1 Z[#50+26*#52]
G2 I-0.04725 J0
G1 Z[#50+25*#52]
G2 I-0.04725 J0
G1 Z[#50+24*#52]
G2 I-0.04725 J0
