( pcb2gcode 1.1.2 )

G94     ( Inches per minute feed rate. )
G20     ( Units == INCHES.             )
G90     ( Absolute coordinates.        )
S20000  ( RPM spindle speed.           )
M3      ( Spindle on clockwise.        )

G64 P0.00075 ( set maximum deviation from commanded toolpath )

G04 P0 ( dwell for no time -- G64 should not smooth over this point )
G00 Z0.19685 ( retract )

G00 X1.45600 Y2.18620 ( rapid move to begin. )
G01 Z-0.11417 F43.30709 ( plunge. )
G04 P0 ( dwell for no time -- G64 should not smooth over this point )
X1.45600 Y2.18620
X1.45600 Y2.13020
X1.45500 Y2.13020
X1.45500 Y2.12920
X1.45400 Y2.12920
X1.45400 Y2.12820
X1.45300 Y2.12820
X1.45300 Y2.12720
X1.45200 Y2.12720
X1.45200 Y2.12620
X1.45100 Y2.12620
X1.45100 Y2.12520
X1.45000 Y2.12520
X1.45000 Y2.12420
X1.44900 Y2.12420
X1.44900 Y2.12320
X1.44800 Y2.12320
X1.44800 Y2.12220
X1.44700 Y2.12220
X1.44700 Y2.12120
X1.44600 Y2.12120
X1.44600 Y2.12020
X1.44500 Y2.12020
X1.44500 Y2.11920
X1.44400 Y2.11920
X1.44400 Y2.11820
X1.44300 Y2.11820
X1.44300 Y2.11720
X1.44200 Y2.11720
X1.44200 Y2.11620
X1.44100 Y2.11620
X1.44100 Y2.11520
X1.38000 Y2.11520
X1.38000 Y2.11620
X1.37900 Y2.11620
X1.37900 Y2.11720
X1.37800 Y2.11720
X1.37800 Y2.11820
X1.37700 Y2.11820
X1.37700 Y2.11920
X1.37600 Y2.11920
X1.37600 Y2.12020
X1.37500 Y2.12020
X1.37500 Y2.12120
X1.37400 Y2.12120
X1.37400 Y2.12220
X1.37300 Y2.12220
X1.37300 Y2.12320
X1.37200 Y2.12320
X1.37200 Y2.12420
X1.37100 Y2.12420
X1.37100 Y2.12520
X1.37000 Y2.12520
X1.37000 Y2.12620
X1.36900 Y2.12620
X1.36900 Y2.12720
X1.36800 Y2.12720
X1.36800 Y2.12820
X1.36700 Y2.12820
X1.36700 Y2.12920
X1.36600 Y2.12920
X1.36600 Y2.13020
X1.36500 Y2.13020
X1.36500 Y2.19120
X1.36600 Y2.19120
X1.36600 Y2.19220
X1.36700 Y2.19220
X1.36700 Y2.19320
X1.36800 Y2.19320
X1.36800 Y2.19420
X1.36900 Y2.19420
X1.36900 Y2.19520
X1.37000 Y2.19520
X1.37000 Y2.19620
X1.37100 Y2.19620
X1.37100 Y2.19720
X1.37200 Y2.19720
X1.37200 Y2.19820
X1.37300 Y2.19820
X1.37300 Y2.19920
X1.37400 Y2.19920
X1.37400 Y2.20020
X1.37500 Y2.20020
X1.37500 Y2.20120
X1.37600 Y2.20120
X1.37600 Y2.20220
X1.37700 Y2.20220
X1.37700 Y2.20320
X1.37800 Y2.20320
X1.37800 Y2.20420
X1.37900 Y2.20420
X1.37900 Y2.20520
X1.38000 Y2.20520
X1.38000 Y2.20620
X1.44000 Y2.20620
X1.44000 Y2.20320
X1.44300 Y2.20320
X1.44300 Y2.20020
X1.44600 Y2.20020
X1.44600 Y2.19720
X1.44900 Y2.19720
X1.44900 Y2.19420
X1.45200 Y2.19420
X1.45200 Y2.19120
X1.45600 Y2.19120
X1.45600 Y2.18620
G04 P0 ( dwell for no time -- G64 should not smooth over this point )
G00 Z0.19685 ( retract )

G00 X1.75600 Y2.18620 ( rapid move to begin. )
G01 Z-0.11417 F43.30709 ( plunge. )
G04 P0 ( dwell for no time -- G64 should not smooth over this point )
X1.75600 Y2.18620
X1.75600 Y2.13020
X1.75500 Y2.13020
X1.75500 Y2.12920
X1.75400 Y2.12920
X1.75400 Y2.12820
X1.75300 Y2.12820
X1.75300 Y2.12720
X1.75200 Y2.12720
X1.75200 Y2.12620
X1.75100 Y2.12620
X1.75100 Y2.12520
X1.75000 Y2.12520
X1.75000 Y2.12420
X1.74900 Y2.12420
X1.74900 Y2.12320
X1.74800 Y2.12320
X1.74800 Y2.12220
X1.74700 Y2.12220
X1.74700 Y2.12120
X1.74600 Y2.12120
X1.74600 Y2.12020
X1.74500 Y2.12020
X1.74500 Y2.11920
X1.74400 Y2.11920
X1.74400 Y2.11820
X1.74300 Y2.11820
X1.74300 Y2.11720
X1.74200 Y2.11720
X1.74200 Y2.11620
X1.74100 Y2.11620
X1.74100 Y2.11520
X1.68000 Y2.11520
X1.68000 Y2.11620
X1.67900 Y2.11620
X1.67900 Y2.11720
X1.67800 Y2.11720
X1.67800 Y2.11820
X1.67700 Y2.11820
X1.67700 Y2.11920
X1.67600 Y2.11920
X1.67600 Y2.12020
X1.67500 Y2.12020
X1.67500 Y2.12120
X1.67400 Y2.12120
X1.67400 Y2.12220
X1.67300 Y2.12220
X1.67300 Y2.12320
X1.67200 Y2.12320
X1.67200 Y2.12420
X1.67100 Y2.12420
X1.67100 Y2.12520
X1.67000 Y2.12520
X1.67000 Y2.12620
X1.66900 Y2.12620
X1.66900 Y2.12720
X1.66800 Y2.12720
X1.66800 Y2.12820
X1.66700 Y2.12820
X1.66700 Y2.12920
X1.66600 Y2.12920
X1.66600 Y2.13020
X1.66500 Y2.13020
X1.66500 Y2.19120
X1.66600 Y2.19120
X1.66600 Y2.19220
X1.66700 Y2.19220
X1.66700 Y2.19320
X1.66800 Y2.19320
X1.66800 Y2.19420
X1.66900 Y2.19420
X1.66900 Y2.19520
X1.67000 Y2.19520
X1.67000 Y2.19620
X1.67100 Y2.19620
X1.67100 Y2.19720
X1.67200 Y2.19720
X1.67200 Y2.19820
X1.67300 Y2.19820
X1.67300 Y2.19920
X1.67400 Y2.19920
X1.67400 Y2.20020
X1.67500 Y2.20020
X1.67500 Y2.20120
X1.67600 Y2.20120
X1.67600 Y2.20220
X1.67700 Y2.20220
X1.67700 Y2.20320
X1.67800 Y2.20320
X1.67800 Y2.20420
X1.67900 Y2.20420
X1.67900 Y2.20520
X1.68000 Y2.20520
X1.68000 Y2.20620
X1.74000 Y2.20620
X1.74000 Y2.20320
X1.74300 Y2.20320
X1.74300 Y2.20020
X1.74600 Y2.20020
X1.74600 Y2.19720
X1.74900 Y2.19720
X1.74900 Y2.19420
X1.75200 Y2.19420
X1.75200 Y2.19120
X1.75600 Y2.19120
X1.75600 Y2.18620
G04 P0 ( dwell for no time -- G64 should not smooth over this point )
G00 Z0.19685 ( retract )

G00 X0.20500 Y2.16920 ( rapid move to begin. )
G01 Z-0.11417 F43.30709 ( plunge. )
G04 P0 ( dwell for no time -- G64 should not smooth over this point )
X0.20500 Y2.16920
X0.20500 Y2.16820
X0.20800 Y2.16820
X0.20800 Y2.16720
X0.20900 Y2.16720
X0.20900 Y2.16220
X0.21000 Y2.16220
X0.21000 Y2.05920
X0.20900 Y2.05920
X0.20900 Y2.05420
X0.20800 Y2.05420
X0.20800 Y2.05020
X0.20700 Y2.05020
X0.20700 Y2.04720
X0.20600 Y2.04720
X0.20600 Y2.04620
X0.20500 Y2.04620
X0.20500 Y2.04520
X0.20400 Y2.04520
X0.20400 Y2.04420
X0.20300 Y2.04420
X0.20300 Y2.04220
X0.20200 Y2.04220
X0.20200 Y2.04120
X0.20100 Y2.04120
X0.20100 Y2.04020
X0.20000 Y2.04020
X0.20000 Y2.03920
X0.19900 Y2.03920
X0.19900 Y2.03720
X0.19700 Y2.03720
X0.19700 Y2.03620
X0.19400 Y2.03620
X0.19400 Y2.03520
X0.19200 Y2.03520
X0.19200 Y2.03420
X0.19000 Y2.03420
X0.19000 Y2.03320
X0.18800 Y2.03320
X0.18800 Y2.03220
X0.13300 Y2.03220
X0.13300 Y2.03320
X0.13100 Y2.03320
X0.13100 Y2.03420
X0.12900 Y2.03420
X0.12900 Y2.03520
X0.12700 Y2.03520
X0.12700 Y2.03620
X0.12400 Y2.03620
X0.12400 Y2.03720
X0.12200 Y2.03720
X0.12200 Y2.03920
X0.12100 Y2.03920
X0.12100 Y2.04020
X0.12000 Y2.04020
X0.12000 Y2.04120
X0.11900 Y2.04120
X0.11900 Y2.04220
X0.11800 Y2.04220
X0.11800 Y2.04420
X0.11700 Y2.04420
X0.11700 Y2.04520
X0.11600 Y2.04520
X0.11600 Y2.04620
X0.11500 Y2.04620
X0.11500 Y2.04720
X0.11400 Y2.04720
X0.11400 Y2.05020
X0.11300 Y2.05020
X0.11300 Y2.05420
X0.11200 Y2.05420
X0.11200 Y2.05920
X0.11100 Y2.05920
X0.11100 Y2.16220
X0.11200 Y2.16220
X0.11200 Y2.16720
X0.11300 Y2.16720
X0.11300 Y2.17120
X0.11400 Y2.17120
X0.11400 Y2.17420
X0.11500 Y2.17420
X0.11500 Y2.17520
X0.11600 Y2.17520
X0.11600 Y2.17620
X0.11700 Y2.17620
X0.11700 Y2.17720
X0.11800 Y2.17720
X0.11800 Y2.17920
X0.11900 Y2.17920
X0.11900 Y2.18020
X0.12000 Y2.18020
X0.12000 Y2.18120
X0.12100 Y2.18120
X0.12100 Y2.18220
X0.12200 Y2.18220
X0.12200 Y2.18420
X0.12400 Y2.18420
X0.12400 Y2.18520
X0.12700 Y2.18520
X0.12700 Y2.18620
X0.12900 Y2.18620
X0.12900 Y2.18720
X0.13100 Y2.18720
X0.13100 Y2.18820
X0.13300 Y2.18820
X0.13300 Y2.18920
X0.18700 Y2.18920
X0.18700 Y2.18720
X0.19100 Y2.18720
X0.19100 Y2.18520
X0.19600 Y2.18520
X0.19600 Y2.18220
X0.19900 Y2.18220
X0.19900 Y2.17920
X0.20200 Y2.17920
X0.20200 Y2.17520
X0.20500 Y2.17520
X0.20500 Y2.16920
G04 P0 ( dwell for no time -- G64 should not smooth over this point )
G00 Z0.19685 ( retract )

G00 X0.30500 Y2.16920 ( rapid move to begin. )
G01 Z-0.11417 F43.30709 ( plunge. )
G04 P0 ( dwell for no time -- G64 should not smooth over this point )
X0.30500 Y2.16920
X0.30500 Y2.16820
X0.30800 Y2.16820
X0.30800 Y2.16720
X0.30900 Y2.16720
X0.30900 Y2.16220
X0.31000 Y2.16220
X0.31000 Y2.05920
X0.30900 Y2.05920
X0.30900 Y2.05420
X0.30800 Y2.05420
X0.30800 Y2.05020
X0.30700 Y2.05020
X0.30700 Y2.04720
X0.30600 Y2.04720
X0.30600 Y2.04620
X0.30500 Y2.04620
X0.30500 Y2.04520
X0.30400 Y2.04520
X0.30400 Y2.04420
X0.30300 Y2.04420
X0.30300 Y2.04220
X0.30200 Y2.04220
X0.30200 Y2.04120
X0.30100 Y2.04120
X0.30100 Y2.04020
X0.30000 Y2.04020
X0.30000 Y2.03920
X0.29900 Y2.03920
X0.29900 Y2.03720
X0.29700 Y2.03720
X0.29700 Y2.03620
X0.29400 Y2.03620
X0.29400 Y2.03520
X0.29200 Y2.03520
X0.29200 Y2.03420
X0.29000 Y2.03420
X0.29000 Y2.03320
X0.28800 Y2.03320
X0.28800 Y2.03220
X0.23300 Y2.03220
X0.23300 Y2.03320
X0.23100 Y2.03320
X0.23100 Y2.03420
X0.22900 Y2.03420
X0.22900 Y2.03520
X0.22700 Y2.03520
X0.22700 Y2.03620
X0.22400 Y2.03620
X0.22400 Y2.03720
X0.22200 Y2.03720
X0.22200 Y2.03920
X0.22100 Y2.03920
X0.22100 Y2.04020
X0.22000 Y2.04020
X0.22000 Y2.04120
X0.21900 Y2.04120
X0.21900 Y2.04220
X0.21800 Y2.04220
X0.21800 Y2.04420
X0.21700 Y2.04420
X0.21700 Y2.04520
X0.21600 Y2.04520
X0.21600 Y2.04620
X0.21500 Y2.04620
X0.21500 Y2.04720
X0.21400 Y2.04720
X0.21400 Y2.05020
X0.21300 Y2.05020
X0.21300 Y2.05420
X0.21200 Y2.05420
X0.21200 Y2.05920
X0.21100 Y2.05920
X0.21100 Y2.16220
X0.21200 Y2.16220
X0.21200 Y2.16720
X0.21300 Y2.16720
X0.21300 Y2.17120
X0.21400 Y2.17120
X0.21400 Y2.17420
X0.21500 Y2.17420
X0.21500 Y2.17520
X0.21600 Y2.17520
X0.21600 Y2.17620
X0.21700 Y2.17620
X0.21700 Y2.17720
X0.21800 Y2.17720
X0.21800 Y2.17920
X0.21900 Y2.17920
X0.21900 Y2.18020
X0.22000 Y2.18020
X0.22000 Y2.18120
X0.22100 Y2.18120
X0.22100 Y2.18220
X0.22200 Y2.18220
X0.22200 Y2.18420
X0.22400 Y2.18420
X0.22400 Y2.18520
X0.22700 Y2.18520
X0.22700 Y2.18620
X0.22900 Y2.18620
X0.22900 Y2.18720
X0.23100 Y2.18720
X0.23100 Y2.18820
X0.23300 Y2.18820
X0.23300 Y2.18920
X0.28700 Y2.18920
X0.28700 Y2.18720
X0.29100 Y2.18720
X0.29100 Y2.18520
X0.29600 Y2.18520
X0.29600 Y2.18220
X0.29900 Y2.18220
X0.29900 Y2.17920
X0.30200 Y2.17920
X0.30200 Y2.17520
X0.30500 Y2.17520
X0.30500 Y2.16920
G04 P0 ( dwell for no time -- G64 should not smooth over this point )
G00 Z0.19685 ( retract )

G00 X0.40500 Y2.16920 ( rapid move to begin. )
G01 Z-0.11417 F43.30709 ( plunge. )
G04 P0 ( dwell for no time -- G64 should not smooth over this point )
X0.40500 Y2.16920
X0.40500 Y2.16820
X0.40800 Y2.16820
X0.40800 Y2.16720
X0.40900 Y2.16720
X0.40900 Y2.16220
X0.41000 Y2.16220
X0.41000 Y2.05920
X0.40900 Y2.05920
X0.40900 Y2.05420
X0.40800 Y2.05420
X0.40800 Y2.05020
X0.40700 Y2.05020
X0.40700 Y2.04720
X0.40600 Y2.04720
X0.40600 Y2.04620
X0.40500 Y2.04620
X0.40500 Y2.04520
X0.40400 Y2.04520
X0.40400 Y2.04420
X0.40300 Y2.04420
X0.40300 Y2.04220
X0.40200 Y2.04220
X0.40200 Y2.04120
X0.40100 Y2.04120
X0.40100 Y2.04020
X0.40000 Y2.04020
X0.40000 Y2.03920
X0.39900 Y2.03920
X0.39900 Y2.03720
X0.39700 Y2.03720
X0.39700 Y2.03620
X0.39400 Y2.03620
X0.39400 Y2.03520
X0.39200 Y2.03520
X0.39200 Y2.03420
X0.39000 Y2.03420
X0.39000 Y2.03320
X0.38800 Y2.03320
X0.38800 Y2.03220
X0.33300 Y2.03220
X0.33300 Y2.03320
X0.33100 Y2.03320
X0.33100 Y2.03420
X0.32900 Y2.03420
X0.32900 Y2.03520
X0.32700 Y2.03520
X0.32700 Y2.03620
X0.32400 Y2.03620
X0.32400 Y2.03720
X0.32200 Y2.03720
X0.32200 Y2.03920
X0.32100 Y2.03920
X0.32100 Y2.04020
X0.32000 Y2.04020
X0.32000 Y2.04120
X0.31900 Y2.04120
X0.31900 Y2.04220
X0.31800 Y2.04220
X0.31800 Y2.04420
X0.31700 Y2.04420
X0.31700 Y2.04520
X0.31600 Y2.04520
X0.31600 Y2.04620
X0.31500 Y2.04620
X0.31500 Y2.04720
X0.31400 Y2.04720
X0.31400 Y2.05020
X0.31300 Y2.05020
X0.31300 Y2.05420
X0.31200 Y2.05420
X0.31200 Y2.05920
X0.31100 Y2.05920
X0.31100 Y2.16220
X0.31200 Y2.16220
X0.31200 Y2.16720
X0.31300 Y2.16720
X0.31300 Y2.17120
X0.31400 Y2.17120
X0.31400 Y2.17420
X0.31500 Y2.17420
X0.31500 Y2.17520
X0.31600 Y2.17520
X0.31600 Y2.17620
X0.31700 Y2.17620
X0.31700 Y2.17720
X0.31800 Y2.17720
X0.31800 Y2.17920
X0.31900 Y2.17920
X0.31900 Y2.18020
X0.32000 Y2.18020
X0.32000 Y2.18120
X0.32100 Y2.18120
X0.32100 Y2.18220
X0.32200 Y2.18220
X0.32200 Y2.18420
X0.32400 Y2.18420
X0.32400 Y2.18520
X0.32700 Y2.18520
X0.32700 Y2.18620
X0.32900 Y2.18620
X0.32900 Y2.18720
X0.33100 Y2.18720
X0.33100 Y2.18820
X0.33300 Y2.18820
X0.33300 Y2.18920
X0.38700 Y2.18920
X0.38700 Y2.18720
X0.39100 Y2.18720
X0.39100 Y2.18520
X0.39600 Y2.18520
X0.39600 Y2.18220
X0.39900 Y2.18220
X0.39900 Y2.17920
X0.40200 Y2.17920
X0.40200 Y2.17520
X0.40500 Y2.17520
X0.40500 Y2.16920
G04 P0 ( dwell for no time -- G64 should not smooth over this point )
G00 Z0.19685 ( retract )

G00 X0.50500 Y2.16920 ( rapid move to begin. )
G01 Z-0.11417 F43.30709 ( plunge. )
G04 P0 ( dwell for no time -- G64 should not smooth over this point )
X0.50500 Y2.16920
X0.50500 Y2.16820
X0.50800 Y2.16820
X0.50800 Y2.16720
X0.50900 Y2.16720
X0.50900 Y2.16220
X0.51000 Y2.16220
X0.51000 Y2.05920
X0.50900 Y2.05920
X0.50900 Y2.05420
X0.50800 Y2.05420
X0.50800 Y2.05020
X0.50700 Y2.05020
X0.50700 Y2.04720
X0.50600 Y2.04720
X0.50600 Y2.04620
X0.50500 Y2.04620
X0.50500 Y2.04520
X0.50400 Y2.04520
X0.50400 Y2.04420
X0.50300 Y2.04420
X0.50300 Y2.04220
X0.50200 Y2.04220
X0.50200 Y2.04120
X0.50100 Y2.04120
X0.50100 Y2.04020
X0.50000 Y2.04020
X0.50000 Y2.03920
X0.49900 Y2.03920
X0.49900 Y2.03720
X0.49700 Y2.03720
X0.49700 Y2.03620
X0.49400 Y2.03620
X0.49400 Y2.03520
X0.49200 Y2.03520
X0.49200 Y2.03420
X0.49000 Y2.03420
X0.49000 Y2.03320
X0.48800 Y2.03320
X0.48800 Y2.03220
X0.43300 Y2.03220
X0.43300 Y2.03320
X0.43100 Y2.03320
X0.43100 Y2.03420
X0.42900 Y2.03420
X0.42900 Y2.03520
X0.42700 Y2.03520
X0.42700 Y2.03620
X0.42400 Y2.03620
X0.42400 Y2.03720
X0.42200 Y2.03720
X0.42200 Y2.03920
X0.42100 Y2.03920
X0.42100 Y2.04020
X0.42000 Y2.04020
X0.42000 Y2.04120
X0.41900 Y2.04120
X0.41900 Y2.04220
X0.41800 Y2.04220
X0.41800 Y2.04420
X0.41700 Y2.04420
X0.41700 Y2.04520
X0.41600 Y2.04520
X0.41600 Y2.04620
X0.41500 Y2.04620
X0.41500 Y2.04720
X0.41400 Y2.04720
X0.41400 Y2.05020
X0.41300 Y2.05020
X0.41300 Y2.05420
X0.41200 Y2.05420
X0.41200 Y2.05920
X0.41100 Y2.05920
X0.41100 Y2.16220
X0.41200 Y2.16220
X0.41200 Y2.16720
X0.41300 Y2.16720
X0.41300 Y2.17120
X0.41400 Y2.17120
X0.41400 Y2.17420
X0.41500 Y2.17420
X0.41500 Y2.17520
X0.41600 Y2.17520
X0.41600 Y2.17620
X0.41700 Y2.17620
X0.41700 Y2.17720
X0.41800 Y2.17720
X0.41800 Y2.17920
X0.41900 Y2.17920
X0.41900 Y2.18020
X0.42000 Y2.18020
X0.42000 Y2.18120
X0.42100 Y2.18120
X0.42100 Y2.18220
X0.42200 Y2.18220
X0.42200 Y2.18420
X0.42400 Y2.18420
X0.42400 Y2.18520
X0.42700 Y2.18520
X0.42700 Y2.18620
X0.42900 Y2.18620
X0.42900 Y2.18720
X0.43100 Y2.18720
X0.43100 Y2.18820
X0.43300 Y2.18820
X0.43300 Y2.18920
X0.48700 Y2.18920
X0.48700 Y2.18720
X0.49100 Y2.18720
X0.49100 Y2.18520
X0.49600 Y2.18520
X0.49600 Y2.18220
X0.49900 Y2.18220
X0.49900 Y2.17920
X0.50200 Y2.17920
X0.50200 Y2.17520
X0.50500 Y2.17520
X0.50500 Y2.16920
G04 P0 ( dwell for no time -- G64 should not smooth over this point )
G00 Z0.19685 ( retract )

G00 X0.60500 Y2.16920 ( rapid move to begin. )
G01 Z-0.11417 F43.30709 ( plunge. )
G04 P0 ( dwell for no time -- G64 should not smooth over this point )
X0.60500 Y2.16920
X0.60500 Y2.16820
X0.60800 Y2.16820
X0.60800 Y2.16720
X0.60900 Y2.16720
X0.60900 Y2.16220
X0.61000 Y2.16220
X0.61000 Y2.05920
X0.60900 Y2.05920
X0.60900 Y2.05420
X0.60800 Y2.05420
X0.60800 Y2.05020
X0.60700 Y2.05020
X0.60700 Y2.04720
X0.60600 Y2.04720
X0.60600 Y2.04620
X0.60500 Y2.04620
X0.60500 Y2.04520
X0.60400 Y2.04520
X0.60400 Y2.04420
X0.60300 Y2.04420
X0.60300 Y2.04220
X0.60200 Y2.04220
X0.60200 Y2.04120
X0.60100 Y2.04120
X0.60100 Y2.04020
X0.60000 Y2.04020
X0.60000 Y2.03920
X0.59900 Y2.03920
X0.59900 Y2.03720
X0.59700 Y2.03720
X0.59700 Y2.03620
X0.59400 Y2.03620
X0.59400 Y2.03520
X0.59200 Y2.03520
X0.59200 Y2.03420
X0.59000 Y2.03420
X0.59000 Y2.03320
X0.58800 Y2.03320
X0.58800 Y2.03220
X0.53300 Y2.03220
X0.53300 Y2.03320
X0.53100 Y2.03320
X0.53100 Y2.03420
X0.52900 Y2.03420
X0.52900 Y2.03520
X0.52700 Y2.03520
X0.52700 Y2.03620
X0.52400 Y2.03620
X0.52400 Y2.03720
X0.52200 Y2.03720
X0.52200 Y2.03920
X0.52100 Y2.03920
X0.52100 Y2.04020
X0.52000 Y2.04020
X0.52000 Y2.04120
X0.51900 Y2.04120
X0.51900 Y2.04220
X0.51800 Y2.04220
X0.51800 Y2.04420
X0.51700 Y2.04420
X0.51700 Y2.04520
X0.51600 Y2.04520
X0.51600 Y2.04620
X0.51500 Y2.04620
X0.51500 Y2.04720
X0.51400 Y2.04720
X0.51400 Y2.05020
X0.51300 Y2.05020
X0.51300 Y2.05420
X0.51200 Y2.05420
X0.51200 Y2.05920
X0.51100 Y2.05920
X0.51100 Y2.16220
X0.51200 Y2.16220
X0.51200 Y2.16720
X0.51300 Y2.16720
X0.51300 Y2.17120
X0.51400 Y2.17120
X0.51400 Y2.17420
X0.51500 Y2.17420
X0.51500 Y2.17520
X0.51600 Y2.17520
X0.51600 Y2.17620
X0.51700 Y2.17620
X0.51700 Y2.17720
X0.51800 Y2.17720
X0.51800 Y2.17920
X0.51900 Y2.17920
X0.51900 Y2.18020
X0.52000 Y2.18020
X0.52000 Y2.18120
X0.52100 Y2.18120
X0.52100 Y2.18220
X0.52200 Y2.18220
X0.52200 Y2.18420
X0.52400 Y2.18420
X0.52400 Y2.18520
X0.52700 Y2.18520
X0.52700 Y2.18620
X0.52900 Y2.18620
X0.52900 Y2.18720
X0.53100 Y2.18720
X0.53100 Y2.18820
X0.53300 Y2.18820
X0.53300 Y2.18920
X0.58700 Y2.18920
X0.58700 Y2.18720
X0.59100 Y2.18720
X0.59100 Y2.18520
X0.59600 Y2.18520
X0.59600 Y2.18220
X0.59900 Y2.18220
X0.59900 Y2.17920
X0.60200 Y2.17920
X0.60200 Y2.17520
X0.60500 Y2.17520
X0.60500 Y2.16920
G04 P0 ( dwell for no time -- G64 should not smooth over this point )
G00 Z0.19685 ( retract )

G00 X0.70500 Y2.16920 ( rapid move to begin. )
G01 Z-0.11417 F43.30709 ( plunge. )
G04 P0 ( dwell for no time -- G64 should not smooth over this point )
X0.70500 Y2.16920
X0.70500 Y2.16820
X0.70800 Y2.16820
X0.70800 Y2.16720
X0.70900 Y2.16720
X0.70900 Y2.16220
X0.71000 Y2.16220
X0.71000 Y2.05920
X0.70900 Y2.05920
X0.70900 Y2.05420
X0.70800 Y2.05420
X0.70800 Y2.05020
X0.70700 Y2.05020
X0.70700 Y2.04720
X0.70600 Y2.04720
X0.70600 Y2.04620
X0.70500 Y2.04620
X0.70500 Y2.04520
X0.70400 Y2.04520
X0.70400 Y2.04420
X0.70300 Y2.04420
X0.70300 Y2.04220
X0.70200 Y2.04220
X0.70200 Y2.04120
X0.70100 Y2.04120
X0.70100 Y2.04020
X0.70000 Y2.04020
X0.70000 Y2.03920
X0.69900 Y2.03920
X0.69900 Y2.03720
X0.69700 Y2.03720
X0.69700 Y2.03620
X0.69400 Y2.03620
X0.69400 Y2.03520
X0.69200 Y2.03520
X0.69200 Y2.03420
X0.69000 Y2.03420
X0.69000 Y2.03320
X0.68800 Y2.03320
X0.68800 Y2.03220
X0.63300 Y2.03220
X0.63300 Y2.03320
X0.63100 Y2.03320
X0.63100 Y2.03420
X0.62900 Y2.03420
X0.62900 Y2.03520
X0.62700 Y2.03520
X0.62700 Y2.03620
X0.62400 Y2.03620
X0.62400 Y2.03720
X0.62200 Y2.03720
X0.62200 Y2.03920
X0.62100 Y2.03920
X0.62100 Y2.04020
X0.62000 Y2.04020
X0.62000 Y2.04120
X0.61900 Y2.04120
X0.61900 Y2.04220
X0.61800 Y2.04220
X0.61800 Y2.04420
X0.61700 Y2.04420
X0.61700 Y2.04520
X0.61600 Y2.04520
X0.61600 Y2.04620
X0.61500 Y2.04620
X0.61500 Y2.04720
X0.61400 Y2.04720
X0.61400 Y2.05020
X0.61300 Y2.05020
X0.61300 Y2.05420
X0.61200 Y2.05420
X0.61200 Y2.05920
X0.61100 Y2.05920
X0.61100 Y2.16220
X0.61200 Y2.16220
X0.61200 Y2.16720
X0.61300 Y2.16720
X0.61300 Y2.17120
X0.61400 Y2.17120
X0.61400 Y2.17420
X0.61500 Y2.17420
X0.61500 Y2.17520
X0.61600 Y2.17520
X0.61600 Y2.17620
X0.61700 Y2.17620
X0.61700 Y2.17720
X0.61800 Y2.17720
X0.61800 Y2.17920
X0.61900 Y2.17920
X0.61900 Y2.18020
X0.62000 Y2.18020
X0.62000 Y2.18120
X0.62100 Y2.18120
X0.62100 Y2.18220
X0.62200 Y2.18220
X0.62200 Y2.18420
X0.62400 Y2.18420
X0.62400 Y2.18520
X0.62700 Y2.18520
X0.62700 Y2.18620
X0.62900 Y2.18620
X0.62900 Y2.18720
X0.63100 Y2.18720
X0.63100 Y2.18820
X0.63300 Y2.18820
X0.63300 Y2.18920
X0.68700 Y2.18920
X0.68700 Y2.18720
X0.69100 Y2.18720
X0.69100 Y2.18520
X0.69600 Y2.18520
X0.69600 Y2.18220
X0.69900 Y2.18220
X0.69900 Y2.17920
X0.70200 Y2.17920
X0.70200 Y2.17520
X0.70500 Y2.17520
X0.70500 Y2.16920
G04 P0 ( dwell for no time -- G64 should not smooth over this point )
G00 Z0.19685 ( retract )

G00 X0.95500 Y2.14720 ( rapid move to begin. )
G01 Z-0.11417 F43.30709 ( plunge. )
G04 P0 ( dwell for no time -- G64 should not smooth over this point )
X0.95500 Y2.14720
X0.95500 Y2.14620
X0.95700 Y2.14620
X0.95700 Y2.14420
X0.95800 Y2.14420
X0.95800 Y2.14120
X0.95900 Y2.14120
X0.95900 Y2.13520
X0.96000 Y2.13520
X0.96000 Y2.08620
X0.95900 Y2.08620
X0.95900 Y2.08020
X0.95800 Y2.08020
X0.95800 Y2.07720
X0.95700 Y2.07720
X0.95700 Y2.07420
X0.95600 Y2.07420
X0.95600 Y2.07320
X0.95500 Y2.07320
X0.95500 Y2.07120
X0.95400 Y2.07120
X0.95400 Y2.06920
X0.95300 Y2.06920
X0.95300 Y2.06820
X0.95200 Y2.06820
X0.95200 Y2.06720
X0.95100 Y2.06720
X0.95100 Y2.06620
X0.95000 Y2.06620
X0.95000 Y2.06420
X0.94900 Y2.06420
X0.94900 Y2.06320
X0.94700 Y2.06320
X0.94700 Y2.06220
X0.94500 Y2.06220
X0.94500 Y2.06120
X0.94400 Y2.06120
X0.94400 Y2.06020
X0.94200 Y2.06020
X0.94200 Y2.05920
X0.94000 Y2.05920
X0.94000 Y2.05820
X0.93900 Y2.05820
X0.93900 Y2.05720
X0.93700 Y2.05720
X0.93700 Y2.05620
X0.93200 Y2.05620
X0.93200 Y2.05520
X0.92600 Y2.05520
X0.92600 Y2.05420
X0.88100 Y2.05420
X0.88100 Y2.05520
X0.87500 Y2.05520
X0.87500 Y2.05620
X0.87000 Y2.05620
X0.87000 Y2.05720
X0.86800 Y2.05720
X0.86800 Y2.05820
X0.86700 Y2.05820
X0.86700 Y2.05920
X0.86500 Y2.05920
X0.86500 Y2.06020
X0.86300 Y2.06020
X0.86300 Y2.06120
X0.86200 Y2.06120
X0.86200 Y2.06220
X0.86000 Y2.06220
X0.86000 Y2.06320
X0.85800 Y2.06320
X0.85800 Y2.06420
X0.85700 Y2.06420
X0.85700 Y2.06620
X0.85600 Y2.06620
X0.85600 Y2.06720
X0.85500 Y2.06720
X0.85500 Y2.06820
X0.85400 Y2.06820
X0.85400 Y2.06920
X0.85300 Y2.06920
X0.85300 Y2.07120
X0.85200 Y2.07120
X0.85200 Y2.07320
X0.85100 Y2.07320
X0.85100 Y2.07420
X0.85000 Y2.07420
X0.85000 Y2.07720
X0.84900 Y2.07720
X0.84900 Y2.08020
X0.84800 Y2.08020
X0.84800 Y2.08620
X0.84700 Y2.08620
X0.84700 Y2.13520
X0.84800 Y2.13520
X0.84800 Y2.14120
X0.84900 Y2.14120
X0.84900 Y2.14420
X0.85000 Y2.14420
X0.85000 Y2.14720
X0.85100 Y2.14720
X0.85100 Y2.14820
X0.85200 Y2.14820
X0.85200 Y2.15020
X0.85300 Y2.15020
X0.85300 Y2.15220
X0.85400 Y2.15220
X0.85400 Y2.15320
X0.85500 Y2.15320
X0.85500 Y2.15420
X0.85600 Y2.15420
X0.85600 Y2.15520
X0.85700 Y2.15520
X0.85700 Y2.15720
X0.85800 Y2.15720
X0.85800 Y2.15820
X0.86000 Y2.15820
X0.86000 Y2.15920
X0.86200 Y2.15920
X0.86200 Y2.16020
X0.86300 Y2.16020
X0.86300 Y2.16120
X0.86500 Y2.16120
X0.86500 Y2.16220
X0.86700 Y2.16220
X0.86700 Y2.16320
X0.86800 Y2.16320
X0.86800 Y2.16420
X0.87000 Y2.16420
X0.87000 Y2.16520
X0.87500 Y2.16520
X0.87500 Y2.16620
X0.88100 Y2.16620
X0.88100 Y2.16720
X0.92500 Y2.16720
X0.92500 Y2.16620
X0.93100 Y2.16620
X0.93100 Y2.16520
X0.93600 Y2.16520
X0.93600 Y2.16320
X0.93900 Y2.16320
X0.93900 Y2.16120
X0.94300 Y2.16120
X0.94300 Y2.15920
X0.94600 Y2.15920
X0.94600 Y2.15720
X0.94900 Y2.15720
X0.94900 Y2.15320
X0.95200 Y2.15320
X0.95200 Y2.14820
X0.95500 Y2.14820
X0.95500 Y2.14720
G04 P0 ( dwell for no time -- G64 should not smooth over this point )
G00 Z0.19685 ( retract )

G00 X1.06900 Y2.14720 ( rapid move to begin. )
G01 Z-0.11417 F43.30709 ( plunge. )
G04 P0 ( dwell for no time -- G64 should not smooth over this point )
X1.06900 Y2.14720
X1.06900 Y2.14620
X1.07100 Y2.14620
X1.07100 Y2.14420
X1.07200 Y2.14420
X1.07200 Y2.14120
X1.07300 Y2.14120
X1.07300 Y2.13520
X1.07400 Y2.13520
X1.07400 Y2.08620
X1.07300 Y2.08620
X1.07300 Y2.08020
X1.07200 Y2.08020
X1.07200 Y2.07720
X1.07100 Y2.07720
X1.07100 Y2.07420
X1.07000 Y2.07420
X1.07000 Y2.07320
X1.06900 Y2.07320
X1.06900 Y2.07120
X1.06800 Y2.07120
X1.06800 Y2.06920
X1.06700 Y2.06920
X1.06700 Y2.06820
X1.06600 Y2.06820
X1.06600 Y2.06720
X1.06500 Y2.06720
X1.06500 Y2.06620
X1.06400 Y2.06620
X1.06400 Y2.06420
X1.06300 Y2.06420
X1.06300 Y2.06320
X1.06100 Y2.06320
X1.06100 Y2.06220
X1.05900 Y2.06220
X1.05900 Y2.06120
X1.05800 Y2.06120
X1.05800 Y2.06020
X1.05600 Y2.06020
X1.05600 Y2.05920
X1.05400 Y2.05920
X1.05400 Y2.05820
X1.05300 Y2.05820
X1.05300 Y2.05720
X1.05100 Y2.05720
X1.05100 Y2.05620
X1.04600 Y2.05620
X1.04600 Y2.05520
X1.04000 Y2.05520
X1.04000 Y2.05420
X0.99500 Y2.05420
X0.99500 Y2.05520
X0.98900 Y2.05520
X0.98900 Y2.05620
X0.98400 Y2.05620
X0.98400 Y2.05720
X0.98200 Y2.05720
X0.98200 Y2.05820
X0.98100 Y2.05820
X0.98100 Y2.05920
X0.97900 Y2.05920
X0.97900 Y2.06020
X0.97700 Y2.06020
X0.97700 Y2.06120
X0.97600 Y2.06120
X0.97600 Y2.06220
X0.97400 Y2.06220
X0.97400 Y2.06320
X0.97200 Y2.06320
X0.97200 Y2.06420
X0.97100 Y2.06420
X0.97100 Y2.06620
X0.97000 Y2.06620
X0.97000 Y2.06720
X0.96900 Y2.06720
X0.96900 Y2.06820
X0.96800 Y2.06820
X0.96800 Y2.06920
X0.96700 Y2.06920
X0.96700 Y2.07120
X0.96600 Y2.07120
X0.96600 Y2.07320
X0.96500 Y2.07320
X0.96500 Y2.07420
X0.96400 Y2.07420
X0.96400 Y2.07720
X0.96300 Y2.07720
X0.96300 Y2.08020
X0.96200 Y2.08020
X0.96200 Y2.08620
X0.96100 Y2.08620
X0.96100 Y2.13520
X0.96200 Y2.13520
X0.96200 Y2.14120
X0.96300 Y2.14120
X0.96300 Y2.14420
X0.96400 Y2.14420
X0.96400 Y2.14720
X0.96500 Y2.14720
X0.96500 Y2.14820
X0.96600 Y2.14820
X0.96600 Y2.15020
X0.96700 Y2.15020
X0.96700 Y2.15220
X0.96800 Y2.15220
X0.96800 Y2.15320
X0.96900 Y2.15320
X0.96900 Y2.15420
X0.97000 Y2.15420
X0.97000 Y2.15520
X0.97100 Y2.15520
X0.97100 Y2.15720
X0.97200 Y2.15720
X0.97200 Y2.15820
X0.97400 Y2.15820
X0.97400 Y2.15920
X0.97600 Y2.15920
X0.97600 Y2.16020
X0.97700 Y2.16020
X0.97700 Y2.16120
X0.97900 Y2.16120
X0.97900 Y2.16220
X0.98100 Y2.16220
X0.98100 Y2.16320
X0.98200 Y2.16320
X0.98200 Y2.16420
X0.98400 Y2.16420
X0.98400 Y2.16520
X0.98900 Y2.16520
X0.98900 Y2.16620
X0.99500 Y2.16620
X0.99500 Y2.16720
X1.03900 Y2.16720
X1.03900 Y2.16620
X1.04500 Y2.16620
X1.04500 Y2.16520
X1.05000 Y2.16520
X1.05000 Y2.16320
X1.05300 Y2.16320
X1.05300 Y2.16120
X1.05700 Y2.16120
X1.05700 Y2.15920
X1.06000 Y2.15920
X1.06000 Y2.15720
X1.06300 Y2.15720
X1.06300 Y2.15320
X1.06600 Y2.15320
X1.06600 Y2.14820
X1.06900 Y2.14820
X1.06900 Y2.14720
G04 P0 ( dwell for no time -- G64 should not smooth over this point )
G00 Z0.19685 ( retract )

G00 X2.46700 Y2.09720 ( rapid move to begin. )
G01 Z-0.11417 F43.30709 ( plunge. )
G04 P0 ( dwell for no time -- G64 should not smooth over this point )
X2.46700 Y2.09720
X2.46700 Y2.09620
X2.46900 Y2.09620
X2.46900 Y2.09420
X2.47000 Y2.09420
X2.47000 Y2.09120
X2.47100 Y2.09120
X2.47100 Y2.08520
X2.47200 Y2.08520
X2.47200 Y2.03620
X2.47100 Y2.03620
X2.47100 Y2.03020
X2.47000 Y2.03020
X2.47000 Y2.02720
X2.46900 Y2.02720
X2.46900 Y2.02420
X2.46800 Y2.02420
X2.46800 Y2.02320
X2.46700 Y2.02320
X2.46700 Y2.02120
X2.46600 Y2.02120
X2.46600 Y2.01920
X2.46500 Y2.01920
X2.46500 Y2.01820
X2.46400 Y2.01820
X2.46400 Y2.01720
X2.46300 Y2.01720
X2.46300 Y2.01620
X2.46200 Y2.01620
X2.46200 Y2.01420
X2.46100 Y2.01420
X2.46100 Y2.01320
X2.45900 Y2.01320
X2.45900 Y2.01220
X2.45700 Y2.01220
X2.45700 Y2.01120
X2.45600 Y2.01120
X2.45600 Y2.01020
X2.45400 Y2.01020
X2.45400 Y2.00920
X2.45200 Y2.00920
X2.45200 Y2.00820
X2.45100 Y2.00820
X2.45100 Y2.00720
X2.44900 Y2.00720
X2.44900 Y2.00620
X2.44700 Y2.00620
X2.44700 Y2.00720
X2.44300 Y2.00720
X2.44300 Y2.00820
X2.43700 Y2.00820
X2.43700 Y2.00920
X2.42700 Y2.00920
X2.42700 Y2.01020
X2.39900 Y2.01020
X2.39900 Y2.01120
X2.38400 Y2.01120
X2.38400 Y2.01220
X2.37700 Y2.01220
X2.37700 Y2.01320
X2.37000 Y2.01320
X2.37000 Y2.01420
X2.36900 Y2.01420
X2.36900 Y2.01620
X2.36800 Y2.01620
X2.36800 Y2.01720
X2.36700 Y2.01720
X2.36700 Y2.01820
X2.36600 Y2.01820
X2.36600 Y2.01920
X2.36500 Y2.01920
X2.36500 Y2.02120
X2.36400 Y2.02120
X2.36400 Y2.02320
X2.36300 Y2.02320
X2.36300 Y2.02420
X2.36200 Y2.02420
X2.36200 Y2.02720
X2.36100 Y2.02720
X2.36100 Y2.03020
X2.36000 Y2.03020
X2.36000 Y2.03620
X2.35900 Y2.03620
X2.35900 Y2.08520
X2.36000 Y2.08520
X2.36000 Y2.09120
X2.36100 Y2.09120
X2.36100 Y2.09420
X2.36200 Y2.09420
X2.36200 Y2.09720
X2.36300 Y2.09720
X2.36300 Y2.09820
X2.36400 Y2.09820
X2.36400 Y2.10020
X2.36500 Y2.10020
X2.36500 Y2.10220
X2.36600 Y2.10220
X2.36600 Y2.10320
X2.36700 Y2.10320
X2.36700 Y2.10420
X2.36800 Y2.10420
X2.36800 Y2.10520
X2.36900 Y2.10520
X2.36900 Y2.10720
X2.37000 Y2.10720
X2.37000 Y2.10820
X2.37200 Y2.10820
X2.37200 Y2.10920
X2.37400 Y2.10920
X2.37400 Y2.11020
X2.37500 Y2.11020
X2.37500 Y2.11120
X2.37700 Y2.11120
X2.37700 Y2.11220
X2.37900 Y2.11220
X2.37900 Y2.11320
X2.38000 Y2.11320
X2.38000 Y2.11420
X2.38200 Y2.11420
X2.38200 Y2.11520
X2.38700 Y2.11520
X2.38700 Y2.11620
X2.39300 Y2.11620
X2.39300 Y2.11720
X2.43700 Y2.11720
X2.43700 Y2.11620
X2.44300 Y2.11620
X2.44300 Y2.11520
X2.44800 Y2.11520
X2.44800 Y2.11320
X2.45100 Y2.11320
X2.45100 Y2.11120
X2.45500 Y2.11120
X2.45500 Y2.10920
X2.45800 Y2.10920
X2.45800 Y2.10720
X2.46100 Y2.10720
X2.46100 Y2.10320
X2.46400 Y2.10320
X2.46400 Y2.09820
X2.46700 Y2.09820
X2.46700 Y2.09720
G04 P0 ( dwell for no time -- G64 should not smooth over this point )
G00 Z0.19685 ( retract )

G00 X2.34700 Y2.08020 ( rapid move to begin. )
G01 Z-0.11417 F43.30709 ( plunge. )
G04 P0 ( dwell for no time -- G64 should not smooth over this point )
X2.34700 Y2.08020
X2.34700 Y2.07920
X2.35000 Y2.07920
X2.35000 Y2.03220
X2.34900 Y2.03220
X2.34900 Y2.03120
X2.34800 Y2.03120
X2.34800 Y2.03020
X2.34700 Y2.03020
X2.34700 Y2.02920
X2.34600 Y2.02920
X2.34600 Y2.02820
X2.34500 Y2.02820
X2.34500 Y2.02720
X2.34400 Y2.02720
X2.34400 Y2.02620
X2.34300 Y2.02620
X2.34300 Y2.02520
X2.34200 Y2.02520
X2.34200 Y2.02420
X2.34100 Y2.02420
X2.34100 Y2.02320
X2.34000 Y2.02320
X2.34000 Y2.02220
X2.33900 Y2.02220
X2.33900 Y2.02120
X2.33800 Y2.02120
X2.33800 Y1.40020
X2.33900 Y1.40020
X2.33900 Y1.39920
X2.34000 Y1.39920
X2.34000 Y1.39820
X2.34100 Y1.39820
X2.34100 Y1.39720
X2.34200 Y1.39720
X2.34200 Y1.39620
X2.34300 Y1.39620
X2.34300 Y1.39520
X2.34400 Y1.39520
X2.34400 Y1.39420
X2.34500 Y1.39420
X2.34500 Y1.39320
X2.34600 Y1.39320
X2.34600 Y1.39220
X2.34700 Y1.39220
X2.34700 Y1.39120
X2.34800 Y1.39120
X2.34800 Y1.39020
X2.34900 Y1.39020
X2.34900 Y1.38920
X2.35000 Y1.38920
X2.35000 Y1.33220
X2.34900 Y1.33220
X2.34900 Y1.33120
X2.34800 Y1.33120
X2.34800 Y1.33020
X2.34700 Y1.33020
X2.34700 Y1.32920
X2.34600 Y1.32920
X2.34600 Y1.32820
X2.34500 Y1.32820
X2.34500 Y1.32720
X2.34400 Y1.32720
X2.34400 Y1.32620
X2.34300 Y1.32620
X2.34300 Y1.32520
X2.34200 Y1.32520
X2.34200 Y1.32420
X2.34100 Y1.32420
X2.34100 Y1.32320
X2.34000 Y1.32320
X2.34000 Y1.32220
X2.33900 Y1.32220
X2.33900 Y1.32120
X2.28200 Y1.32120
X2.28200 Y1.32220
X2.28100 Y1.32220
X2.28100 Y1.32320
X2.28000 Y1.32320
X2.28000 Y1.32420
X2.27900 Y1.32420
X2.27900 Y1.32520
X2.27800 Y1.32520
X2.27800 Y1.32620
X2.27700 Y1.32620
X2.27700 Y1.32720
X2.27600 Y1.32720
X2.27600 Y1.32820
X2.27500 Y1.32820
X2.27500 Y1.32920
X2.27400 Y1.32920
X2.27400 Y1.33020
X2.27300 Y1.33020
X2.27300 Y1.33120
X2.27200 Y1.33120
X2.27200 Y1.33220
X2.27100 Y1.33220
X2.27100 Y1.38920
X2.27200 Y1.38920
X2.27200 Y1.39020
X2.27300 Y1.39020
X2.27300 Y1.39120
X2.27400 Y1.39120
X2.27400 Y1.39220
X2.27500 Y1.39220
X2.27500 Y1.39320
X2.27600 Y1.39320
X2.27600 Y1.39420
X2.27700 Y1.39420
X2.27700 Y1.39520
X2.27800 Y1.39520
X2.27800 Y1.39620
X2.27900 Y1.39620
X2.27900 Y1.39720
X2.28000 Y1.39720
X2.28000 Y1.39820
X2.28100 Y1.39820
X2.28100 Y1.39920
X2.28200 Y1.39920
X2.28200 Y1.40020
X2.28300 Y1.40020
X2.28300 Y2.02120
X2.28200 Y2.02120
X2.28200 Y2.02220
X2.28100 Y2.02220
X2.28100 Y2.02320
X2.28000 Y2.02320
X2.28000 Y2.02420
X2.27900 Y2.02420
X2.27900 Y2.02520
X2.27800 Y2.02520
X2.27800 Y2.02620
X2.27700 Y2.02620
X2.27700 Y2.02720
X2.27600 Y2.02720
X2.27600 Y2.02820
X2.27500 Y2.02820
X2.27500 Y2.02920
X2.27400 Y2.02920
X2.27400 Y2.03020
X2.27300 Y2.03020
X2.27300 Y2.03120
X2.27200 Y2.03120
X2.27200 Y2.03220
X2.27100 Y2.03220
X2.27100 Y2.08920
X2.27200 Y2.08920
X2.27200 Y2.09020
X2.27300 Y2.09020
X2.27300 Y2.09120
X2.27400 Y2.09120
X2.27400 Y2.09220
X2.27500 Y2.09220
X2.27500 Y2.09320
X2.27600 Y2.09320
X2.27600 Y2.09420
X2.27700 Y2.09420
X2.27700 Y2.09520
X2.27800 Y2.09520
X2.27800 Y2.09620
X2.27900 Y2.09620
X2.27900 Y2.09720
X2.28000 Y2.09720
X2.28000 Y2.09820
X2.28100 Y2.09820
X2.28100 Y2.09920
X2.28200 Y2.09920
X2.28200 Y2.10020
X2.33800 Y2.10020
X2.33800 Y2.09720
X2.34100 Y2.09720
X2.34100 Y2.09420
X2.34400 Y2.09420
X2.34400 Y2.09120
X2.34700 Y2.09120
X2.34700 Y2.08020
G04 P0 ( dwell for no time -- G64 should not smooth over this point )
G00 Z0.19685 ( retract )

G00 X0.21300 Y2.00520 ( rapid move to begin. )
G01 Z-0.11417 F43.30709 ( plunge. )
G04 P0 ( dwell for no time -- G64 should not smooth over this point )
X0.21300 Y2.00520
X0.21300 Y2.00420
X0.21600 Y2.00420
X0.21600 Y2.00320
X0.21700 Y2.00320
X0.21700 Y2.00020
X0.21800 Y2.00020
X0.21800 Y1.99620
X0.21900 Y1.99620
X0.21900 Y1.99020
X0.22000 Y1.99020
X0.22000 Y1.94120
X0.21900 Y1.94120
X0.21900 Y1.93520
X0.21800 Y1.93520
X0.21800 Y1.93220
X0.21700 Y1.93220
X0.21700 Y1.92820
X0.21600 Y1.92820
X0.21600 Y1.92720
X0.21500 Y1.92720
X0.21500 Y1.92520
X0.21400 Y1.92520
X0.21400 Y1.92320
X0.21300 Y1.92320
X0.21300 Y1.92220
X0.21200 Y1.92220
X0.21200 Y1.92020
X0.21100 Y1.92020
X0.21100 Y1.91920
X0.21000 Y1.91920
X0.21000 Y1.91820
X0.20900 Y1.91820
X0.20900 Y1.91720
X0.20800 Y1.91720
X0.20800 Y1.91620
X0.20700 Y1.91620
X0.20700 Y1.91520
X0.20500 Y1.91520
X0.20500 Y1.91420
X0.20300 Y1.91420
X0.20300 Y1.91320
X0.20200 Y1.91320
X0.20200 Y1.91220
X0.20000 Y1.91220
X0.20000 Y1.91120
X0.19800 Y1.91120
X0.19800 Y1.91020
X0.19400 Y1.91020
X0.19400 Y1.90920
X0.19200 Y1.90920
X0.19200 Y1.91020
X0.12300 Y1.91020
X0.12300 Y1.91120
X0.12100 Y1.91120
X0.12100 Y1.91220
X0.11900 Y1.91220
X0.11900 Y1.91320
X0.11800 Y1.91320
X0.11800 Y1.91420
X0.11600 Y1.91420
X0.11600 Y1.91520
X0.11400 Y1.91520
X0.11400 Y1.91620
X0.11300 Y1.91620
X0.11300 Y1.91720
X0.11200 Y1.91720
X0.11200 Y1.91820
X0.11100 Y1.91820
X0.11100 Y1.91920
X0.11000 Y1.91920
X0.11000 Y1.92020
X0.10900 Y1.92020
X0.10900 Y1.92220
X0.10800 Y1.92220
X0.10800 Y1.92320
X0.10700 Y1.92320
X0.10700 Y1.92520
X0.10600 Y1.92520
X0.10600 Y1.92720
X0.10500 Y1.92720
X0.10500 Y1.92820
X0.10400 Y1.92820
X0.10400 Y1.93220
X0.10300 Y1.93220
X0.10300 Y1.93520
X0.10200 Y1.93520
X0.10200 Y1.94120
X0.10100 Y1.94120
X0.10100 Y1.99020
X0.10200 Y1.99020
X0.10200 Y1.99620
X0.10300 Y1.99620
X0.10300 Y2.00020
X0.10400 Y2.00020
X0.10400 Y2.00320
X0.10500 Y2.00320
X0.10500 Y2.00420
X0.10600 Y2.00420
X0.10600 Y2.00620
X0.10700 Y2.00620
X0.10700 Y2.00820
X0.10800 Y2.00820
X0.10800 Y2.01020
X0.10900 Y2.01020
X0.10900 Y2.01120
X0.11000 Y2.01120
X0.11000 Y2.01220
X0.11100 Y2.01220
X0.11100 Y2.01320
X0.11200 Y2.01320
X0.11200 Y2.01420
X0.11300 Y2.01420
X0.11300 Y2.01520
X0.11400 Y2.01520
X0.11400 Y2.01620
X0.11600 Y2.01620
X0.11600 Y2.01720
X0.11800 Y2.01720
X0.11800 Y2.01820
X0.11900 Y2.01820
X0.11900 Y2.01920
X0.12100 Y2.01920
X0.12100 Y2.02020
X0.12300 Y2.02020
X0.12300 Y2.02120
X0.12500 Y2.02120
X0.12500 Y2.02220
X0.12600 Y2.02220
X0.12600 Y2.02320
X0.13200 Y2.02320
X0.13200 Y2.02420
X0.13800 Y2.02420
X0.13800 Y2.02520
X0.18200 Y2.02520
X0.18200 Y2.02420
X0.18800 Y2.02420
X0.18800 Y2.02320
X0.19400 Y2.02320
X0.19400 Y2.02120
X0.19700 Y2.02120
X0.19700 Y2.01920
X0.20100 Y2.01920
X0.20100 Y2.01720
X0.20400 Y2.01720
X0.20400 Y2.01520
X0.20700 Y2.01520
X0.20700 Y2.01220
X0.21000 Y2.01220
X0.21000 Y2.00820
X0.21300 Y2.00820
X0.21300 Y2.00520
G04 P0 ( dwell for no time -- G64 should not smooth over this point )
G00 Z0.19685 ( retract )

G00 X2.45700 Y1.99720 ( rapid move to begin. )
G01 Z-0.11417 F43.30709 ( plunge. )
G04 P0 ( dwell for no time -- G64 should not smooth over this point )
X2.45700 Y1.99720
X2.45700 Y1.99620
X2.45900 Y1.99620
X2.45900 Y1.99420
X2.46000 Y1.99420
X2.46000 Y1.99120
X2.46100 Y1.99120
X2.46100 Y1.98520
X2.46200 Y1.98520
X2.46200 Y1.93620
X2.46100 Y1.93620
X2.46100 Y1.93020
X2.46000 Y1.93020
X2.46000 Y1.92720
X2.45900 Y1.92720
X2.45900 Y1.92420
X2.45800 Y1.92420
X2.45800 Y1.92320
X2.45700 Y1.92320
X2.45700 Y1.92120
X2.45600 Y1.92120
X2.45600 Y1.91920
X2.45500 Y1.91920
X2.45500 Y1.91820
X2.45400 Y1.91820
X2.45400 Y1.91720
X2.45300 Y1.91720
X2.45300 Y1.91620
X2.45200 Y1.91620
X2.45200 Y1.91420
X2.45100 Y1.91420
X2.45100 Y1.91320
X2.44900 Y1.91320
X2.44900 Y1.91220
X2.44700 Y1.91220
X2.44700 Y1.91320
X2.44400 Y1.91320
X2.44400 Y1.91220
X2.43700 Y1.91220
X2.43700 Y1.91120
X2.42200 Y1.91120
X2.42200 Y1.91020
X2.39300 Y1.91020
X2.39300 Y1.90920
X2.38300 Y1.90920
X2.38300 Y1.90820
X2.37600 Y1.90820
X2.37600 Y1.90720
X2.37000 Y1.90720
X2.37000 Y1.90820
X2.36900 Y1.90820
X2.36900 Y1.90920
X2.36700 Y1.90920
X2.36700 Y1.91020
X2.36500 Y1.91020
X2.36500 Y1.91120
X2.36400 Y1.91120
X2.36400 Y1.91220
X2.36200 Y1.91220
X2.36200 Y1.91320
X2.36000 Y1.91320
X2.36000 Y1.91420
X2.35900 Y1.91420
X2.35900 Y1.91620
X2.35800 Y1.91620
X2.35800 Y1.91720
X2.35700 Y1.91720
X2.35700 Y1.91820
X2.35600 Y1.91820
X2.35600 Y1.91920
X2.35500 Y1.91920
X2.35500 Y1.92120
X2.35400 Y1.92120
X2.35400 Y1.92320
X2.35300 Y1.92320
X2.35300 Y1.92420
X2.35200 Y1.92420
X2.35200 Y1.92720
X2.35100 Y1.92720
X2.35100 Y1.93020
X2.35000 Y1.93020
X2.35000 Y1.93620
X2.34900 Y1.93620
X2.34900 Y1.98520
X2.35000 Y1.98520
X2.35000 Y1.99120
X2.35100 Y1.99120
X2.35100 Y1.99420
X2.35200 Y1.99420
X2.35200 Y1.99720
X2.35300 Y1.99720
X2.35300 Y1.99820
X2.35400 Y1.99820
X2.35400 Y2.00020
X2.35500 Y2.00020
X2.35500 Y2.00220
X2.35600 Y2.00220
X2.35600 Y2.00320
X2.35700 Y2.00320
X2.35700 Y2.00420
X2.35800 Y2.00420
X2.35800 Y2.00520
X2.35900 Y2.00520
X2.35900 Y2.00720
X2.36000 Y2.00720
X2.36000 Y2.00820
X2.36200 Y2.00820
X2.36200 Y2.00920
X2.36400 Y2.00920
X2.36400 Y2.01020
X2.36500 Y2.01020
X2.36500 Y2.01120
X2.36700 Y2.01120
X2.36700 Y2.01220
X2.36900 Y2.01220
X2.36900 Y2.01320
X2.37700 Y2.01320
X2.37700 Y2.01220
X2.38400 Y2.01220
X2.38400 Y2.01120
X2.39900 Y2.01120
X2.39900 Y2.01020
X2.42700 Y2.01020
X2.42700 Y2.00920
X2.43700 Y2.00920
X2.43700 Y2.00820
X2.44300 Y2.00820
X2.44300 Y2.00720
X2.44700 Y2.00720
X2.44700 Y2.00620
X2.44900 Y2.00620
X2.44900 Y2.00720
X2.45100 Y2.00720
X2.45100 Y2.00320
X2.45400 Y2.00320
X2.45400 Y1.99820
X2.45700 Y1.99820
X2.45700 Y1.99720
G04 P0 ( dwell for no time -- G64 should not smooth over this point )
G00 Z0.19685 ( retract )

G00 X0.75200 Y1.98620 ( rapid move to begin. )
G01 Z-0.11417 F43.30709 ( plunge. )
G04 P0 ( dwell for no time -- G64 should not smooth over this point )
X0.75200 Y1.98620
X0.75200 Y1.98520
X0.75500 Y1.98520
X0.75500 Y1.98120
X0.75600 Y1.98120
X0.75600 Y1.94020
X0.75500 Y1.94020
X0.75500 Y1.93520
X0.75400 Y1.93520
X0.75400 Y1.93020
X0.75300 Y1.93020
X0.75300 Y1.92820
X0.75200 Y1.92820
X0.75200 Y1.92720
X0.75100 Y1.92720
X0.75100 Y1.92620
X0.75000 Y1.92620
X0.75000 Y1.92420
X0.74900 Y1.92420
X0.74900 Y1.92320
X0.74800 Y1.92320
X0.74800 Y1.92220
X0.74700 Y1.92220
X0.74700 Y1.92120
X0.74600 Y1.92120
X0.74600 Y1.92020
X0.74400 Y1.92020
X0.74400 Y1.91920
X0.74200 Y1.91920
X0.74200 Y1.91820
X0.74100 Y1.91820
X0.74100 Y1.91720
X0.73700 Y1.91720
X0.73700 Y1.91620
X0.73100 Y1.91620
X0.73100 Y1.91520
X0.69000 Y1.91520
X0.69000 Y1.91620
X0.68400 Y1.91620
X0.68400 Y1.91720
X0.68000 Y1.91720
X0.68000 Y1.91820
X0.67900 Y1.91820
X0.67900 Y1.91920
X0.67700 Y1.91920
X0.67700 Y1.92020
X0.67500 Y1.92020
X0.67500 Y1.92120
X0.67400 Y1.92120
X0.67400 Y1.92220
X0.67300 Y1.92220
X0.67300 Y1.92320
X0.67200 Y1.92320
X0.67200 Y1.92420
X0.67100 Y1.92420
X0.67100 Y1.92620
X0.67000 Y1.92620
X0.67000 Y1.92720
X0.66900 Y1.92720
X0.66900 Y1.92820
X0.66800 Y1.92820
X0.66800 Y1.93020
X0.66700 Y1.93020
X0.66700 Y1.93520
X0.66600 Y1.93520
X0.66600 Y1.94020
X0.66500 Y1.94020
X0.66500 Y1.98120
X0.66600 Y1.98120
X0.66600 Y1.98620
X0.66700 Y1.98620
X0.66700 Y1.99120
X0.66800 Y1.99120
X0.66800 Y1.99320
X0.66900 Y1.99320
X0.66900 Y1.99420
X0.67000 Y1.99420
X0.67000 Y1.99520
X0.67100 Y1.99520
X0.67100 Y1.99720
X0.67200 Y1.99720
X0.67200 Y1.99820
X0.67300 Y1.99820
X0.67300 Y1.99920
X0.67400 Y1.99920
X0.67400 Y2.00020
X0.67500 Y2.00020
X0.67500 Y2.00120
X0.67700 Y2.00120
X0.67700 Y2.00220
X0.67900 Y2.00220
X0.67900 Y2.00320
X0.68000 Y2.00320
X0.68000 Y2.00420
X0.68400 Y2.00420
X0.68400 Y2.00520
X0.69000 Y2.00520
X0.69000 Y2.00620
X0.73000 Y2.00620
X0.73000 Y2.00520
X0.73600 Y2.00520
X0.73600 Y2.00420
X0.74000 Y2.00420
X0.74000 Y2.00220
X0.74300 Y2.00220
X0.74300 Y2.00020
X0.74600 Y2.00020
X0.74600 Y1.99720
X0.74900 Y1.99720
X0.74900 Y1.99320
X0.75200 Y1.99320
X0.75200 Y1.98620
G04 P0 ( dwell for no time -- G64 should not smooth over this point )
G00 Z0.19685 ( retract )

G00 X0.85200 Y1.98620 ( rapid move to begin. )
G01 Z-0.11417 F43.30709 ( plunge. )
G04 P0 ( dwell for no time -- G64 should not smooth over this point )
X0.85200 Y1.98620
X0.85200 Y1.98520
X0.85500 Y1.98520
X0.85500 Y1.98120
X0.85600 Y1.98120
X0.85600 Y1.94020
X0.85500 Y1.94020
X0.85500 Y1.93520
X0.85400 Y1.93520
X0.85400 Y1.93020
X0.85300 Y1.93020
X0.85300 Y1.92820
X0.85200 Y1.92820
X0.85200 Y1.92720
X0.85100 Y1.92720
X0.85100 Y1.92620
X0.85000 Y1.92620
X0.85000 Y1.92420
X0.84900 Y1.92420
X0.84900 Y1.92320
X0.84800 Y1.92320
X0.84800 Y1.92220
X0.84700 Y1.92220
X0.84700 Y1.92120
X0.84600 Y1.92120
X0.84600 Y1.92020
X0.84400 Y1.92020
X0.84400 Y1.91920
X0.84200 Y1.91920
X0.84200 Y1.91820
X0.84100 Y1.91820
X0.84100 Y1.91720
X0.83700 Y1.91720
X0.83700 Y1.91620
X0.83100 Y1.91620
X0.83100 Y1.91520
X0.79000 Y1.91520
X0.79000 Y1.91620
X0.78400 Y1.91620
X0.78400 Y1.91720
X0.78000 Y1.91720
X0.78000 Y1.91820
X0.77900 Y1.91820
X0.77900 Y1.91920
X0.77700 Y1.91920
X0.77700 Y1.92020
X0.77500 Y1.92020
X0.77500 Y1.92120
X0.77400 Y1.92120
X0.77400 Y1.92220
X0.77300 Y1.92220
X0.77300 Y1.92320
X0.77200 Y1.92320
X0.77200 Y1.92420
X0.77100 Y1.92420
X0.77100 Y1.92620
X0.77000 Y1.92620
X0.77000 Y1.92720
X0.76900 Y1.92720
X0.76900 Y1.92820
X0.76800 Y1.92820
X0.76800 Y1.93020
X0.76700 Y1.93020
X0.76700 Y1.93520
X0.76600 Y1.93520
X0.76600 Y1.94020
X0.76500 Y1.94020
X0.76500 Y1.98120
X0.76600 Y1.98120
X0.76600 Y1.98620
X0.76700 Y1.98620
X0.76700 Y1.99120
X0.76800 Y1.99120
X0.76800 Y1.99320
X0.76900 Y1.99320
X0.76900 Y1.99420
X0.77000 Y1.99420
X0.77000 Y1.99520
X0.77100 Y1.99520
X0.77100 Y1.99720
X0.77200 Y1.99720
X0.77200 Y1.99820
X0.77300 Y1.99820
X0.77300 Y1.99920
X0.77400 Y1.99920
X0.77400 Y2.00020
X0.77500 Y2.00020
X0.77500 Y2.00120
X0.77700 Y2.00120
X0.77700 Y2.00220
X0.77900 Y2.00220
X0.77900 Y2.00320
X0.78000 Y2.00320
X0.78000 Y2.00420
X0.78400 Y2.00420
X0.78400 Y2.00520
X0.79000 Y2.00520
X0.79000 Y2.00620
X0.83000 Y2.00620
X0.83000 Y2.00520
X0.83600 Y2.00520
X0.83600 Y2.00420
X0.84000 Y2.00420
X0.84000 Y2.00220
X0.84300 Y2.00220
X0.84300 Y2.00020
X0.84600 Y2.00020
X0.84600 Y1.99720
X0.84900 Y1.99720
X0.84900 Y1.99320
X0.85200 Y1.99320
X0.85200 Y1.98620
G04 P0 ( dwell for no time -- G64 should not smooth over this point )
G00 Z0.19685 ( retract )

G00 X2.46700 Y1.89720 ( rapid move to begin. )
G01 Z-0.11417 F43.30709 ( plunge. )
G04 P0 ( dwell for no time -- G64 should not smooth over this point )
X2.46700 Y1.89720
X2.46700 Y1.89620
X2.46900 Y1.89620
X2.46900 Y1.89420
X2.47000 Y1.89420
X2.47000 Y1.89120
X2.47100 Y1.89120
X2.47100 Y1.88520
X2.47200 Y1.88520
X2.47200 Y1.83620
X2.47100 Y1.83620
X2.47100 Y1.83020
X2.47000 Y1.83020
X2.47000 Y1.82720
X2.46900 Y1.82720
X2.46900 Y1.82420
X2.46800 Y1.82420
X2.46800 Y1.82320
X2.46700 Y1.82320
X2.46700 Y1.82120
X2.46600 Y1.82120
X2.46600 Y1.81920
X2.46500 Y1.81920
X2.46500 Y1.81820
X2.46400 Y1.81820
X2.46400 Y1.81720
X2.46300 Y1.81720
X2.46300 Y1.81620
X2.46200 Y1.81620
X2.46200 Y1.81420
X2.46100 Y1.81420
X2.46100 Y1.81320
X2.45900 Y1.81320
X2.45900 Y1.81220
X2.45700 Y1.81220
X2.45700 Y1.81120
X2.45600 Y1.81120
X2.45600 Y1.81020
X2.45400 Y1.81020
X2.45400 Y1.80920
X2.45200 Y1.80920
X2.45200 Y1.80820
X2.45100 Y1.80820
X2.45100 Y1.80720
X2.44900 Y1.80720
X2.44900 Y1.80620
X2.44700 Y1.80620
X2.44700 Y1.80720
X2.44300 Y1.80720
X2.44300 Y1.80820
X2.43700 Y1.80820
X2.43700 Y1.80920
X2.42700 Y1.80920
X2.42700 Y1.81020
X2.39900 Y1.81020
X2.39900 Y1.81120
X2.38400 Y1.81120
X2.38400 Y1.81220
X2.37700 Y1.81220
X2.37700 Y1.81320
X2.37000 Y1.81320
X2.37000 Y1.81420
X2.36900 Y1.81420
X2.36900 Y1.81620
X2.36800 Y1.81620
X2.36800 Y1.81720
X2.36700 Y1.81720
X2.36700 Y1.81820
X2.36600 Y1.81820
X2.36600 Y1.81920
X2.36500 Y1.81920
X2.36500 Y1.82120
X2.36400 Y1.82120
X2.36400 Y1.82320
X2.36300 Y1.82320
X2.36300 Y1.82420
X2.36200 Y1.82420
X2.36200 Y1.82720
X2.36100 Y1.82720
X2.36100 Y1.83020
X2.36000 Y1.83020
X2.36000 Y1.83620
X2.35900 Y1.83620
X2.35900 Y1.88520
X2.36000 Y1.88520
X2.36000 Y1.89120
X2.36100 Y1.89120
X2.36100 Y1.89420
X2.36200 Y1.89420
X2.36200 Y1.89720
X2.36300 Y1.89720
X2.36300 Y1.89820
X2.36400 Y1.89820
X2.36400 Y1.90020
X2.36500 Y1.90020
X2.36500 Y1.90220
X2.36600 Y1.90220
X2.36600 Y1.90320
X2.36700 Y1.90320
X2.36700 Y1.90420
X2.36800 Y1.90420
X2.36800 Y1.90520
X2.36900 Y1.90520
X2.36900 Y1.90720
X2.37600 Y1.90720
X2.37600 Y1.90820
X2.38300 Y1.90820
X2.38300 Y1.90920
X2.39300 Y1.90920
X2.39300 Y1.91020
X2.42200 Y1.91020
X2.42200 Y1.91120
X2.43700 Y1.91120
X2.43700 Y1.91220
X2.44400 Y1.91220
X2.44400 Y1.91320
X2.44700 Y1.91320
X2.44700 Y1.91220
X2.44900 Y1.91220
X2.44900 Y1.91320
X2.45100 Y1.91320
X2.45100 Y1.91120
X2.45500 Y1.91120
X2.45500 Y1.90920
X2.45800 Y1.90920
X2.45800 Y1.90720
X2.46100 Y1.90720
X2.46100 Y1.90320
X2.46400 Y1.90320
X2.46400 Y1.89820
X2.46700 Y1.89820
X2.46700 Y1.89720
G04 P0 ( dwell for no time -- G64 should not smooth over this point )
G00 Z0.19685 ( retract )

G00 X0.21300 Y1.89520 ( rapid move to begin. )
G01 Z-0.11417 F43.30709 ( plunge. )
G04 P0 ( dwell for no time -- G64 should not smooth over this point )
X0.21300 Y1.89520
X0.21300 Y1.89420
X0.21600 Y1.89420
X0.21600 Y1.89320
X0.21700 Y1.89320
X0.21700 Y1.89020
X0.21800 Y1.89020
X0.21800 Y1.88620
X0.21900 Y1.88620
X0.21900 Y1.88020
X0.22000 Y1.88020
X0.22000 Y1.83120
X0.21900 Y1.83120
X0.21900 Y1.82520
X0.21800 Y1.82520
X0.21800 Y1.82220
X0.21700 Y1.82220
X0.21700 Y1.81820
X0.21600 Y1.81820
X0.21600 Y1.81720
X0.21500 Y1.81720
X0.21500 Y1.81520
X0.21400 Y1.81520
X0.21400 Y1.81320
X0.21300 Y1.81320
X0.21300 Y1.81220
X0.21200 Y1.81220
X0.21200 Y1.81020
X0.21100 Y1.81020
X0.21100 Y1.80920
X0.21000 Y1.80920
X0.21000 Y1.80820
X0.20900 Y1.80820
X0.20900 Y1.80720
X0.20800 Y1.80720
X0.20800 Y1.80620
X0.20700 Y1.80620
X0.20700 Y1.80520
X0.20500 Y1.80520
X0.20500 Y1.80420
X0.20300 Y1.80420
X0.20300 Y1.80320
X0.20200 Y1.80320
X0.20200 Y1.80220
X0.20000 Y1.80220
X0.20000 Y1.80120
X0.19800 Y1.80120
X0.19800 Y1.80020
X0.19600 Y1.80020
X0.19600 Y1.79920
X0.19500 Y1.79920
X0.19500 Y1.79820
X0.18900 Y1.79820
X0.18900 Y1.79720
X0.18300 Y1.79720
X0.18300 Y1.79620
X0.13800 Y1.79620
X0.13800 Y1.79720
X0.13200 Y1.79720
X0.13200 Y1.79820
X0.12600 Y1.79820
X0.12600 Y1.79920
X0.12500 Y1.79920
X0.12500 Y1.80020
X0.12300 Y1.80020
X0.12300 Y1.80120
X0.12100 Y1.80120
X0.12100 Y1.80220
X0.11900 Y1.80220
X0.11900 Y1.80320
X0.11800 Y1.80320
X0.11800 Y1.80420
X0.11600 Y1.80420
X0.11600 Y1.80520
X0.11400 Y1.80520
X0.11400 Y1.80620
X0.11300 Y1.80620
X0.11300 Y1.80720
X0.11200 Y1.80720
X0.11200 Y1.80820
X0.11100 Y1.80820
X0.11100 Y1.80920
X0.11000 Y1.80920
X0.11000 Y1.81020
X0.10900 Y1.81020
X0.10900 Y1.81220
X0.10800 Y1.81220
X0.10800 Y1.81320
X0.10700 Y1.81320
X0.10700 Y1.81520
X0.10600 Y1.81520
X0.10600 Y1.81720
X0.10500 Y1.81720
X0.10500 Y1.81820
X0.10400 Y1.81820
X0.10400 Y1.82220
X0.10300 Y1.82220
X0.10300 Y1.82520
X0.10200 Y1.82520
X0.10200 Y1.83120
X0.10100 Y1.83120
X0.10100 Y1.88020
X0.10200 Y1.88020
X0.10200 Y1.88620
X0.10300 Y1.88620
X0.10300 Y1.89020
X0.10400 Y1.89020
X0.10400 Y1.89320
X0.10500 Y1.89320
X0.10500 Y1.89420
X0.10600 Y1.89420
X0.10600 Y1.89620
X0.10700 Y1.89620
X0.10700 Y1.89820
X0.10800 Y1.89820
X0.10800 Y1.90020
X0.10900 Y1.90020
X0.10900 Y1.90120
X0.11000 Y1.90120
X0.11000 Y1.90220
X0.11100 Y1.90220
X0.11100 Y1.90320
X0.11200 Y1.90320
X0.11200 Y1.90420
X0.11300 Y1.90420
X0.11300 Y1.90520
X0.11400 Y1.90520
X0.11400 Y1.90620
X0.11600 Y1.90620
X0.11600 Y1.90720
X0.11800 Y1.90720
X0.11800 Y1.90820
X0.11900 Y1.90820
X0.11900 Y1.90920
X0.12100 Y1.90920
X0.12100 Y1.91020
X0.19200 Y1.91020
X0.19200 Y1.90920
X0.19400 Y1.90920
X0.19400 Y1.91020
X0.19700 Y1.91020
X0.19700 Y1.90920
X0.20100 Y1.90920
X0.20100 Y1.90720
X0.20400 Y1.90720
X0.20400 Y1.90520
X0.20700 Y1.90520
X0.20700 Y1.90220
X0.21000 Y1.90220
X0.21000 Y1.89820
X0.21300 Y1.89820
X0.21300 Y1.89520
G04 P0 ( dwell for no time -- G64 should not smooth over this point )
G00 Z0.19685 ( retract )

G00 X2.45700 Y1.79720 ( rapid move to begin. )
G01 Z-0.11417 F43.30709 ( plunge. )
G04 P0 ( dwell for no time -- G64 should not smooth over this point )
X2.45700 Y1.79720
X2.45700 Y1.79620
X2.45900 Y1.79620
X2.45900 Y1.79420
X2.46000 Y1.79420
X2.46000 Y1.79120
X2.46100 Y1.79120
X2.46100 Y1.78520
X2.46200 Y1.78520
X2.46200 Y1.73620
X2.46100 Y1.73620
X2.46100 Y1.73020
X2.46000 Y1.73020
X2.46000 Y1.72720
X2.45900 Y1.72720
X2.45900 Y1.72420
X2.45800 Y1.72420
X2.45800 Y1.72320
X2.45700 Y1.72320
X2.45700 Y1.72120
X2.45600 Y1.72120
X2.45600 Y1.71920
X2.45500 Y1.71920
X2.45500 Y1.71820
X2.45400 Y1.71820
X2.45400 Y1.71720
X2.45300 Y1.71720
X2.45300 Y1.71620
X2.45200 Y1.71620
X2.45200 Y1.71420
X2.45100 Y1.71420
X2.45100 Y1.71320
X2.44900 Y1.71320
X2.44900 Y1.71220
X2.44700 Y1.71220
X2.44700 Y1.71320
X2.44400 Y1.71320
X2.44400 Y1.71220
X2.43700 Y1.71220
X2.43700 Y1.71120
X2.42200 Y1.71120
X2.42200 Y1.71020
X2.39300 Y1.71020
X2.39300 Y1.70920
X2.38300 Y1.70920
X2.38300 Y1.70820
X2.37600 Y1.70820
X2.37600 Y1.70720
X2.37000 Y1.70720
X2.37000 Y1.70820
X2.36900 Y1.70820
X2.36900 Y1.70920
X2.36700 Y1.70920
X2.36700 Y1.71020
X2.36500 Y1.71020
X2.36500 Y1.71120
X2.36400 Y1.71120
X2.36400 Y1.71220
X2.36200 Y1.71220
X2.36200 Y1.71320
X2.36000 Y1.71320
X2.36000 Y1.71420
X2.35900 Y1.71420
X2.35900 Y1.71620
X2.35800 Y1.71620
X2.35800 Y1.71720
X2.35700 Y1.71720
X2.35700 Y1.71820
X2.35600 Y1.71820
X2.35600 Y1.71920
X2.35500 Y1.71920
X2.35500 Y1.72120
X2.35400 Y1.72120
X2.35400 Y1.72320
X2.35300 Y1.72320
X2.35300 Y1.72420
X2.35200 Y1.72420
X2.35200 Y1.72720
X2.35100 Y1.72720
X2.35100 Y1.73020
X2.35000 Y1.73020
X2.35000 Y1.73620
X2.34900 Y1.73620
X2.34900 Y1.78520
X2.35000 Y1.78520
X2.35000 Y1.79120
X2.35100 Y1.79120
X2.35100 Y1.79420
X2.35200 Y1.79420
X2.35200 Y1.79720
X2.35300 Y1.79720
X2.35300 Y1.79820
X2.35400 Y1.79820
X2.35400 Y1.80020
X2.35500 Y1.80020
X2.35500 Y1.80220
X2.35600 Y1.80220
X2.35600 Y1.80320
X2.35700 Y1.80320
X2.35700 Y1.80420
X2.35800 Y1.80420
X2.35800 Y1.80520
X2.35900 Y1.80520
X2.35900 Y1.80720
X2.36000 Y1.80720
X2.36000 Y1.80820
X2.36200 Y1.80820
X2.36200 Y1.80920
X2.36400 Y1.80920
X2.36400 Y1.81020
X2.36500 Y1.81020
X2.36500 Y1.81120
X2.36700 Y1.81120
X2.36700 Y1.81220
X2.36900 Y1.81220
X2.36900 Y1.81320
X2.37700 Y1.81320
X2.37700 Y1.81220
X2.38400 Y1.81220
X2.38400 Y1.81120
X2.39900 Y1.81120
X2.39900 Y1.81020
X2.42700 Y1.81020
X2.42700 Y1.80920
X2.43700 Y1.80920
X2.43700 Y1.80820
X2.44300 Y1.80820
X2.44300 Y1.80720
X2.44700 Y1.80720
X2.44700 Y1.80620
X2.44900 Y1.80620
X2.44900 Y1.80720
X2.45100 Y1.80720
X2.45100 Y1.80320
X2.45400 Y1.80320
X2.45400 Y1.79820
X2.45700 Y1.79820
X2.45700 Y1.79720
G04 P0 ( dwell for no time -- G64 should not smooth over this point )
G00 Z0.19685 ( retract )

G00 X1.12700 Y1.78620 ( rapid move to begin. )
G01 Z-0.11417 F43.30709 ( plunge. )
G04 P0 ( dwell for no time -- G64 should not smooth over this point )
X1.12700 Y1.78620
X1.12700 Y1.78520
X1.12900 Y1.78520
X1.12900 Y1.78620
X1.13100 Y1.78620
X1.13100 Y1.78220
X1.13200 Y1.78220
X1.13200 Y1.73920
X1.13100 Y1.73920
X1.13100 Y1.73520
X1.13000 Y1.73520
X1.13000 Y1.73220
X1.12900 Y1.73220
X1.12900 Y1.72820
X1.12800 Y1.72820
X1.12800 Y1.72720
X1.12700 Y1.72720
X1.12700 Y1.72620
X1.12600 Y1.72620
X1.12600 Y1.72520
X1.12500 Y1.72520
X1.12500 Y1.72420
X1.12400 Y1.72420
X1.12400 Y1.72320
X1.12300 Y1.72320
X1.12300 Y1.72220
X1.12200 Y1.72220
X1.12200 Y1.72120
X1.12100 Y1.72120
X1.12100 Y1.72020
X1.12000 Y1.72020
X1.12000 Y1.71920
X1.11900 Y1.71920
X1.11900 Y1.71820
X1.11500 Y1.71820
X1.11500 Y1.71720
X1.11200 Y1.71720
X1.11200 Y1.71620
X1.10800 Y1.71620
X1.10800 Y1.71520
X1.01300 Y1.71520
X1.01300 Y1.71620
X1.00900 Y1.71620
X1.00900 Y1.71720
X1.00600 Y1.71720
X1.00600 Y1.71820
X1.00200 Y1.71820
X1.00200 Y1.71920
X1.00100 Y1.71920
X1.00100 Y1.72020
X1.00000 Y1.72020
X1.00000 Y1.72120
X0.99900 Y1.72120
X0.99900 Y1.72220
X0.99800 Y1.72220
X0.99800 Y1.72320
X0.99700 Y1.72320
X0.99700 Y1.72420
X0.99600 Y1.72420
X0.99600 Y1.72520
X0.99500 Y1.72520
X0.99500 Y1.72620
X0.99400 Y1.72620
X0.99400 Y1.72720
X0.99300 Y1.72720
X0.99300 Y1.72820
X0.99200 Y1.72820
X0.99200 Y1.73220
X0.99100 Y1.73220
X0.99100 Y1.73520
X0.99000 Y1.73520
X0.99000 Y1.73920
X0.98900 Y1.73920
X0.98900 Y1.78220
X0.99000 Y1.78220
X0.99000 Y1.78620
X0.99100 Y1.78620
X0.99100 Y1.78920
X0.99200 Y1.78920
X0.99200 Y1.79320
X0.99300 Y1.79320
X0.99300 Y1.79420
X0.99400 Y1.79420
X0.99400 Y1.79520
X0.99500 Y1.79520
X0.99500 Y1.79620
X0.99600 Y1.79620
X0.99600 Y1.79720
X0.99700 Y1.79720
X0.99700 Y1.79820
X0.99800 Y1.79820
X0.99800 Y1.79920
X0.99900 Y1.79920
X0.99900 Y1.80020
X1.00000 Y1.80020
X1.00000 Y1.80120
X1.00100 Y1.80120
X1.00100 Y1.80220
X1.00200 Y1.80220
X1.00200 Y1.80320
X1.00600 Y1.80320
X1.00600 Y1.80420
X1.00900 Y1.80420
X1.00900 Y1.80520
X1.01300 Y1.80520
X1.01300 Y1.80620
X1.10700 Y1.80620
X1.10700 Y1.80520
X1.11100 Y1.80520
X1.11100 Y1.80420
X1.11400 Y1.80420
X1.11400 Y1.80320
X1.11800 Y1.80320
X1.11800 Y1.80020
X1.12100 Y1.80020
X1.12100 Y1.79720
X1.12400 Y1.79720
X1.12400 Y1.79420
X1.12700 Y1.79420
X1.12700 Y1.78620
G04 P0 ( dwell for no time -- G64 should not smooth over this point )
G00 Z0.19685 ( retract )

G00 X1.42700 Y1.78620 ( rapid move to begin. )
G01 Z-0.11417 F43.30709 ( plunge. )
G04 P0 ( dwell for no time -- G64 should not smooth over this point )
X1.42700 Y1.78620
X1.42700 Y1.78520
X1.42900 Y1.78520
X1.42900 Y1.78620
X1.43100 Y1.78620
X1.43100 Y1.78220
X1.43200 Y1.78220
X1.43200 Y1.73920
X1.43100 Y1.73920
X1.43100 Y1.73520
X1.43000 Y1.73520
X1.43000 Y1.73220
X1.42900 Y1.73220
X1.42900 Y1.72820
X1.42800 Y1.72820
X1.42800 Y1.72720
X1.42700 Y1.72720
X1.42700 Y1.72620
X1.42600 Y1.72620
X1.42600 Y1.72520
X1.42500 Y1.72520
X1.42500 Y1.72420
X1.42400 Y1.72420
X1.42400 Y1.72320
X1.42300 Y1.72320
X1.42300 Y1.72220
X1.42200 Y1.72220
X1.42200 Y1.72120
X1.42100 Y1.72120
X1.42100 Y1.72020
X1.42000 Y1.72020
X1.42000 Y1.71920
X1.41900 Y1.71920
X1.41900 Y1.71820
X1.41500 Y1.71820
X1.41500 Y1.71720
X1.41200 Y1.71720
X1.41200 Y1.71620
X1.40800 Y1.71620
X1.40800 Y1.71520
X1.31300 Y1.71520
X1.31300 Y1.71620
X1.30900 Y1.71620
X1.30900 Y1.71720
X1.30600 Y1.71720
X1.30600 Y1.71820
X1.30200 Y1.71820
X1.30200 Y1.71920
X1.30100 Y1.71920
X1.30100 Y1.72020
X1.30000 Y1.72020
X1.30000 Y1.72120
X1.29900 Y1.72120
X1.29900 Y1.72220
X1.29800 Y1.72220
X1.29800 Y1.72320
X1.29700 Y1.72320
X1.29700 Y1.72420
X1.29600 Y1.72420
X1.29600 Y1.72520
X1.29500 Y1.72520
X1.29500 Y1.72620
X1.29400 Y1.72620
X1.29400 Y1.72720
X1.29300 Y1.72720
X1.29300 Y1.72820
X1.29200 Y1.72820
X1.29200 Y1.73220
X1.29100 Y1.73220
X1.29100 Y1.73520
X1.29000 Y1.73520
X1.29000 Y1.73920
X1.28900 Y1.73920
X1.28900 Y1.78220
X1.29000 Y1.78220
X1.29000 Y1.78620
X1.29100 Y1.78620
X1.29100 Y1.78920
X1.29200 Y1.78920
X1.29200 Y1.79320
X1.29300 Y1.79320
X1.29300 Y1.79420
X1.29400 Y1.79420
X1.29400 Y1.79520
X1.29500 Y1.79520
X1.29500 Y1.79620
X1.29600 Y1.79620
X1.29600 Y1.79720
X1.29700 Y1.79720
X1.29700 Y1.79820
X1.29800 Y1.79820
X1.29800 Y1.79920
X1.29900 Y1.79920
X1.29900 Y1.80020
X1.30000 Y1.80020
X1.30000 Y1.80120
X1.30100 Y1.80120
X1.30100 Y1.80220
X1.30200 Y1.80220
X1.30200 Y1.80320
X1.30600 Y1.80320
X1.30600 Y1.80420
X1.30900 Y1.80420
X1.30900 Y1.80520
X1.31300 Y1.80520
X1.31300 Y1.80620
X1.40700 Y1.80620
X1.40700 Y1.80520
X1.41100 Y1.80520
X1.41100 Y1.80420
X1.41400 Y1.80420
X1.41400 Y1.80320
X1.41800 Y1.80320
X1.41800 Y1.80020
X1.42100 Y1.80020
X1.42100 Y1.79720
X1.42400 Y1.79720
X1.42400 Y1.79420
X1.42700 Y1.79420
X1.42700 Y1.78620
G04 P0 ( dwell for no time -- G64 should not smooth over this point )
G00 Z0.19685 ( retract )

G00 X0.41700 Y1.69720 ( rapid move to begin. )
G01 Z-0.11417 F43.30709 ( plunge. )
G04 P0 ( dwell for no time -- G64 should not smooth over this point )
X0.41700 Y1.69720
X0.41700 Y1.69620
X0.41900 Y1.69620
X0.41900 Y1.69420
X0.42000 Y1.69420
X0.42000 Y1.69120
X0.42100 Y1.69120
X0.42100 Y1.68520
X0.42200 Y1.68520
X0.42200 Y1.66020
X0.42100 Y1.66020
X0.42100 Y1.65720
X0.42000 Y1.65720
X0.42000 Y1.65520
X0.41900 Y1.65520
X0.41900 Y1.65320
X0.41800 Y1.65320
X0.41800 Y1.64920
X0.41700 Y1.64920
X0.41700 Y1.64620
X0.41600 Y1.64620
X0.41600 Y1.64220
X0.41500 Y1.64220
X0.41500 Y1.64020
X0.41400 Y1.64020
X0.41400 Y1.63720
X0.41300 Y1.63720
X0.41300 Y1.63420
X0.41200 Y1.63420
X0.41200 Y1.62920
X0.41100 Y1.62920
X0.41100 Y1.62720
X0.41000 Y1.62720
X0.41000 Y1.62320
X0.40900 Y1.62320
X0.40900 Y1.62020
X0.40800 Y1.62020
X0.40800 Y1.61620
X0.40700 Y1.61620
X0.40700 Y1.61420
X0.40600 Y1.61420
X0.40600 Y1.61220
X0.40500 Y1.61220
X0.40500 Y1.61020
X0.40400 Y1.61020
X0.40400 Y1.60920
X0.40200 Y1.60920
X0.40200 Y1.60820
X0.40100 Y1.60820
X0.40100 Y1.60720
X0.39900 Y1.60720
X0.39900 Y1.60620
X0.39700 Y1.60620
X0.39700 Y1.60720
X0.39300 Y1.60720
X0.39300 Y1.60820
X0.38700 Y1.60820
X0.38700 Y1.60920
X0.37700 Y1.60920
X0.37700 Y1.61020
X0.34900 Y1.61020
X0.34900 Y1.61120
X0.33400 Y1.61120
X0.33400 Y1.61220
X0.32700 Y1.61220
X0.32700 Y1.61320
X0.32000 Y1.61320
X0.32000 Y1.61420
X0.31900 Y1.61420
X0.31900 Y1.61620
X0.31800 Y1.61620
X0.31800 Y1.61720
X0.31700 Y1.61720
X0.31700 Y1.61820
X0.31600 Y1.61820
X0.31600 Y1.61920
X0.31500 Y1.61920
X0.31500 Y1.62120
X0.31400 Y1.62120
X0.31400 Y1.62320
X0.31300 Y1.62320
X0.31300 Y1.62420
X0.31200 Y1.62420
X0.31200 Y1.62720
X0.31100 Y1.62720
X0.31100 Y1.63020
X0.31000 Y1.63020
X0.31000 Y1.63620
X0.30900 Y1.63620
X0.30900 Y1.68520
X0.31000 Y1.68520
X0.31000 Y1.69120
X0.31100 Y1.69120
X0.31100 Y1.69420
X0.31200 Y1.69420
X0.31200 Y1.69720
X0.31300 Y1.69720
X0.31300 Y1.69820
X0.31400 Y1.69820
X0.31400 Y1.70020
X0.31500 Y1.70020
X0.31500 Y1.70220
X0.31600 Y1.70220
X0.31600 Y1.70320
X0.31700 Y1.70320
X0.31700 Y1.70420
X0.31800 Y1.70420
X0.31800 Y1.70520
X0.31900 Y1.70520
X0.31900 Y1.70720
X0.32000 Y1.70720
X0.32000 Y1.70820
X0.32200 Y1.70820
X0.32200 Y1.70920
X0.32400 Y1.70920
X0.32400 Y1.71020
X0.32500 Y1.71020
X0.32500 Y1.71120
X0.32700 Y1.71120
X0.32700 Y1.71220
X0.32900 Y1.71220
X0.32900 Y1.71320
X0.33000 Y1.71320
X0.33000 Y1.71420
X0.33200 Y1.71420
X0.33200 Y1.71520
X0.33700 Y1.71520
X0.33700 Y1.71620
X0.34300 Y1.71620
X0.34300 Y1.71720
X0.38700 Y1.71720
X0.38700 Y1.71620
X0.39300 Y1.71620
X0.39300 Y1.71520
X0.39800 Y1.71520
X0.39800 Y1.71320
X0.40100 Y1.71320
X0.40100 Y1.71120
X0.40500 Y1.71120
X0.40500 Y1.70920
X0.40800 Y1.70920
X0.40800 Y1.70720
X0.41100 Y1.70720
X0.41100 Y1.70320
X0.41400 Y1.70320
X0.41400 Y1.69820
X0.41700 Y1.69820
X0.41700 Y1.69720
G04 P0 ( dwell for no time -- G64 should not smooth over this point )
G00 Z0.19685 ( retract )

G00 X2.46700 Y1.69720 ( rapid move to begin. )
G01 Z-0.11417 F43.30709 ( plunge. )
G04 P0 ( dwell for no time -- G64 should not smooth over this point )
X2.46700 Y1.69720
X2.46700 Y1.69620
X2.46900 Y1.69620
X2.46900 Y1.69420
X2.47000 Y1.69420
X2.47000 Y1.69120
X2.47100 Y1.69120
X2.47100 Y1.68520
X2.47200 Y1.68520
X2.47200 Y1.63620
X2.47100 Y1.63620
X2.47100 Y1.63020
X2.47000 Y1.63020
X2.47000 Y1.62720
X2.46900 Y1.62720
X2.46900 Y1.62420
X2.46800 Y1.62420
X2.46800 Y1.62320
X2.46700 Y1.62320
X2.46700 Y1.62120
X2.46600 Y1.62120
X2.46600 Y1.61920
X2.46500 Y1.61920
X2.46500 Y1.61820
X2.46400 Y1.61820
X2.46400 Y1.61720
X2.46300 Y1.61720
X2.46300 Y1.61620
X2.46200 Y1.61620
X2.46200 Y1.61420
X2.46100 Y1.61420
X2.46100 Y1.61320
X2.45900 Y1.61320
X2.45900 Y1.61220
X2.45700 Y1.61220
X2.45700 Y1.61120
X2.45600 Y1.61120
X2.45600 Y1.61020
X2.45400 Y1.61020
X2.45400 Y1.60920
X2.45200 Y1.60920
X2.45200 Y1.60820
X2.45100 Y1.60820
X2.45100 Y1.60720
X2.44900 Y1.60720
X2.44900 Y1.60620
X2.44700 Y1.60620
X2.44700 Y1.60720
X2.44300 Y1.60720
X2.44300 Y1.60820
X2.43700 Y1.60820
X2.43700 Y1.60920
X2.42700 Y1.60920
X2.42700 Y1.61020
X2.39900 Y1.61020
X2.39900 Y1.61120
X2.38400 Y1.61120
X2.38400 Y1.61220
X2.37700 Y1.61220
X2.37700 Y1.61320
X2.37000 Y1.61320
X2.37000 Y1.61420
X2.36900 Y1.61420
X2.36900 Y1.61620
X2.36800 Y1.61620
X2.36800 Y1.61720
X2.36700 Y1.61720
X2.36700 Y1.61820
X2.36600 Y1.61820
X2.36600 Y1.61920
X2.36500 Y1.61920
X2.36500 Y1.62120
X2.36400 Y1.62120
X2.36400 Y1.62320
X2.36300 Y1.62320
X2.36300 Y1.62420
X2.36200 Y1.62420
X2.36200 Y1.62720
X2.36100 Y1.62720
X2.36100 Y1.63020
X2.36000 Y1.63020
X2.36000 Y1.63620
X2.35900 Y1.63620
X2.35900 Y1.68520
X2.36000 Y1.68520
X2.36000 Y1.69120
X2.36100 Y1.69120
X2.36100 Y1.69420
X2.36200 Y1.69420
X2.36200 Y1.69720
X2.36300 Y1.69720
X2.36300 Y1.69820
X2.36400 Y1.69820
X2.36400 Y1.70020
X2.36500 Y1.70020
X2.36500 Y1.70220
X2.36600 Y1.70220
X2.36600 Y1.70320
X2.36700 Y1.70320
X2.36700 Y1.70420
X2.36800 Y1.70420
X2.36800 Y1.70520
X2.36900 Y1.70520
X2.36900 Y1.70720
X2.37600 Y1.70720
X2.37600 Y1.70820
X2.38300 Y1.70820
X2.38300 Y1.70920
X2.39300 Y1.70920
X2.39300 Y1.71020
X2.42200 Y1.71020
X2.42200 Y1.71120
X2.43700 Y1.71120
X2.43700 Y1.71220
X2.44400 Y1.71220
X2.44400 Y1.71320
X2.44700 Y1.71320
X2.44700 Y1.71220
X2.44900 Y1.71220
X2.44900 Y1.71320
X2.45100 Y1.71320
X2.45100 Y1.71120
X2.45500 Y1.71120
X2.45500 Y1.70920
X2.45800 Y1.70920
X2.45800 Y1.70720
X2.46100 Y1.70720
X2.46100 Y1.70320
X2.46400 Y1.70320
X2.46400 Y1.69820
X2.46700 Y1.69820
X2.46700 Y1.69720
G04 P0 ( dwell for no time -- G64 should not smooth over this point )
G00 Z0.19685 ( retract )

G00 X0.75200 Y1.68620 ( rapid move to begin. )
G01 Z-0.11417 F43.30709 ( plunge. )
G04 P0 ( dwell for no time -- G64 should not smooth over this point )
X0.75200 Y1.68620
X0.75200 Y1.68520
X0.75500 Y1.68520
X0.75500 Y1.68120
X0.75600 Y1.68120
X0.75600 Y1.64020
X0.75500 Y1.64020
X0.75500 Y1.63520
X0.75400 Y1.63520
X0.75400 Y1.63020
X0.75300 Y1.63020
X0.75300 Y1.62820
X0.75200 Y1.62820
X0.75200 Y1.62720
X0.75100 Y1.62720
X0.75100 Y1.62620
X0.75000 Y1.62620
X0.75000 Y1.62420
X0.74900 Y1.62420
X0.74900 Y1.62320
X0.74800 Y1.62320
X0.74800 Y1.62220
X0.74700 Y1.62220
X0.74700 Y1.62120
X0.74600 Y1.62120
X0.74600 Y1.62020
X0.74400 Y1.62020
X0.74400 Y1.61920
X0.74200 Y1.61920
X0.74200 Y1.61820
X0.74100 Y1.61820
X0.74100 Y1.61720
X0.73700 Y1.61720
X0.73700 Y1.61620
X0.73100 Y1.61620
X0.73100 Y1.61520
X0.69000 Y1.61520
X0.69000 Y1.61620
X0.68400 Y1.61620
X0.68400 Y1.61720
X0.68000 Y1.61720
X0.68000 Y1.61820
X0.67900 Y1.61820
X0.67900 Y1.61920
X0.67700 Y1.61920
X0.67700 Y1.62020
X0.67500 Y1.62020
X0.67500 Y1.62120
X0.67400 Y1.62120
X0.67400 Y1.62220
X0.67300 Y1.62220
X0.67300 Y1.62320
X0.67200 Y1.62320
X0.67200 Y1.62420
X0.67100 Y1.62420
X0.67100 Y1.62620
X0.67000 Y1.62620
X0.67000 Y1.62720
X0.66900 Y1.62720
X0.66900 Y1.62820
X0.66800 Y1.62820
X0.66800 Y1.63020
X0.66700 Y1.63020
X0.66700 Y1.63520
X0.66600 Y1.63520
X0.66600 Y1.64020
X0.66500 Y1.64020
X0.66500 Y1.68120
X0.66600 Y1.68120
X0.66600 Y1.68620
X0.66700 Y1.68620
X0.66700 Y1.69120
X0.66800 Y1.69120
X0.66800 Y1.69320
X0.66900 Y1.69320
X0.66900 Y1.69420
X0.67000 Y1.69420
X0.67000 Y1.69520
X0.67100 Y1.69520
X0.67100 Y1.69720
X0.67200 Y1.69720
X0.67200 Y1.69820
X0.67300 Y1.69820
X0.67300 Y1.69920
X0.67400 Y1.69920
X0.67400 Y1.70020
X0.67500 Y1.70020
X0.67500 Y1.70120
X0.67700 Y1.70120
X0.67700 Y1.70220
X0.67900 Y1.70220
X0.67900 Y1.70320
X0.68000 Y1.70320
X0.68000 Y1.70420
X0.68400 Y1.70420
X0.68400 Y1.70520
X0.69000 Y1.70520
X0.69000 Y1.70620
X0.73000 Y1.70620
X0.73000 Y1.70520
X0.73600 Y1.70520
X0.73600 Y1.70420
X0.74000 Y1.70420
X0.74000 Y1.70220
X0.74300 Y1.70220
X0.74300 Y1.70020
X0.74600 Y1.70020
X0.74600 Y1.69720
X0.74900 Y1.69720
X0.74900 Y1.69320
X0.75200 Y1.69320
X0.75200 Y1.68620
G04 P0 ( dwell for no time -- G64 should not smooth over this point )
G00 Z0.19685 ( retract )

G00 X0.85200 Y1.68620 ( rapid move to begin. )
G01 Z-0.11417 F43.30709 ( plunge. )
G04 P0 ( dwell for no time -- G64 should not smooth over this point )
X0.85200 Y1.68620
X0.85200 Y1.68520
X0.85500 Y1.68520
X0.85500 Y1.68120
X0.85600 Y1.68120
X0.85600 Y1.64020
X0.85500 Y1.64020
X0.85500 Y1.63520
X0.85400 Y1.63520
X0.85400 Y1.63020
X0.85300 Y1.63020
X0.85300 Y1.62820
X0.85200 Y1.62820
X0.85200 Y1.62720
X0.85100 Y1.62720
X0.85100 Y1.62620
X0.85000 Y1.62620
X0.85000 Y1.62420
X0.84900 Y1.62420
X0.84900 Y1.62320
X0.84800 Y1.62320
X0.84800 Y1.62220
X0.84700 Y1.62220
X0.84700 Y1.62120
X0.84600 Y1.62120
X0.84600 Y1.62020
X0.84400 Y1.62020
X0.84400 Y1.61920
X0.84200 Y1.61920
X0.84200 Y1.61820
X0.84100 Y1.61820
X0.84100 Y1.61720
X0.83700 Y1.61720
X0.83700 Y1.61620
X0.83100 Y1.61620
X0.83100 Y1.61520
X0.79000 Y1.61520
X0.79000 Y1.61620
X0.78400 Y1.61620
X0.78400 Y1.61720
X0.78000 Y1.61720
X0.78000 Y1.61820
X0.77900 Y1.61820
X0.77900 Y1.61920
X0.77700 Y1.61920
X0.77700 Y1.62020
X0.77500 Y1.62020
X0.77500 Y1.62120
X0.77400 Y1.62120
X0.77400 Y1.62220
X0.77300 Y1.62220
X0.77300 Y1.62320
X0.77200 Y1.62320
X0.77200 Y1.62420
X0.77100 Y1.62420
X0.77100 Y1.62620
X0.77000 Y1.62620
X0.77000 Y1.62720
X0.76900 Y1.62720
X0.76900 Y1.62820
X0.76800 Y1.62820
X0.76800 Y1.63020
X0.76700 Y1.63020
X0.76700 Y1.63520
X0.76600 Y1.63520
X0.76600 Y1.64020
X0.76500 Y1.64020
X0.76500 Y1.68120
X0.76600 Y1.68120
X0.76600 Y1.68620
X0.76700 Y1.68620
X0.76700 Y1.69120
X0.76800 Y1.69120
X0.76800 Y1.69320
X0.76900 Y1.69320
X0.76900 Y1.69420
X0.77000 Y1.69420
X0.77000 Y1.69520
X0.77100 Y1.69520
X0.77100 Y1.69720
X0.77200 Y1.69720
X0.77200 Y1.69820
X0.77300 Y1.69820
X0.77300 Y1.69920
X0.77400 Y1.69920
X0.77400 Y1.70020
X0.77500 Y1.70020
X0.77500 Y1.70120
X0.77700 Y1.70120
X0.77700 Y1.70220
X0.77900 Y1.70220
X0.77900 Y1.70320
X0.78000 Y1.70320
X0.78000 Y1.70420
X0.78400 Y1.70420
X0.78400 Y1.70520
X0.79000 Y1.70520
X0.79000 Y1.70620
X0.83000 Y1.70620
X0.83000 Y1.70520
X0.83600 Y1.70520
X0.83600 Y1.70420
X0.84000 Y1.70420
X0.84000 Y1.70220
X0.84300 Y1.70220
X0.84300 Y1.70020
X0.84600 Y1.70020
X0.84600 Y1.69720
X0.84900 Y1.69720
X0.84900 Y1.69320
X0.85200 Y1.69320
X0.85200 Y1.68620
G04 P0 ( dwell for no time -- G64 should not smooth over this point )
G00 Z0.19685 ( retract )

G00 X0.95600 Y1.68620 ( rapid move to begin. )
G01 Z-0.11417 F43.30709 ( plunge. )
G04 P0 ( dwell for no time -- G64 should not smooth over this point )
X0.95600 Y1.68620
X0.95600 Y1.63020
X0.95500 Y1.63020
X0.95500 Y1.62920
X0.95400 Y1.62920
X0.95400 Y1.62820
X0.95300 Y1.62820
X0.95300 Y1.62720
X0.95200 Y1.62720
X0.95200 Y1.62620
X0.95100 Y1.62620
X0.95100 Y1.62520
X0.95000 Y1.62520
X0.95000 Y1.62420
X0.94900 Y1.62420
X0.94900 Y1.62320
X0.94800 Y1.62320
X0.94800 Y1.62220
X0.94700 Y1.62220
X0.94700 Y1.62120
X0.94600 Y1.62120
X0.94600 Y1.62020
X0.94500 Y1.62020
X0.94500 Y1.61920
X0.94400 Y1.61920
X0.94400 Y1.61820
X0.94300 Y1.61820
X0.94300 Y1.61720
X0.94200 Y1.61720
X0.94200 Y1.61620
X0.94100 Y1.61620
X0.94100 Y1.61520
X0.88000 Y1.61520
X0.88000 Y1.61620
X0.87900 Y1.61620
X0.87900 Y1.61720
X0.87800 Y1.61720
X0.87800 Y1.61820
X0.87700 Y1.61820
X0.87700 Y1.61920
X0.87600 Y1.61920
X0.87600 Y1.62020
X0.87500 Y1.62020
X0.87500 Y1.62120
X0.87400 Y1.62120
X0.87400 Y1.62220
X0.87300 Y1.62220
X0.87300 Y1.62320
X0.87200 Y1.62320
X0.87200 Y1.62420
X0.87100 Y1.62420
X0.87100 Y1.62520
X0.87000 Y1.62520
X0.87000 Y1.62620
X0.86900 Y1.62620
X0.86900 Y1.62720
X0.86800 Y1.62720
X0.86800 Y1.62820
X0.86700 Y1.62820
X0.86700 Y1.62920
X0.86600 Y1.62920
X0.86600 Y1.63020
X0.86500 Y1.63020
X0.86500 Y1.69120
X0.86600 Y1.69120
X0.86600 Y1.69220
X0.86700 Y1.69220
X0.86700 Y1.69320
X0.86800 Y1.69320
X0.86800 Y1.69420
X0.86900 Y1.69420
X0.86900 Y1.69520
X0.87000 Y1.69520
X0.87000 Y1.69620
X0.87100 Y1.69620
X0.87100 Y1.69720
X0.87200 Y1.69720
X0.87200 Y1.69820
X0.87300 Y1.69820
X0.87300 Y1.69920
X0.87400 Y1.69920
X0.87400 Y1.70020
X0.87500 Y1.70020
X0.87500 Y1.70120
X0.87600 Y1.70120
X0.87600 Y1.70220
X0.87700 Y1.70220
X0.87700 Y1.70320
X0.87800 Y1.70320
X0.87800 Y1.70420
X0.87900 Y1.70420
X0.87900 Y1.70520
X0.88000 Y1.70520
X0.88000 Y1.70620
X0.94000 Y1.70620
X0.94000 Y1.70320
X0.94300 Y1.70320
X0.94300 Y1.70020
X0.94600 Y1.70020
X0.94600 Y1.69720
X0.94900 Y1.69720
X0.94900 Y1.69420
X0.95200 Y1.69420
X0.95200 Y1.69120
X0.95600 Y1.69120
X0.95600 Y1.68620
G04 P0 ( dwell for no time -- G64 should not smooth over this point )
G00 Z0.19685 ( retract )

G00 X1.12700 Y1.68620 ( rapid move to begin. )
G01 Z-0.11417 F43.30709 ( plunge. )
G04 P0 ( dwell for no time -- G64 should not smooth over this point )
X1.12700 Y1.68620
X1.12700 Y1.68520
X1.12900 Y1.68520
X1.12900 Y1.68620
X1.13100 Y1.68620
X1.13100 Y1.68220
X1.13200 Y1.68220
X1.13200 Y1.63920
X1.13100 Y1.63920
X1.13100 Y1.63520
X1.13000 Y1.63520
X1.13000 Y1.63220
X1.12900 Y1.63220
X1.12900 Y1.62820
X1.12800 Y1.62820
X1.12800 Y1.62720
X1.12700 Y1.62720
X1.12700 Y1.62620
X1.12600 Y1.62620
X1.12600 Y1.62520
X1.12500 Y1.62520
X1.12500 Y1.62420
X1.12400 Y1.62420
X1.12400 Y1.62320
X1.12300 Y1.62320
X1.12300 Y1.62220
X1.12200 Y1.62220
X1.12200 Y1.62120
X1.12100 Y1.62120
X1.12100 Y1.62020
X1.12000 Y1.62020
X1.12000 Y1.61920
X1.11900 Y1.61920
X1.11900 Y1.61820
X1.11500 Y1.61820
X1.11500 Y1.61720
X1.11200 Y1.61720
X1.11200 Y1.61620
X1.10800 Y1.61620
X1.10800 Y1.61520
X1.01300 Y1.61520
X1.01300 Y1.61620
X1.00900 Y1.61620
X1.00900 Y1.61720
X1.00600 Y1.61720
X1.00600 Y1.61820
X1.00200 Y1.61820
X1.00200 Y1.61920
X1.00100 Y1.61920
X1.00100 Y1.62020
X1.00000 Y1.62020
X1.00000 Y1.62120
X0.99900 Y1.62120
X0.99900 Y1.62220
X0.99800 Y1.62220
X0.99800 Y1.62320
X0.99700 Y1.62320
X0.99700 Y1.62420
X0.99600 Y1.62420
X0.99600 Y1.62520
X0.99500 Y1.62520
X0.99500 Y1.62620
X0.99400 Y1.62620
X0.99400 Y1.62720
X0.99300 Y1.62720
X0.99300 Y1.62820
X0.99200 Y1.62820
X0.99200 Y1.63220
X0.99100 Y1.63220
X0.99100 Y1.63520
X0.99000 Y1.63520
X0.99000 Y1.63920
X0.98900 Y1.63920
X0.98900 Y1.68220
X0.99000 Y1.68220
X0.99000 Y1.68620
X0.99100 Y1.68620
X0.99100 Y1.68920
X0.99200 Y1.68920
X0.99200 Y1.69320
X0.99300 Y1.69320
X0.99300 Y1.69420
X0.99400 Y1.69420
X0.99400 Y1.69520
X0.99500 Y1.69520
X0.99500 Y1.69620
X0.99600 Y1.69620
X0.99600 Y1.69720
X0.99700 Y1.69720
X0.99700 Y1.69820
X0.99800 Y1.69820
X0.99800 Y1.69920
X0.99900 Y1.69920
X0.99900 Y1.70020
X1.00000 Y1.70020
X1.00000 Y1.70120
X1.00100 Y1.70120
X1.00100 Y1.70220
X1.00200 Y1.70220
X1.00200 Y1.70320
X1.00600 Y1.70320
X1.00600 Y1.70420
X1.00900 Y1.70420
X1.00900 Y1.70520
X1.01300 Y1.70520
X1.01300 Y1.70620
X1.10700 Y1.70620
X1.10700 Y1.70520
X1.11100 Y1.70520
X1.11100 Y1.70420
X1.11400 Y1.70420
X1.11400 Y1.70320
X1.11800 Y1.70320
X1.11800 Y1.70020
X1.12100 Y1.70020
X1.12100 Y1.69720
X1.12400 Y1.69720
X1.12400 Y1.69420
X1.12700 Y1.69420
X1.12700 Y1.68620
G04 P0 ( dwell for no time -- G64 should not smooth over this point )
G00 Z0.19685 ( retract )

G00 X1.42700 Y1.68620 ( rapid move to begin. )
G01 Z-0.11417 F43.30709 ( plunge. )
G04 P0 ( dwell for no time -- G64 should not smooth over this point )
X1.42700 Y1.68620
X1.42700 Y1.68520
X1.42900 Y1.68520
X1.42900 Y1.68620
X1.43100 Y1.68620
X1.43100 Y1.68220
X1.43200 Y1.68220
X1.43200 Y1.63920
X1.43100 Y1.63920
X1.43100 Y1.63520
X1.43000 Y1.63520
X1.43000 Y1.63220
X1.42900 Y1.63220
X1.42900 Y1.62820
X1.42800 Y1.62820
X1.42800 Y1.62720
X1.42700 Y1.62720
X1.42700 Y1.62620
X1.42600 Y1.62620
X1.42600 Y1.62520
X1.42500 Y1.62520
X1.42500 Y1.62420
X1.42400 Y1.62420
X1.42400 Y1.62320
X1.42300 Y1.62320
X1.42300 Y1.62220
X1.42200 Y1.62220
X1.42200 Y1.62120
X1.42100 Y1.62120
X1.42100 Y1.62020
X1.42000 Y1.62020
X1.42000 Y1.61920
X1.41900 Y1.61920
X1.41900 Y1.61820
X1.41500 Y1.61820
X1.41500 Y1.61720
X1.41200 Y1.61720
X1.41200 Y1.61620
X1.40800 Y1.61620
X1.40800 Y1.61520
X1.31300 Y1.61520
X1.31300 Y1.61620
X1.30900 Y1.61620
X1.30900 Y1.61720
X1.30600 Y1.61720
X1.30600 Y1.61820
X1.30200 Y1.61820
X1.30200 Y1.61920
X1.30100 Y1.61920
X1.30100 Y1.62020
X1.30000 Y1.62020
X1.30000 Y1.62120
X1.29900 Y1.62120
X1.29900 Y1.62220
X1.29800 Y1.62220
X1.29800 Y1.62320
X1.29700 Y1.62320
X1.29700 Y1.62420
X1.29600 Y1.62420
X1.29600 Y1.62520
X1.29500 Y1.62520
X1.29500 Y1.62620
X1.29400 Y1.62620
X1.29400 Y1.62720
X1.29300 Y1.62720
X1.29300 Y1.62820
X1.29200 Y1.62820
X1.29200 Y1.63220
X1.29100 Y1.63220
X1.29100 Y1.63520
X1.29000 Y1.63520
X1.29000 Y1.63920
X1.28900 Y1.63920
X1.28900 Y1.68220
X1.29000 Y1.68220
X1.29000 Y1.68620
X1.29100 Y1.68620
X1.29100 Y1.68920
X1.29200 Y1.68920
X1.29200 Y1.69320
X1.29300 Y1.69320
X1.29300 Y1.69420
X1.29400 Y1.69420
X1.29400 Y1.69520
X1.29500 Y1.69520
X1.29500 Y1.69620
X1.29600 Y1.69620
X1.29600 Y1.69720
X1.29700 Y1.69720
X1.29700 Y1.69820
X1.29800 Y1.69820
X1.29800 Y1.69920
X1.29900 Y1.69920
X1.29900 Y1.70020
X1.30000 Y1.70020
X1.30000 Y1.70120
X1.30100 Y1.70120
X1.30100 Y1.70220
X1.30200 Y1.70220
X1.30200 Y1.70320
X1.30600 Y1.70320
X1.30600 Y1.70420
X1.30900 Y1.70420
X1.30900 Y1.70520
X1.31300 Y1.70520
X1.31300 Y1.70620
X1.40700 Y1.70620
X1.40700 Y1.70520
X1.41100 Y1.70520
X1.41100 Y1.70420
X1.41400 Y1.70420
X1.41400 Y1.70320
X1.41800 Y1.70320
X1.41800 Y1.70020
X1.42100 Y1.70020
X1.42100 Y1.69720
X1.42400 Y1.69720
X1.42400 Y1.69420
X1.42700 Y1.69420
X1.42700 Y1.68620
G04 P0 ( dwell for no time -- G64 should not smooth over this point )
G00 Z0.19685 ( retract )

G00 X0.51200 Y1.64720 ( rapid move to begin. )
G01 Z-0.11417 F43.30709 ( plunge. )
G04 P0 ( dwell for no time -- G64 should not smooth over this point )
X0.51200 Y1.64720
X0.51200 Y1.64620
X0.51400 Y1.64620
X0.51400 Y1.64420
X0.51500 Y1.64420
X0.51500 Y1.64120
X0.51600 Y1.64120
X0.51600 Y1.63520
X0.51700 Y1.63520
X0.51700 Y1.58620
X0.51600 Y1.58620
X0.51600 Y1.58020
X0.51500 Y1.58020
X0.51500 Y1.57720
X0.51400 Y1.57720
X0.51400 Y1.57420
X0.51300 Y1.57420
X0.51300 Y1.57320
X0.51200 Y1.57320
X0.51200 Y1.57120
X0.51100 Y1.57120
X0.51100 Y1.56920
X0.51000 Y1.56920
X0.51000 Y1.56820
X0.50900 Y1.56820
X0.50900 Y1.56720
X0.50800 Y1.56720
X0.50800 Y1.56620
X0.50700 Y1.56620
X0.50700 Y1.56420
X0.50600 Y1.56420
X0.50600 Y1.56320
X0.50400 Y1.56320
X0.50400 Y1.56220
X0.50200 Y1.56220
X0.50200 Y1.56120
X0.50100 Y1.56120
X0.50100 Y1.56020
X0.49900 Y1.56020
X0.49900 Y1.55920
X0.49700 Y1.55920
X0.49700 Y1.55820
X0.49600 Y1.55820
X0.49600 Y1.55720
X0.49400 Y1.55720
X0.49400 Y1.55620
X0.48900 Y1.55620
X0.48900 Y1.55520
X0.48300 Y1.55520
X0.48300 Y1.55420
X0.43800 Y1.55420
X0.43800 Y1.55520
X0.43200 Y1.55520
X0.43200 Y1.55620
X0.42700 Y1.55620
X0.42700 Y1.55720
X0.42500 Y1.55720
X0.42500 Y1.55820
X0.42400 Y1.55820
X0.42400 Y1.55920
X0.42200 Y1.55920
X0.42200 Y1.56020
X0.42000 Y1.56020
X0.42000 Y1.56120
X0.41900 Y1.56120
X0.41900 Y1.56220
X0.41700 Y1.56220
X0.41700 Y1.56320
X0.41500 Y1.56320
X0.41500 Y1.56420
X0.41400 Y1.56420
X0.41400 Y1.56620
X0.41300 Y1.56620
X0.41300 Y1.56720
X0.41200 Y1.56720
X0.41200 Y1.56820
X0.41100 Y1.56820
X0.41100 Y1.57220
X0.41000 Y1.57220
X0.41000 Y1.57620
X0.40900 Y1.57620
X0.40900 Y1.58220
X0.40800 Y1.58220
X0.40800 Y1.58820
X0.40700 Y1.58820
X0.40700 Y1.59120
X0.40600 Y1.59120
X0.40600 Y1.59620
X0.40500 Y1.59620
X0.40500 Y1.59820
X0.40400 Y1.59820
X0.40400 Y1.61020
X0.40500 Y1.61020
X0.40500 Y1.61220
X0.40600 Y1.61220
X0.40600 Y1.61420
X0.40700 Y1.61420
X0.40700 Y1.61620
X0.40800 Y1.61620
X0.40800 Y1.62020
X0.40900 Y1.62020
X0.40900 Y1.62320
X0.41000 Y1.62320
X0.41000 Y1.62720
X0.41100 Y1.62720
X0.41100 Y1.62920
X0.41200 Y1.62920
X0.41200 Y1.63420
X0.41300 Y1.63420
X0.41300 Y1.63720
X0.41400 Y1.63720
X0.41400 Y1.64020
X0.41500 Y1.64020
X0.41500 Y1.64220
X0.41600 Y1.64220
X0.41600 Y1.64620
X0.41700 Y1.64620
X0.41700 Y1.64920
X0.41800 Y1.64920
X0.41800 Y1.65320
X0.41900 Y1.65320
X0.41900 Y1.65520
X0.42000 Y1.65520
X0.42000 Y1.65720
X0.42100 Y1.65720
X0.42100 Y1.66020
X0.42200 Y1.66020
X0.42200 Y1.66220
X0.42400 Y1.66220
X0.42400 Y1.66320
X0.42500 Y1.66320
X0.42500 Y1.66420
X0.42700 Y1.66420
X0.42700 Y1.66520
X0.43200 Y1.66520
X0.43200 Y1.66620
X0.43800 Y1.66620
X0.43800 Y1.66720
X0.48200 Y1.66720
X0.48200 Y1.66620
X0.48800 Y1.66620
X0.48800 Y1.66520
X0.49300 Y1.66520
X0.49300 Y1.66320
X0.49600 Y1.66320
X0.49600 Y1.66120
X0.50000 Y1.66120
X0.50000 Y1.65920
X0.50300 Y1.65920
X0.50300 Y1.65720
X0.50600 Y1.65720
X0.50600 Y1.65320
X0.50900 Y1.65320
X0.50900 Y1.64820
X0.51200 Y1.64820
X0.51200 Y1.64720
G04 P0 ( dwell for no time -- G64 should not smooth over this point )
G00 Z0.19685 ( retract )

G00 X0.40500 Y1.59720 ( rapid move to begin. )
G01 Z-0.11417 F43.30709 ( plunge. )
G04 P0 ( dwell for no time -- G64 should not smooth over this point )
X0.40500 Y1.59720
X0.40500 Y1.59620
X0.40600 Y1.59620
X0.40600 Y1.59120
X0.40700 Y1.59120
X0.40700 Y1.58820
X0.40800 Y1.58820
X0.40800 Y1.58220
X0.40900 Y1.58220
X0.40900 Y1.57620
X0.41000 Y1.57620
X0.41000 Y1.57220
X0.41100 Y1.57220
X0.41100 Y1.56820
X0.41200 Y1.56820
X0.41200 Y1.53620
X0.41100 Y1.53620
X0.41100 Y1.53020
X0.41000 Y1.53020
X0.41000 Y1.52720
X0.40900 Y1.52720
X0.40900 Y1.52420
X0.40800 Y1.52420
X0.40800 Y1.52320
X0.40700 Y1.52320
X0.40700 Y1.52120
X0.40600 Y1.52120
X0.40600 Y1.51920
X0.40500 Y1.51920
X0.40500 Y1.51820
X0.40400 Y1.51820
X0.40400 Y1.51720
X0.40300 Y1.51720
X0.40300 Y1.51620
X0.40200 Y1.51620
X0.40200 Y1.51420
X0.40100 Y1.51420
X0.40100 Y1.51320
X0.39900 Y1.51320
X0.39900 Y1.51220
X0.39700 Y1.51220
X0.39700 Y1.51320
X0.39400 Y1.51320
X0.39400 Y1.51220
X0.38700 Y1.51220
X0.38700 Y1.51120
X0.37200 Y1.51120
X0.37200 Y1.51020
X0.34300 Y1.51020
X0.34300 Y1.50920
X0.33300 Y1.50920
X0.33300 Y1.50820
X0.32600 Y1.50820
X0.32600 Y1.50720
X0.32000 Y1.50720
X0.32000 Y1.50820
X0.31900 Y1.50820
X0.31900 Y1.50920
X0.31700 Y1.50920
X0.31700 Y1.51020
X0.31500 Y1.51020
X0.31500 Y1.51120
X0.31400 Y1.51120
X0.31400 Y1.51220
X0.31200 Y1.51220
X0.31200 Y1.51320
X0.31000 Y1.51320
X0.31000 Y1.51420
X0.30900 Y1.51420
X0.30900 Y1.51620
X0.30800 Y1.51620
X0.30800 Y1.51720
X0.30700 Y1.51720
X0.30700 Y1.51820
X0.30600 Y1.51820
X0.30600 Y1.51920
X0.30500 Y1.51920
X0.30500 Y1.52120
X0.30400 Y1.52120
X0.30400 Y1.52320
X0.30300 Y1.52320
X0.30300 Y1.52420
X0.30200 Y1.52420
X0.30200 Y1.52720
X0.30100 Y1.52720
X0.30100 Y1.53020
X0.30000 Y1.53020
X0.30000 Y1.53620
X0.29900 Y1.53620
X0.29900 Y1.58520
X0.30000 Y1.58520
X0.30000 Y1.59120
X0.30100 Y1.59120
X0.30100 Y1.59420
X0.30200 Y1.59420
X0.30200 Y1.59720
X0.30300 Y1.59720
X0.30300 Y1.59820
X0.30400 Y1.59820
X0.30400 Y1.60020
X0.30500 Y1.60020
X0.30500 Y1.60220
X0.30600 Y1.60220
X0.30600 Y1.60320
X0.30700 Y1.60320
X0.30700 Y1.60420
X0.30800 Y1.60420
X0.30800 Y1.60520
X0.30900 Y1.60520
X0.30900 Y1.60720
X0.31000 Y1.60720
X0.31000 Y1.60820
X0.31200 Y1.60820
X0.31200 Y1.60920
X0.31400 Y1.60920
X0.31400 Y1.61020
X0.31500 Y1.61020
X0.31500 Y1.61120
X0.31700 Y1.61120
X0.31700 Y1.61220
X0.31900 Y1.61220
X0.31900 Y1.61320
X0.32700 Y1.61320
X0.32700 Y1.61220
X0.33400 Y1.61220
X0.33400 Y1.61120
X0.34900 Y1.61120
X0.34900 Y1.61020
X0.37700 Y1.61020
X0.37700 Y1.60920
X0.38700 Y1.60920
X0.38700 Y1.60820
X0.39300 Y1.60820
X0.39300 Y1.60720
X0.39700 Y1.60720
X0.39700 Y1.60620
X0.39900 Y1.60620
X0.39900 Y1.60720
X0.40100 Y1.60720
X0.40100 Y1.60320
X0.40400 Y1.60320
X0.40400 Y1.59820
X0.40500 Y1.59820
X0.40500 Y1.59720
G04 P0 ( dwell for no time -- G64 should not smooth over this point )
G00 Z0.19685 ( retract )

G00 X2.45700 Y1.59720 ( rapid move to begin. )
G01 Z-0.11417 F43.30709 ( plunge. )
G04 P0 ( dwell for no time -- G64 should not smooth over this point )
X2.45700 Y1.59720
X2.45700 Y1.59620
X2.45900 Y1.59620
X2.45900 Y1.59420
X2.46000 Y1.59420
X2.46000 Y1.59120
X2.46100 Y1.59120
X2.46100 Y1.58520
X2.46200 Y1.58520
X2.46200 Y1.53620
X2.46100 Y1.53620
X2.46100 Y1.53020
X2.46000 Y1.53020
X2.46000 Y1.52720
X2.45900 Y1.52720
X2.45900 Y1.52420
X2.45800 Y1.52420
X2.45800 Y1.52320
X2.45700 Y1.52320
X2.45700 Y1.52120
X2.45600 Y1.52120
X2.45600 Y1.51920
X2.45500 Y1.51920
X2.45500 Y1.51820
X2.45400 Y1.51820
X2.45400 Y1.51720
X2.45300 Y1.51720
X2.45300 Y1.51620
X2.45200 Y1.51620
X2.45200 Y1.51420
X2.45100 Y1.51420
X2.45100 Y1.51320
X2.44900 Y1.51320
X2.44900 Y1.51220
X2.44700 Y1.51220
X2.44700 Y1.51320
X2.44400 Y1.51320
X2.44400 Y1.51220
X2.43700 Y1.51220
X2.43700 Y1.51120
X2.42200 Y1.51120
X2.42200 Y1.51020
X2.39300 Y1.51020
X2.39300 Y1.50920
X2.38300 Y1.50920
X2.38300 Y1.50820
X2.37600 Y1.50820
X2.37600 Y1.50720
X2.37000 Y1.50720
X2.37000 Y1.50820
X2.36900 Y1.50820
X2.36900 Y1.50920
X2.36700 Y1.50920
X2.36700 Y1.51020
X2.36500 Y1.51020
X2.36500 Y1.51120
X2.36400 Y1.51120
X2.36400 Y1.51220
X2.36200 Y1.51220
X2.36200 Y1.51320
X2.36000 Y1.51320
X2.36000 Y1.51420
X2.35900 Y1.51420
X2.35900 Y1.51620
X2.35800 Y1.51620
X2.35800 Y1.51720
X2.35700 Y1.51720
X2.35700 Y1.51820
X2.35600 Y1.51820
X2.35600 Y1.51920
X2.35500 Y1.51920
X2.35500 Y1.52120
X2.35400 Y1.52120
X2.35400 Y1.52320
X2.35300 Y1.52320
X2.35300 Y1.52420
X2.35200 Y1.52420
X2.35200 Y1.52720
X2.35100 Y1.52720
X2.35100 Y1.53020
X2.35000 Y1.53020
X2.35000 Y1.53620
X2.34900 Y1.53620
X2.34900 Y1.58520
X2.35000 Y1.58520
X2.35000 Y1.59120
X2.35100 Y1.59120
X2.35100 Y1.59420
X2.35200 Y1.59420
X2.35200 Y1.59720
X2.35300 Y1.59720
X2.35300 Y1.59820
X2.35400 Y1.59820
X2.35400 Y1.60020
X2.35500 Y1.60020
X2.35500 Y1.60220
X2.35600 Y1.60220
X2.35600 Y1.60320
X2.35700 Y1.60320
X2.35700 Y1.60420
X2.35800 Y1.60420
X2.35800 Y1.60520
X2.35900 Y1.60520
X2.35900 Y1.60720
X2.36000 Y1.60720
X2.36000 Y1.60820
X2.36200 Y1.60820
X2.36200 Y1.60920
X2.36400 Y1.60920
X2.36400 Y1.61020
X2.36500 Y1.61020
X2.36500 Y1.61120
X2.36700 Y1.61120
X2.36700 Y1.61220
X2.36900 Y1.61220
X2.36900 Y1.61320
X2.37700 Y1.61320
X2.37700 Y1.61220
X2.38400 Y1.61220
X2.38400 Y1.61120
X2.39900 Y1.61120
X2.39900 Y1.61020
X2.42700 Y1.61020
X2.42700 Y1.60920
X2.43700 Y1.60920
X2.43700 Y1.60820
X2.44300 Y1.60820
X2.44300 Y1.60720
X2.44700 Y1.60720
X2.44700 Y1.60620
X2.44900 Y1.60620
X2.44900 Y1.60720
X2.45100 Y1.60720
X2.45100 Y1.60320
X2.45400 Y1.60320
X2.45400 Y1.59820
X2.45700 Y1.59820
X2.45700 Y1.59720
G04 P0 ( dwell for no time -- G64 should not smooth over this point )
G00 Z0.19685 ( retract )

G00 X1.12700 Y1.58620 ( rapid move to begin. )
G01 Z-0.11417 F43.30709 ( plunge. )
G04 P0 ( dwell for no time -- G64 should not smooth over this point )
X1.12700 Y1.58620
X1.12700 Y1.58520
X1.12900 Y1.58520
X1.12900 Y1.58620
X1.13100 Y1.58620
X1.13100 Y1.58220
X1.13200 Y1.58220
X1.13200 Y1.53920
X1.13100 Y1.53920
X1.13100 Y1.53520
X1.13000 Y1.53520
X1.13000 Y1.53220
X1.12900 Y1.53220
X1.12900 Y1.52820
X1.12800 Y1.52820
X1.12800 Y1.52720
X1.12700 Y1.52720
X1.12700 Y1.52620
X1.12600 Y1.52620
X1.12600 Y1.52520
X1.12500 Y1.52520
X1.12500 Y1.52420
X1.12400 Y1.52420
X1.12400 Y1.52320
X1.12300 Y1.52320
X1.12300 Y1.52220
X1.12200 Y1.52220
X1.12200 Y1.52120
X1.12100 Y1.52120
X1.12100 Y1.52020
X1.12000 Y1.52020
X1.12000 Y1.51920
X1.11900 Y1.51920
X1.11900 Y1.51820
X1.11500 Y1.51820
X1.11500 Y1.51720
X1.11200 Y1.51720
X1.11200 Y1.51620
X1.10800 Y1.51620
X1.10800 Y1.51520
X1.01300 Y1.51520
X1.01300 Y1.51620
X1.00900 Y1.51620
X1.00900 Y1.51720
X1.00600 Y1.51720
X1.00600 Y1.51820
X1.00200 Y1.51820
X1.00200 Y1.51920
X1.00100 Y1.51920
X1.00100 Y1.52020
X1.00000 Y1.52020
X1.00000 Y1.52120
X0.99900 Y1.52120
X0.99900 Y1.52220
X0.99800 Y1.52220
X0.99800 Y1.52320
X0.99700 Y1.52320
X0.99700 Y1.52420
X0.99600 Y1.52420
X0.99600 Y1.52520
X0.99500 Y1.52520
X0.99500 Y1.52620
X0.99400 Y1.52620
X0.99400 Y1.52720
X0.99300 Y1.52720
X0.99300 Y1.52820
X0.99200 Y1.52820
X0.99200 Y1.53220
X0.99100 Y1.53220
X0.99100 Y1.53520
X0.99000 Y1.53520
X0.99000 Y1.53920
X0.98900 Y1.53920
X0.98900 Y1.58220
X0.99000 Y1.58220
X0.99000 Y1.58620
X0.99100 Y1.58620
X0.99100 Y1.58920
X0.99200 Y1.58920
X0.99200 Y1.59320
X0.99300 Y1.59320
X0.99300 Y1.59420
X0.99400 Y1.59420
X0.99400 Y1.59520
X0.99500 Y1.59520
X0.99500 Y1.59620
X0.99600 Y1.59620
X0.99600 Y1.59720
X0.99700 Y1.59720
X0.99700 Y1.59820
X0.99800 Y1.59820
X0.99800 Y1.59920
X0.99900 Y1.59920
X0.99900 Y1.60020
X1.00000 Y1.60020
X1.00000 Y1.60120
X1.00100 Y1.60120
X1.00100 Y1.60220
X1.00200 Y1.60220
X1.00200 Y1.60320
X1.00600 Y1.60320
X1.00600 Y1.60420
X1.00900 Y1.60420
X1.00900 Y1.60520
X1.01300 Y1.60520
X1.01300 Y1.60620
X1.10700 Y1.60620
X1.10700 Y1.60520
X1.11100 Y1.60520
X1.11100 Y1.60420
X1.11400 Y1.60420
X1.11400 Y1.60320
X1.11800 Y1.60320
X1.11800 Y1.60020
X1.12100 Y1.60020
X1.12100 Y1.59720
X1.12400 Y1.59720
X1.12400 Y1.59420
X1.12700 Y1.59420
X1.12700 Y1.58620
G04 P0 ( dwell for no time -- G64 should not smooth over this point )
G00 Z0.19685 ( retract )

G00 X1.42700 Y1.58620 ( rapid move to begin. )
G01 Z-0.11417 F43.30709 ( plunge. )
G04 P0 ( dwell for no time -- G64 should not smooth over this point )
X1.42700 Y1.58620
X1.42700 Y1.58520
X1.42900 Y1.58520
X1.42900 Y1.58620
X1.43100 Y1.58620
X1.43100 Y1.58220
X1.43200 Y1.58220
X1.43200 Y1.53920
X1.43100 Y1.53920
X1.43100 Y1.53520
X1.43000 Y1.53520
X1.43000 Y1.53220
X1.42900 Y1.53220
X1.42900 Y1.52820
X1.42800 Y1.52820
X1.42800 Y1.52720
X1.42700 Y1.52720
X1.42700 Y1.52620
X1.42600 Y1.52620
X1.42600 Y1.52520
X1.42500 Y1.52520
X1.42500 Y1.52420
X1.42400 Y1.52420
X1.42400 Y1.52320
X1.42300 Y1.52320
X1.42300 Y1.52220
X1.42200 Y1.52220
X1.42200 Y1.52120
X1.42100 Y1.52120
X1.42100 Y1.52020
X1.42000 Y1.52020
X1.42000 Y1.51920
X1.41900 Y1.51920
X1.41900 Y1.51820
X1.41500 Y1.51820
X1.41500 Y1.51720
X1.41200 Y1.51720
X1.41200 Y1.51620
X1.40800 Y1.51620
X1.40800 Y1.51520
X1.31300 Y1.51520
X1.31300 Y1.51620
X1.30900 Y1.51620
X1.30900 Y1.51720
X1.30600 Y1.51720
X1.30600 Y1.51820
X1.30200 Y1.51820
X1.30200 Y1.51920
X1.30100 Y1.51920
X1.30100 Y1.52020
X1.30000 Y1.52020
X1.30000 Y1.52120
X1.29900 Y1.52120
X1.29900 Y1.52220
X1.29800 Y1.52220
X1.29800 Y1.52320
X1.29700 Y1.52320
X1.29700 Y1.52420
X1.29600 Y1.52420
X1.29600 Y1.52520
X1.29500 Y1.52520
X1.29500 Y1.52620
X1.29400 Y1.52620
X1.29400 Y1.52720
X1.29300 Y1.52720
X1.29300 Y1.52820
X1.29200 Y1.52820
X1.29200 Y1.53220
X1.29100 Y1.53220
X1.29100 Y1.53520
X1.29000 Y1.53520
X1.29000 Y1.53920
X1.28900 Y1.53920
X1.28900 Y1.58220
X1.29000 Y1.58220
X1.29000 Y1.58620
X1.29100 Y1.58620
X1.29100 Y1.58920
X1.29200 Y1.58920
X1.29200 Y1.59320
X1.29300 Y1.59320
X1.29300 Y1.59420
X1.29400 Y1.59420
X1.29400 Y1.59520
X1.29500 Y1.59520
X1.29500 Y1.59620
X1.29600 Y1.59620
X1.29600 Y1.59720
X1.29700 Y1.59720
X1.29700 Y1.59820
X1.29800 Y1.59820
X1.29800 Y1.59920
X1.29900 Y1.59920
X1.29900 Y1.60020
X1.30000 Y1.60020
X1.30000 Y1.60120
X1.30100 Y1.60120
X1.30100 Y1.60220
X1.30200 Y1.60220
X1.30200 Y1.60320
X1.30600 Y1.60320
X1.30600 Y1.60420
X1.30900 Y1.60420
X1.30900 Y1.60520
X1.31300 Y1.60520
X1.31300 Y1.60620
X1.40700 Y1.60620
X1.40700 Y1.60520
X1.41100 Y1.60520
X1.41100 Y1.60420
X1.41400 Y1.60420
X1.41400 Y1.60320
X1.41800 Y1.60320
X1.41800 Y1.60020
X1.42100 Y1.60020
X1.42100 Y1.59720
X1.42400 Y1.59720
X1.42400 Y1.59420
X1.42700 Y1.59420
X1.42700 Y1.58620
G04 P0 ( dwell for no time -- G64 should not smooth over this point )
G00 Z0.19685 ( retract )

G00 X0.41700 Y1.49720 ( rapid move to begin. )
G01 Z-0.11417 F43.30709 ( plunge. )
G04 P0 ( dwell for no time -- G64 should not smooth over this point )
X0.41700 Y1.49720
X0.41700 Y1.49620
X0.41900 Y1.49620
X0.41900 Y1.49420
X0.42000 Y1.49420
X0.42000 Y1.49120
X0.42100 Y1.49120
X0.42100 Y1.48520
X0.42200 Y1.48520
X0.42200 Y1.43620
X0.42100 Y1.43620
X0.42100 Y1.43020
X0.42000 Y1.43020
X0.42000 Y1.42720
X0.41900 Y1.42720
X0.41900 Y1.42420
X0.41800 Y1.42420
X0.41800 Y1.42320
X0.41700 Y1.42320
X0.41700 Y1.42120
X0.41600 Y1.42120
X0.41600 Y1.41920
X0.41500 Y1.41920
X0.41500 Y1.41820
X0.41400 Y1.41820
X0.41400 Y1.41720
X0.41300 Y1.41720
X0.41300 Y1.41620
X0.41200 Y1.41620
X0.41200 Y1.41420
X0.41100 Y1.41420
X0.41100 Y1.41320
X0.40900 Y1.41320
X0.40900 Y1.41220
X0.40700 Y1.41220
X0.40700 Y1.41120
X0.40600 Y1.41120
X0.40600 Y1.41020
X0.40400 Y1.41020
X0.40400 Y1.40920
X0.40200 Y1.40920
X0.40200 Y1.40820
X0.40100 Y1.40820
X0.40100 Y1.40720
X0.39900 Y1.40720
X0.39900 Y1.40620
X0.39700 Y1.40620
X0.39700 Y1.40720
X0.39300 Y1.40720
X0.39300 Y1.40820
X0.38700 Y1.40820
X0.38700 Y1.40920
X0.37700 Y1.40920
X0.37700 Y1.41020
X0.34900 Y1.41020
X0.34900 Y1.41120
X0.33400 Y1.41120
X0.33400 Y1.41220
X0.32700 Y1.41220
X0.32700 Y1.41320
X0.32000 Y1.41320
X0.32000 Y1.41420
X0.31900 Y1.41420
X0.31900 Y1.41620
X0.31800 Y1.41620
X0.31800 Y1.41720
X0.31700 Y1.41720
X0.31700 Y1.41820
X0.31600 Y1.41820
X0.31600 Y1.41920
X0.31500 Y1.41920
X0.31500 Y1.42120
X0.31400 Y1.42120
X0.31400 Y1.42320
X0.31300 Y1.42320
X0.31300 Y1.42420
X0.31200 Y1.42420
X0.31200 Y1.42720
X0.31100 Y1.42720
X0.31100 Y1.43020
X0.31000 Y1.43020
X0.31000 Y1.43620
X0.30900 Y1.43620
X0.30900 Y1.48520
X0.31000 Y1.48520
X0.31000 Y1.49120
X0.31100 Y1.49120
X0.31100 Y1.49420
X0.31200 Y1.49420
X0.31200 Y1.49720
X0.31300 Y1.49720
X0.31300 Y1.49820
X0.31400 Y1.49820
X0.31400 Y1.50020
X0.31500 Y1.50020
X0.31500 Y1.50220
X0.31600 Y1.50220
X0.31600 Y1.50320
X0.31700 Y1.50320
X0.31700 Y1.50420
X0.31800 Y1.50420
X0.31800 Y1.50520
X0.31900 Y1.50520
X0.31900 Y1.50720
X0.32600 Y1.50720
X0.32600 Y1.50820
X0.33300 Y1.50820
X0.33300 Y1.50920
X0.34300 Y1.50920
X0.34300 Y1.51020
X0.37200 Y1.51020
X0.37200 Y1.51120
X0.38700 Y1.51120
X0.38700 Y1.51220
X0.39400 Y1.51220
X0.39400 Y1.51320
X0.39700 Y1.51320
X0.39700 Y1.51220
X0.39900 Y1.51220
X0.39900 Y1.51320
X0.40100 Y1.51320
X0.40100 Y1.51120
X0.40500 Y1.51120
X0.40500 Y1.50920
X0.40800 Y1.50920
X0.40800 Y1.50720
X0.41100 Y1.50720
X0.41100 Y1.50320
X0.41400 Y1.50320
X0.41400 Y1.49820
X0.41700 Y1.49820
X0.41700 Y1.49720
G04 P0 ( dwell for no time -- G64 should not smooth over this point )
G00 Z0.19685 ( retract )

G00 X2.46700 Y1.49720 ( rapid move to begin. )
G01 Z-0.11417 F43.30709 ( plunge. )
G04 P0 ( dwell for no time -- G64 should not smooth over this point )
X2.46700 Y1.49720
X2.46700 Y1.49620
X2.46900 Y1.49620
X2.46900 Y1.49420
X2.47000 Y1.49420
X2.47000 Y1.49120
X2.47100 Y1.49120
X2.47100 Y1.48520
X2.47200 Y1.48520
X2.47200 Y1.43620
X2.47100 Y1.43620
X2.47100 Y1.43020
X2.47000 Y1.43020
X2.47000 Y1.42720
X2.46900 Y1.42720
X2.46900 Y1.42420
X2.46800 Y1.42420
X2.46800 Y1.42320
X2.46700 Y1.42320
X2.46700 Y1.42120
X2.46600 Y1.42120
X2.46600 Y1.41920
X2.46500 Y1.41920
X2.46500 Y1.41820
X2.46400 Y1.41820
X2.46400 Y1.41720
X2.46300 Y1.41720
X2.46300 Y1.41620
X2.46200 Y1.41620
X2.46200 Y1.41520
X2.45700 Y1.41520
X2.45700 Y1.41420
X2.45300 Y1.41420
X2.45300 Y1.41320
X2.44800 Y1.41320
X2.44800 Y1.41220
X2.44400 Y1.41220
X2.44400 Y1.41120
X2.43200 Y1.41120
X2.43200 Y1.41020
X2.39900 Y1.41020
X2.39900 Y1.41120
X2.38700 Y1.41120
X2.38700 Y1.41220
X2.38300 Y1.41220
X2.38300 Y1.41320
X2.37800 Y1.41320
X2.37800 Y1.41420
X2.37400 Y1.41420
X2.37400 Y1.41520
X2.37000 Y1.41520
X2.37000 Y1.41620
X2.36800 Y1.41620
X2.36800 Y1.41720
X2.36700 Y1.41720
X2.36700 Y1.41820
X2.36600 Y1.41820
X2.36600 Y1.41920
X2.36500 Y1.41920
X2.36500 Y1.42120
X2.36400 Y1.42120
X2.36400 Y1.42320
X2.36300 Y1.42320
X2.36300 Y1.42420
X2.36200 Y1.42420
X2.36200 Y1.42720
X2.36100 Y1.42720
X2.36100 Y1.43020
X2.36000 Y1.43020
X2.36000 Y1.43620
X2.35900 Y1.43620
X2.35900 Y1.48520
X2.36000 Y1.48520
X2.36000 Y1.49120
X2.36100 Y1.49120
X2.36100 Y1.49420
X2.36200 Y1.49420
X2.36200 Y1.49720
X2.36300 Y1.49720
X2.36300 Y1.49820
X2.36400 Y1.49820
X2.36400 Y1.50020
X2.36500 Y1.50020
X2.36500 Y1.50220
X2.36600 Y1.50220
X2.36600 Y1.50320
X2.36700 Y1.50320
X2.36700 Y1.50420
X2.36800 Y1.50420
X2.36800 Y1.50520
X2.36900 Y1.50520
X2.36900 Y1.50720
X2.37600 Y1.50720
X2.37600 Y1.50820
X2.38300 Y1.50820
X2.38300 Y1.50920
X2.39300 Y1.50920
X2.39300 Y1.51020
X2.42200 Y1.51020
X2.42200 Y1.51120
X2.43700 Y1.51120
X2.43700 Y1.51220
X2.44400 Y1.51220
X2.44400 Y1.51320
X2.44700 Y1.51320
X2.44700 Y1.51220
X2.44900 Y1.51220
X2.44900 Y1.51320
X2.45100 Y1.51320
X2.45100 Y1.51120
X2.45500 Y1.51120
X2.45500 Y1.50920
X2.45800 Y1.50920
X2.45800 Y1.50720
X2.46100 Y1.50720
X2.46100 Y1.50320
X2.46400 Y1.50320
X2.46400 Y1.49820
X2.46700 Y1.49820
X2.46700 Y1.49720
G04 P0 ( dwell for no time -- G64 should not smooth over this point )
G00 Z0.19685 ( retract )

G00 X1.12700 Y1.48620 ( rapid move to begin. )
G01 Z-0.11417 F43.30709 ( plunge. )
G04 P0 ( dwell for no time -- G64 should not smooth over this point )
X1.12700 Y1.48620
X1.12700 Y1.48520
X1.12900 Y1.48520
X1.12900 Y1.48620
X1.13100 Y1.48620
X1.13100 Y1.48220
X1.13200 Y1.48220
X1.13200 Y1.43920
X1.13100 Y1.43920
X1.13100 Y1.43520
X1.13000 Y1.43520
X1.13000 Y1.43220
X1.12900 Y1.43220
X1.12900 Y1.42820
X1.12800 Y1.42820
X1.12800 Y1.42720
X1.12700 Y1.42720
X1.12700 Y1.42620
X1.12600 Y1.42620
X1.12600 Y1.42520
X1.12500 Y1.42520
X1.12500 Y1.42420
X1.12400 Y1.42420
X1.12400 Y1.42320
X1.12300 Y1.42320
X1.12300 Y1.42220
X1.12200 Y1.42220
X1.12200 Y1.42120
X1.12100 Y1.42120
X1.12100 Y1.42020
X1.12000 Y1.42020
X1.12000 Y1.41920
X1.11900 Y1.41920
X1.11900 Y1.41820
X1.11500 Y1.41820
X1.11500 Y1.41720
X1.11200 Y1.41720
X1.11200 Y1.41620
X1.10800 Y1.41620
X1.10800 Y1.41520
X1.01300 Y1.41520
X1.01300 Y1.41620
X1.00900 Y1.41620
X1.00900 Y1.41720
X1.00600 Y1.41720
X1.00600 Y1.41820
X1.00200 Y1.41820
X1.00200 Y1.41920
X1.00100 Y1.41920
X1.00100 Y1.42020
X1.00000 Y1.42020
X1.00000 Y1.42120
X0.99900 Y1.42120
X0.99900 Y1.42220
X0.99800 Y1.42220
X0.99800 Y1.42320
X0.99700 Y1.42320
X0.99700 Y1.42420
X0.99600 Y1.42420
X0.99600 Y1.42520
X0.99500 Y1.42520
X0.99500 Y1.42620
X0.99400 Y1.42620
X0.99400 Y1.42720
X0.99300 Y1.42720
X0.99300 Y1.42820
X0.99200 Y1.42820
X0.99200 Y1.43220
X0.99100 Y1.43220
X0.99100 Y1.43520
X0.99000 Y1.43520
X0.99000 Y1.43920
X0.98900 Y1.43920
X0.98900 Y1.48220
X0.99000 Y1.48220
X0.99000 Y1.48620
X0.99100 Y1.48620
X0.99100 Y1.48920
X0.99200 Y1.48920
X0.99200 Y1.49320
X0.99300 Y1.49320
X0.99300 Y1.49420
X0.99400 Y1.49420
X0.99400 Y1.49520
X0.99500 Y1.49520
X0.99500 Y1.49620
X0.99600 Y1.49620
X0.99600 Y1.49720
X0.99700 Y1.49720
X0.99700 Y1.49820
X0.99800 Y1.49820
X0.99800 Y1.49920
X0.99900 Y1.49920
X0.99900 Y1.50020
X1.00000 Y1.50020
X1.00000 Y1.50120
X1.00100 Y1.50120
X1.00100 Y1.50220
X1.00200 Y1.50220
X1.00200 Y1.50320
X1.00600 Y1.50320
X1.00600 Y1.50420
X1.00900 Y1.50420
X1.00900 Y1.50520
X1.01300 Y1.50520
X1.01300 Y1.50620
X1.10700 Y1.50620
X1.10700 Y1.50520
X1.11100 Y1.50520
X1.11100 Y1.50420
X1.11400 Y1.50420
X1.11400 Y1.50320
X1.11800 Y1.50320
X1.11800 Y1.50020
X1.12100 Y1.50020
X1.12100 Y1.49720
X1.12400 Y1.49720
X1.12400 Y1.49420
X1.12700 Y1.49420
X1.12700 Y1.48620
G04 P0 ( dwell for no time -- G64 should not smooth over this point )
G00 Z0.19685 ( retract )

G00 X1.42700 Y1.48620 ( rapid move to begin. )
G01 Z-0.11417 F43.30709 ( plunge. )
G04 P0 ( dwell for no time -- G64 should not smooth over this point )
X1.42700 Y1.48620
X1.42700 Y1.48520
X1.42900 Y1.48520
X1.42900 Y1.48620
X1.43100 Y1.48620
X1.43100 Y1.48220
X1.43200 Y1.48220
X1.43200 Y1.43920
X1.43100 Y1.43920
X1.43100 Y1.43520
X1.43000 Y1.43520
X1.43000 Y1.43220
X1.42900 Y1.43220
X1.42900 Y1.42820
X1.42800 Y1.42820
X1.42800 Y1.42720
X1.42700 Y1.42720
X1.42700 Y1.42620
X1.42600 Y1.42620
X1.42600 Y1.42520
X1.42500 Y1.42520
X1.42500 Y1.42420
X1.42400 Y1.42420
X1.42400 Y1.42320
X1.42300 Y1.42320
X1.42300 Y1.42220
X1.42200 Y1.42220
X1.42200 Y1.42120
X1.42100 Y1.42120
X1.42100 Y1.42020
X1.42000 Y1.42020
X1.42000 Y1.41920
X1.41900 Y1.41920
X1.41900 Y1.41820
X1.41500 Y1.41820
X1.41500 Y1.41720
X1.41200 Y1.41720
X1.41200 Y1.41620
X1.40800 Y1.41620
X1.40800 Y1.41520
X1.31300 Y1.41520
X1.31300 Y1.41620
X1.30900 Y1.41620
X1.30900 Y1.41720
X1.30600 Y1.41720
X1.30600 Y1.41820
X1.30200 Y1.41820
X1.30200 Y1.41920
X1.30100 Y1.41920
X1.30100 Y1.42020
X1.30000 Y1.42020
X1.30000 Y1.42120
X1.29900 Y1.42120
X1.29900 Y1.42220
X1.29800 Y1.42220
X1.29800 Y1.42320
X1.29700 Y1.42320
X1.29700 Y1.42420
X1.29600 Y1.42420
X1.29600 Y1.42520
X1.29500 Y1.42520
X1.29500 Y1.42620
X1.29400 Y1.42620
X1.29400 Y1.42720
X1.29300 Y1.42720
X1.29300 Y1.42820
X1.29200 Y1.42820
X1.29200 Y1.43220
X1.29100 Y1.43220
X1.29100 Y1.43520
X1.29000 Y1.43520
X1.29000 Y1.43920
X1.28900 Y1.43920
X1.28900 Y1.48220
X1.29000 Y1.48220
X1.29000 Y1.48620
X1.29100 Y1.48620
X1.29100 Y1.48920
X1.29200 Y1.48920
X1.29200 Y1.49320
X1.29300 Y1.49320
X1.29300 Y1.49420
X1.29400 Y1.49420
X1.29400 Y1.49520
X1.29500 Y1.49520
X1.29500 Y1.49620
X1.29600 Y1.49620
X1.29600 Y1.49720
X1.29700 Y1.49720
X1.29700 Y1.49820
X1.29800 Y1.49820
X1.29800 Y1.49920
X1.29900 Y1.49920
X1.29900 Y1.50020
X1.30000 Y1.50020
X1.30000 Y1.50120
X1.30100 Y1.50120
X1.30100 Y1.50220
X1.30200 Y1.50220
X1.30200 Y1.50320
X1.30600 Y1.50320
X1.30600 Y1.50420
X1.30900 Y1.50420
X1.30900 Y1.50520
X1.31300 Y1.50520
X1.31300 Y1.50620
X1.40700 Y1.50620
X1.40700 Y1.50520
X1.41100 Y1.50520
X1.41100 Y1.50420
X1.41400 Y1.50420
X1.41400 Y1.50320
X1.41800 Y1.50320
X1.41800 Y1.50020
X1.42100 Y1.50020
X1.42100 Y1.49720
X1.42400 Y1.49720
X1.42400 Y1.49420
X1.42700 Y1.49420
X1.42700 Y1.48620
G04 P0 ( dwell for no time -- G64 should not smooth over this point )
G00 Z0.19685 ( retract )

G00 X0.40700 Y1.39720 ( rapid move to begin. )
G01 Z-0.11417 F43.30709 ( plunge. )
G04 P0 ( dwell for no time -- G64 should not smooth over this point )
X0.40700 Y1.39720
X0.40700 Y1.39620
X0.40900 Y1.39620
X0.40900 Y1.39420
X0.41000 Y1.39420
X0.41000 Y1.39120
X0.41100 Y1.39120
X0.41100 Y1.38520
X0.41200 Y1.38520
X0.41200 Y1.33620
X0.41100 Y1.33620
X0.41100 Y1.33020
X0.41000 Y1.33020
X0.41000 Y1.32720
X0.40900 Y1.32720
X0.40900 Y1.32420
X0.40800 Y1.32420
X0.40800 Y1.32320
X0.40700 Y1.32320
X0.40700 Y1.32120
X0.40600 Y1.32120
X0.40600 Y1.31920
X0.40500 Y1.31920
X0.40500 Y1.31820
X0.40400 Y1.31820
X0.40400 Y1.31720
X0.40300 Y1.31720
X0.40300 Y1.31620
X0.40200 Y1.31620
X0.40200 Y1.31420
X0.40100 Y1.31420
X0.40100 Y1.31320
X0.39900 Y1.31320
X0.39900 Y1.31220
X0.39700 Y1.31220
X0.39700 Y1.31120
X0.39600 Y1.31120
X0.39600 Y1.31020
X0.39400 Y1.31020
X0.39400 Y1.30920
X0.39200 Y1.30920
X0.39200 Y1.30820
X0.39100 Y1.30820
X0.39100 Y1.30720
X0.38900 Y1.30720
X0.38900 Y1.30620
X0.38400 Y1.30620
X0.38400 Y1.30520
X0.37800 Y1.30520
X0.37800 Y1.30420
X0.33300 Y1.30420
X0.33300 Y1.30520
X0.32700 Y1.30520
X0.32700 Y1.30620
X0.32200 Y1.30620
X0.32200 Y1.30720
X0.32000 Y1.30720
X0.32000 Y1.30820
X0.31900 Y1.30820
X0.31900 Y1.30920
X0.31700 Y1.30920
X0.31700 Y1.31020
X0.31500 Y1.31020
X0.31500 Y1.31120
X0.31400 Y1.31120
X0.31400 Y1.31220
X0.31200 Y1.31220
X0.31200 Y1.31320
X0.31000 Y1.31320
X0.31000 Y1.31420
X0.30900 Y1.31420
X0.30900 Y1.31620
X0.30800 Y1.31620
X0.30800 Y1.31720
X0.30700 Y1.31720
X0.30700 Y1.31820
X0.30600 Y1.31820
X0.30600 Y1.31920
X0.30500 Y1.31920
X0.30500 Y1.32120
X0.30400 Y1.32120
X0.30400 Y1.32320
X0.30300 Y1.32320
X0.30300 Y1.32420
X0.30200 Y1.32420
X0.30200 Y1.32720
X0.30100 Y1.32720
X0.30100 Y1.33020
X0.30000 Y1.33020
X0.30000 Y1.33620
X0.29900 Y1.33620
X0.29900 Y1.38520
X0.30000 Y1.38520
X0.30000 Y1.39120
X0.30100 Y1.39120
X0.30100 Y1.39420
X0.30200 Y1.39420
X0.30200 Y1.39720
X0.30300 Y1.39720
X0.30300 Y1.39820
X0.30400 Y1.39820
X0.30400 Y1.40020
X0.30500 Y1.40020
X0.30500 Y1.40220
X0.30600 Y1.40220
X0.30600 Y1.40320
X0.30700 Y1.40320
X0.30700 Y1.40420
X0.30800 Y1.40420
X0.30800 Y1.40520
X0.30900 Y1.40520
X0.30900 Y1.40720
X0.31000 Y1.40720
X0.31000 Y1.40820
X0.31200 Y1.40820
X0.31200 Y1.40920
X0.31400 Y1.40920
X0.31400 Y1.41020
X0.31500 Y1.41020
X0.31500 Y1.41120
X0.31700 Y1.41120
X0.31700 Y1.41220
X0.31900 Y1.41220
X0.31900 Y1.41320
X0.32700 Y1.41320
X0.32700 Y1.41220
X0.33400 Y1.41220
X0.33400 Y1.41120
X0.34900 Y1.41120
X0.34900 Y1.41020
X0.37700 Y1.41020
X0.37700 Y1.40920
X0.38700 Y1.40920
X0.38700 Y1.40820
X0.39300 Y1.40820
X0.39300 Y1.40720
X0.39700 Y1.40720
X0.39700 Y1.40620
X0.39900 Y1.40620
X0.39900 Y1.40720
X0.40100 Y1.40720
X0.40100 Y1.40320
X0.40400 Y1.40320
X0.40400 Y1.39820
X0.40700 Y1.39820
X0.40700 Y1.39720
G04 P0 ( dwell for no time -- G64 should not smooth over this point )
G00 Z0.19685 ( retract )

G00 X2.46200 Y1.39720 ( rapid move to begin. )
G01 Z-0.11417 F43.30709 ( plunge. )
G04 P0 ( dwell for no time -- G64 should not smooth over this point )
X2.46200 Y1.39720
X2.46200 Y1.30420
X2.34900 Y1.30420
X2.34900 Y1.33220
X2.35000 Y1.33220
X2.35000 Y1.38920
X2.34900 Y1.38920
X2.34900 Y1.41720
X2.36800 Y1.41720
X2.36800 Y1.41620
X2.37000 Y1.41620
X2.37000 Y1.41520
X2.37400 Y1.41520
X2.37400 Y1.41420
X2.37800 Y1.41420
X2.37800 Y1.41320
X2.38300 Y1.41320
X2.38300 Y1.41220
X2.38700 Y1.41220
X2.38700 Y1.41120
X2.39900 Y1.41120
X2.39900 Y1.41020
X2.43200 Y1.41020
X2.43200 Y1.41120
X2.44400 Y1.41120
X2.44400 Y1.41220
X2.44800 Y1.41220
X2.44800 Y1.41320
X2.45300 Y1.41320
X2.45300 Y1.41420
X2.45700 Y1.41420
X2.45700 Y1.41520
X2.46200 Y1.41520
X2.46200 Y1.39720
G04 P0 ( dwell for no time -- G64 should not smooth over this point )
G00 Z0.19685 ( retract )

G00 X0.95600 Y1.38620 ( rapid move to begin. )
G01 Z-0.11417 F43.30709 ( plunge. )
G04 P0 ( dwell for no time -- G64 should not smooth over this point )
X0.95600 Y1.38620
X0.95600 Y1.33020
X0.95500 Y1.33020
X0.95500 Y1.32920
X0.95400 Y1.32920
X0.95400 Y1.32820
X0.95300 Y1.32820
X0.95300 Y1.32720
X0.95200 Y1.32720
X0.95200 Y1.32620
X0.95100 Y1.32620
X0.95100 Y1.32520
X0.95000 Y1.32520
X0.95000 Y1.32420
X0.94900 Y1.32420
X0.94900 Y1.32320
X0.94800 Y1.32320
X0.94800 Y1.32220
X0.94700 Y1.32220
X0.94700 Y1.32120
X0.94600 Y1.32120
X0.94600 Y1.32020
X0.94500 Y1.32020
X0.94500 Y1.31920
X0.94400 Y1.31920
X0.94400 Y1.31820
X0.94300 Y1.31820
X0.94300 Y1.31720
X0.94200 Y1.31720
X0.94200 Y1.31620
X0.94100 Y1.31620
X0.94100 Y1.31520
X0.88000 Y1.31520
X0.88000 Y1.31620
X0.87900 Y1.31620
X0.87900 Y1.31720
X0.87800 Y1.31720
X0.87800 Y1.31820
X0.87700 Y1.31820
X0.87700 Y1.31920
X0.87600 Y1.31920
X0.87600 Y1.32020
X0.87500 Y1.32020
X0.87500 Y1.32120
X0.87400 Y1.32120
X0.87400 Y1.32220
X0.87300 Y1.32220
X0.87300 Y1.32320
X0.87200 Y1.32320
X0.87200 Y1.32420
X0.87100 Y1.32420
X0.87100 Y1.32520
X0.87000 Y1.32520
X0.87000 Y1.32620
X0.86900 Y1.32620
X0.86900 Y1.32720
X0.86800 Y1.32720
X0.86800 Y1.32820
X0.86700 Y1.32820
X0.86700 Y1.32920
X0.86600 Y1.32920
X0.86600 Y1.33020
X0.86500 Y1.33020
X0.86500 Y1.39120
X0.86600 Y1.39120
X0.86600 Y1.39220
X0.86700 Y1.39220
X0.86700 Y1.39320
X0.86800 Y1.39320
X0.86800 Y1.39420
X0.86900 Y1.39420
X0.86900 Y1.39520
