( pcb2gcode 1.1.2 )

G94     ( Inches per minute feed rate. )
G20     ( Units == INCHES.             )
G90     ( Absolute coordinates.        )
S20000  ( RPM spindle speed.           )
M3      ( Spindle on clockwise.        )

G64 P0.00075 ( set maximum deviation from commanded toolpath )

G04 P0 ( dwell for no time -- G64 should not smooth over this point )
G00 Z0.19685 ( retract )

G00 X2.52100 Y2.24220 ( rapid move to begin. )
G01 Z0.00000 F7.87402 ( plunge. )
G04 P0 ( dwell for no time -- G64 should not smooth over this point )
X2.52100 Y2.24220
X2.52100 Y-0.00080
X0.00000 Y-0.00080
X0.00000 Y2.25820
X2.52100 Y2.25820
X2.52100 Y2.24220
G01 Z-0.00394 F7.87402 ( plunge. )
G04 P0 ( dwell for no time -- G64 should not smooth over this point )
X2.52100 Y2.24220
X2.52100 Y-0.00080
X0.00000 Y-0.00080
X0.00000 Y2.25820
X2.52100 Y2.25820
X2.52100 Y2.24220
G01 Z-0.00787 F7.87402 ( plunge. )
G04 P0 ( dwell for no time -- G64 should not smooth over this point )
X2.52100 Y2.24220
X2.52100 Y-0.00080
X0.00000 Y-0.00080
X0.00000 Y2.25820
X2.52100 Y2.25820
X2.52100 Y2.24220
G01 Z-0.01181 F7.87402 ( plunge. )
G04 P0 ( dwell for no time -- G64 should not smooth over this point )
X2.52100 Y2.24220
X2.52100 Y-0.00080
X0.00000 Y-0.00080
X0.00000 Y2.25820
X2.52100 Y2.25820
X2.52100 Y2.24220
G01 Z-0.01575 F7.87402 ( plunge. )
G04 P0 ( dwell for no time -- G64 should not smooth over this point )
X2.52100 Y2.24220
X2.52100 Y-0.00080
X0.00000 Y-0.00080
X0.00000 Y2.25820
X2.52100 Y2.25820
X2.52100 Y2.24220
G01 Z-0.01969 F7.87402 ( plunge. )
G04 P0 ( dwell for no time -- G64 should not smooth over this point )
X2.52100 Y2.24220
X2.52100 Y-0.00080
X0.00000 Y-0.00080
X0.00000 Y2.25820
X2.52100 Y2.25820
X2.52100 Y2.24220
G01 Z-0.02362 F7.87402 ( plunge. )
G04 P0 ( dwell for no time -- G64 should not smooth over this point )
X2.52100 Y2.24220
X2.52100 Y-0.00080
X0.00000 Y-0.00080
X0.00000 Y2.25820
X2.52100 Y2.25820
X2.52100 Y2.24220
G01 Z-0.02756 F7.87402 ( plunge. )
G04 P0 ( dwell for no time -- G64 should not smooth over this point )
X2.52100 Y2.24220
X2.52100 Y-0.00080
X0.00000 Y-0.00080
X0.00000 Y2.25820
X2.52100 Y2.25820
X2.52100 Y2.24220
G01 Z-0.03150 F7.87402 ( plunge. )
G04 P0 ( dwell for no time -- G64 should not smooth over this point )
X2.52100 Y2.24220
X2.52100 Y-0.00080
X0.00000 Y-0.00080
X0.00000 Y2.25820
X2.52100 Y2.25820
X2.52100 Y2.24220
G01 Z-0.03543 F7.87402 ( plunge. )
G04 P0 ( dwell for no time -- G64 should not smooth over this point )
X2.52100 Y2.24220
X2.52100 Y-0.00080
X0.00000 Y-0.00080
X0.00000 Y2.25820
X2.52100 Y2.25820
X2.52100 Y2.24220
G01 Z-0.03937 F7.87402 ( plunge. )
G04 P0 ( dwell for no time -- G64 should not smooth over this point )
X2.52100 Y2.24220
X2.52100 Y-0.00080
X0.00000 Y-0.00080
X0.00000 Y2.25820
X2.52100 Y2.25820
X2.52100 Y2.24220
G01 Z-0.04331 F7.87402 ( plunge. )
G04 P0 ( dwell for no time -- G64 should not smooth over this point )
X2.52100 Y2.24220
X2.52100 Y-0.00080
X0.00000 Y-0.00080
X0.00000 Y2.25820
X2.52100 Y2.25820
X2.52100 Y2.24220
G01 Z-0.04724 F7.87402 ( plunge. )
G04 P0 ( dwell for no time -- G64 should not smooth over this point )
X2.52100 Y2.24220
X2.52100 Y-0.00080
X0.00000 Y-0.00080
X0.00000 Y2.25820
X2.52100 Y2.25820
X2.52100 Y2.24220
G01 Z-0.05118 F7.87402 ( plunge. )
G04 P0 ( dwell for no time -- G64 should not smooth over this point )
X2.52100 Y2.24220
X2.52100 Y-0.00080
X0.00000 Y-0.00080
X0.00000 Y2.25820
X2.52100 Y2.25820
X2.52100 Y2.24220
G01 Z-0.05512 F7.87402 ( plunge. )
G04 P0 ( dwell for no time -- G64 should not smooth over this point )
X2.52100 Y2.24220
X2.52100 Y-0.00080
X0.00000 Y-0.00080
X0.00000 Y2.25820
X2.52100 Y2.25820
X2.52100 Y2.24220
G01 Z-0.05906 F7.87402 ( plunge. )
G04 P0 ( dwell for no time -- G64 should not smooth over this point )
X2.52100 Y2.24220
X2.52100 Y-0.00080
X0.00000 Y-0.00080
X0.00000 Y2.25820
X2.52100 Y2.25820
X2.52100 Y2.24220
G01 Z-0.06299 F7.87402 ( plunge. )
G04 P0 ( dwell for no time -- G64 should not smooth over this point )
X2.52100 Y2.24220
X2.52100 Y-0.00080
X0.00000 Y-0.00080
X0.00000 Y2.25820
X2.52100 Y2.25820
X2.52100 Y2.24220
G01 Z-0.06693 F7.87402 ( plunge. )
G04 P0 ( dwell for no time -- G64 should not smooth over this point )
X2.52100 Y2.24220
X2.52100 Y-0.00080
X0.00000 Y-0.00080
X0.00000 Y2.25820
X2.52100 Y2.25820
X2.52100 Y2.24220
G01 Z-0.07087 F7.87402 ( plunge. )
G04 P0 ( dwell for no time -- G64 should not smooth over this point )
X2.52100 Y2.24220
X2.52100 Y-0.00080
X0.00000 Y-0.00080
X0.00000 Y2.25820
X2.52100 Y2.25820
X2.52100 Y2.24220
G01 Z-0.07480 F7.87402 ( plunge. )
G04 P0 ( dwell for no time -- G64 should not smooth over this point )
X2.52100 Y2.24220
X2.52100 Y-0.00080
X0.00000 Y-0.00080
X0.00000 Y2.25820
X2.52100 Y2.25820
X2.52100 Y2.24220
G01 Z-0.07874 F7.87402 ( plunge. )
G04 P0 ( dwell for no time -- G64 should not smooth over this point )
X2.52100 Y2.24220
X2.52100 Y-0.00080
X0.00000 Y-0.00080
X0.00000 Y2.25820
X2.52100 Y2.25820
X2.52100 Y2.24220
G01 Z-0.08268 F7.87402 ( plunge. )
G04 P0 ( dwell for no time -- G64 should not smooth over this point )
X2.52100 Y2.24220
X2.52100 Y-0.00080
X0.00000 Y-0.00080
X0.00000 Y2.25820
X2.52100 Y2.25820
X2.52100 Y2.24220
G01 Z-0.08661 F7.87402 ( plunge. )
G04 P0 ( dwell for no time -- G64 should not smooth over this point )
X2.52100 Y2.24220
X2.52100 Y-0.00080
X0.00000 Y-0.00080
X0.00000 Y2.25820
X2.52100 Y2.25820
X2.52100 Y2.24220
G01 Z-0.09055 F7.87402 ( plunge. )
G04 P0 ( dwell for no time -- G64 should not smooth over this point )
X2.52100 Y2.24220
X2.52100 Y-0.00080
X0.00000 Y-0.00080
X0.00000 Y2.25820
X2.52100 Y2.25820
X2.52100 Y2.24220
G01 Z-0.09449 F7.87402 ( plunge. )
G04 P0 ( dwell for no time -- G64 should not smooth over this point )
X2.52100 Y2.24220
X2.52100 Y-0.00080
X0.00000 Y-0.00080
X0.00000 Y2.25820
X2.52100 Y2.25820
X2.52100 Y2.24220
G01 Z-0.09843 F7.87402 ( plunge. )
G04 P0 ( dwell for no time -- G64 should not smooth over this point )
X2.52100 Y2.24220
X2.52100 Y-0.00080
X0.00000 Y-0.00080
X0.00000 Y2.25820
X2.52100 Y2.25820
X2.52100 Y2.24220
G01 Z-0.10236 F7.87402 ( plunge. )
G04 P0 ( dwell for no time -- G64 should not smooth over this point )
X2.52100 Y2.24220
X2.52100 Y-0.00080
X0.00000 Y-0.00080
X0.00000 Y2.25820
X2.52100 Y2.25820
X2.52100 Y2.24220
G01 Z-0.10630 F7.87402 ( plunge. )
G04 P0 ( dwell for no time -- G64 should not smooth over this point )
X2.52100 Y2.24220
X2.52100 Y-0.00080
X0.00000 Y-0.00080
X0.00000 Y2.25820
X2.52100 Y2.25820
X2.52100 Y2.24220
G01 Z-0.11024 F7.87402 ( plunge. )
G04 P0 ( dwell for no time -- G64 should not smooth over this point )
X2.52100 Y2.24220
X2.52100 Y-0.00080
X0.00000 Y-0.00080
X0.00000 Y2.25820
X2.52100 Y2.25820
X2.52100 Y2.24220
G01 Z-0.11417 F7.87402 ( plunge. )
G04 P0 ( dwell for no time -- G64 should not smooth over this point )
X2.52100 Y2.24220
X2.52100 Y-0.00080
X0.00000 Y-0.00080
X0.00000 Y2.25820
X2.52100 Y2.25820
X2.52100 Y2.24220
G01 Z-0.11811 F7.87402 ( plunge. )
G04 P0 ( dwell for no time -- G64 should not smooth over this point )
X2.52100 Y2.24220
X2.52100 Y-0.00080
X0.00000 Y-0.00080
X0.00000 Y2.25820
X2.52100 Y2.25820
X2.52100 Y2.24220

G04 P0 ( dwell for no time -- G64 should not smooth over this point )
G00 Z1.18110 ( retract )

M9 ( Coolant off. )
M2 ( Program end. )

